P3
400 711
255
176 208 255
176 208 255
176 208 255
176 208 255
176 208 255
176 208 255
176 208 255
175 207 255
175 207 255
175 207 255
175 207 255
175 207 255
175 207 255
175 207 255
175 207 255
175 207 255
175 207 255
175 207 255
175 207 255
175 207 255
175 207 255
174 207 255
174 207 255
174 207 255
174 207 255
174 207 255
174 207 255
174 207 255
174 207 255
174 207 255
174 206 255
174 206 255
174 206 255
174 206 255
174 206 255
173 206 255
173 206 255
173 206 255
173 206 255
173 206 255
173 206 255
173 206 255
173 206 255
173 206 255
173 206 255
173 206 255
173 206 255
173 206 255
172 206 255
172 206 255
172 206 255
172 206 255
172 205 255
172 205 255
172 205 255
172 205 255
172 205 255
172 205 255
172 205 255
172 205 255
172 205 255
171 205 255
171 205 255
171 205 255
171 205 255
171 205 255
171 205 255
171 205 255
171 205 255
171 205 255
171 205 255
171 205 255
171 205 255
171 205 255
170 204 255
170 204 255
170 204 255
170 204 255
170 204 255
170 204 255
170 204 255
170 204 255
170 204 255
170 204 255
170 204 255
170 204 255
170 204 255
169 204 255
169 204 255
169 204 255
169 204 255
169 204 255
169 204 255
169 204 255
169 204 255
169 203 255
169 203 255
169 203 255
169 203 255
169 203 255
168 203 255
168 203 255
168 203 255
168 203 255
168 203 255
168 203 255
168 203 255
168 203 255
168 203 255
168 203 255
168 203 255
168 203 255
168 203 255
168 203 255
167 203 255
167 203 255
167 203 255
167 203 255
167 203 255
167 202 255
167 202 255
167 202 255
167 202 255
167 202 255
167 202 255
167 202 255
167 202 255
167 202 255
167 202 255
166 202 255
166 202 255
166 202 255
166 202 255
166 202 255
166 202 255
166 202 255
166 202 255
166 202 255
166 202 255
166 202 255
166 202 255
166 202 255
166 202 255
166 202 255
166 202 255
166 202 255
166 202 255
165 201 255
165 201 255
165 201 255
165 201 255
165 201 255
165 201 255
165 201 255
165 201 255
165 201 255
165 201 255
165 201 255
165 201 255
165 201 255
165 201 255
165 201 255
165 201 255
165 201 255
165 201 255
165 201 255
165 201 255
165 201 255
165 201 255
165 201 255
165 201 255
165 201 255
164 201 255
164 201 255
164 201 255
164 201 255
164 201 255
164 201 255
164 201 255
164 201 255
164 201 255
164 201 255
164 201 255
164 201 255
164 201 255
164 201 255
164 201 255
164 201 255
164 201 255
164 201 255
164 201 255
164 201 255
164 201 255
164 201 255
164 201 255
164 201 255
164 201 255
164 201 255
164 201 255
164 201 255
164 201 255
164 201 255
164 201 255
164 201 255
164 201 255
164 201 255
164 201 255
164 201 255
164 201 255
164 201 255
164 201 255
164 201 255
164 201 255
164 201 255
164 201 255
164 201 255
164 201 255
164 201 255
164 201 255
164 201 255
164 201 255
164 201 255
164 201 255
164 201 255
164 201 255
164 201 255
164 201 255
164 201 255
165 201 255
165 201 255
165 201 255
165 201 255
165 201 255
165 201 255
165 201 255
165 201 255
165 201 255
165 201 255
165 201 255
165 201 255
165 201 255
165 201 255
165 201 255
165 201 255
165 201 255
165 201 255
165 201 255
165 201 255
165 201 255
165 201 255
165 201 255
165 201 255
165 201 255
166 202 255
166 202 255
166 202 255
166 202 255
166 202 255
166 202 255
166 202 255
166 202 255
166 202 255
166 202 255
166 202 255
166 202 255
166 202 255
166 202 255
166 202 255
166 202 255
166 202 255
166 202 255
167 202 255
167 202 255
167 202 255
167 202 255
167 202 255
167 202 255
167 202 255
167 202 255
167 202 255
167 202 255
167 203 255
167 203 255
167 203 255
167 203 255
167 203 255
168 203 255
168 203 255
168 203 255
168 203 255
168 203 255
168 203 255
168 203 255
168 203 255
168 203 255
168 203 255
168 203 255
168 203 255
168 203 255
168 203 255
169 203 255
169 203 255
169 203 255
169 203 255
169 203 255
169 204 255
169 204 255
169 204 255
169 204 255
169 204 255
169 204 255
169 204 255
169 204 255
170 204 255
170 204 255
170 204 255
170 204 255
170 204 255
170 204 255
170 204 255
170 204 255
170 204 255
170 204 255
170 204 255
170 204 255
170 204 255
171 205 255
171 205 255
171 205 255
171 205 255
171 205 255
171 205 255
171 205 255
171 205 255
171 205 255
171 205 255
171 205 255
171 205 255
171 205 255
172 205 255
172 205 255
172 205 255
172 205 255
172 205 255
172 205 255
172 205 255
172 205 255
172 205 255
172 206 255
172 206 255
172 206 255
172 206 255
173 206 255
173 206 255
173 206 255
173 206 255
173 206 255
173 206 255
173 206 255
173 206 255
173 206 255
173 206 255
173 206 255
173 206 255
173 206 255
174 206 255
174 206 255
174 206 255
174 206 255
174 206 255
174 207 255
174 207 255
174 207 255
174 207 255
174 207 255
174 207 255
174 207 255
174 207 255
174 207 255
175 207 255
175 207 255
175 207 255
175 207 255
175 207 255
175 207 255
175 207 255
175 207 255
175 207 255
175 207 255
175 207 255
175 207 255
175 207 255
175 207 255
176 208 255
176 208 255
176 208 255
176 208 255
176 208 255
176 208 255
176 208 255
176 208 255
176 208 255
176 208 255
176 208 255
176 208 255
176 208 255
176 208 255
175 207 255
175 207 255
175 207 255
175 207 255
175 207 255
175 207 255
175 207 255
175 207 255
175 207 255
175 207 255
175 207 255
175 207 255
175 207 255
175 207 255
174 207 255
174 207 255
174 207 255
174 207 255
174 207 255
174 207 255
174 207 255
174 207 255
174 207 255
174 206 255
174 206 255
174 206 255
174 206 255
174 206 255
173 206 255
173 206 255
173 206 255
173 206 255
173 206 255
173 206 255
173 206 255
173 206 255
173 206 255
173 206 255
173 206 255
173 206 255
173 206 255
172 206 255
172 206 255
172 206 255
172 206 255
172 205 255
172 205 255
172 205 255
172 205 255
172 205 255
172 205 255
172 205 255
172 205 255
172 205 255
171 205 255
171 205 255
171 205 255
171 205 255
171 205 255
171 205 255
171 205 255
171 205 255
171 205 255
171 205 255
171 205 255
171 205 255
170 204 255
170 204 255
170 204 255
170 204 255
170 204 255
170 204 255
170 204 255
170 204 255
170 204 255
170 204 255
170 204 255
170 204 255
170 204 255
169 204 255
169 204 255
169 204 255
169 204 255
169 204 255
169 204 255
169 204 255
169 204 255
169 204 255
169 203 255
169 203 255
169 203 255
169 203 255
168 203 255
168 203 255
168 203 255
168 203 255
168 203 255
168 203 255
168 203 255
168 203 255
168 203 255
168 203 255
168 203 255
168 203 255
168 203 255
168 203 255
167 203 255
167 203 255
167 203 255
167 203 255
167 203 255
167 202 255
167 202 255
167 202 255
167 202 255
167 202 255
167 202 255
167 202 255
167 202 255
167 202 255
167 202 255
166 202 255
166 202 255
166 202 255
166 202 255
166 202 255
166 202 255
166 202 255
166 202 255
166 202 255
166 202 255
166 202 255
166 202 255
166 202 255
166 202 255
166 202 255
166 202 255
166 202 255
165 201 255
165 201 255
165 201 255
165 201 255
165 201 255
165 201 255
165 201 255
165 201 255
165 201 255
165 201 255
165 201 255
165 201 255
165 201 255
165 201 255
165 201 255
165 201 255
165 201 255
165 201 255
165 201 255
165 201 255
165 201 255
165 201 255
165 201 255
164 201 255
164 201 255
164 201 255
164 201 255
164 201 255
164 201 255
164 201 255
164 201 255
164 201 255
164 201 255
164 201 255
164 201 255
164 201 255
164 201 255
164 201 255
164 201 255
164 201 255
164 201 255
164 201 255
164 201 255
164 201 255
164 201 255
164 201 255
164 201 255
164 201 255
164 201 255
164 201 255
164 201 255
164 201 255
164 201 255
164 201 255
164 201 255
164 201 255
164 201 255
164 201 255
164 201 255
164 201 255
164 201 255
164 201 255
164 201 255
164 201 255
164 201 255
164 201 255
164 201 255
164 201 255
164 201 255
164 201 255
164 201 255
164 201 255
164 201 255
164 201 255
164 201 255
164 201 255
164 201 255
164 201 255
164 201 255
164 201 255
164 201 255
164 201 255
164 201 255
164 201 255
164 201 255
164 201 255
164 201 255
165 201 255
165 201 255
165 201 255
165 201 255
165 201 255
165 201 255
165 201 255
165 201 255
165 201 255
165 201 255
165 201 255
165 201 255
165 201 255
165 201 255
165 201 255
165 201 255
165 201 255
165 201 255
165 201 255
165 201 255
165 201 255
165 201 255
165 201 255
166 202 255
166 202 255
166 202 255
166 202 255
166 202 255
166 202 255
166 202 255
166 202 255
166 202 255
166 202 255
166 202 255
166 202 255
166 202 255
166 202 255
166 202 255
166 202 255
166 202 255
167 202 255
167 202 255
167 202 255
167 202 255
167 202 255
167 202 255
167 202 255
167 202 255
167 202 255
167 202 255
167 203 255
167 203 255
167 203 255
167 203 255
167 203 255
168 203 255
168 203 255
168 203 255
168 203 255
168 203 255
168 203 255
168 203 255
168 203 255
168 203 255
168 203 255
168 203 255
168 203 255
168 203 255
168 203 255
169 203 255
169 203 255
169 203 255
169 203 255
169 204 255
169 204 255
169 204 255
169 204 255
169 204 255
169 204 255
169 204 255
169 204 255
169 204 255
170 204 255
170 204 255
170 204 255
170 204 255
170 204 255
170 204 255
170 204 255
170 204 255
170 204 255
170 204 255
170 204 255
170 204 255
170 204 255
171 205 255
171 205 255
171 205 255
171 205 255
171 205 255
171 205 255
171 205 255
171 205 255
171 205 255
171 205 255
171 205 255
171 205 255
172 205 255
172 205 255
172 205 255
172 205 255
172 205 255
172 205 255
172 205 255
172 205 255
172 205 255
172 206 255
172 206 255
172 206 255
172 206 255
173 206 255
173 206 255
173 206 255
173 206 255
173 206 255
173 206 255
173 206 255
173 206 255
173 206 255
173 206 255
173 206 255
173 206 255
173 206 255
174 206 255
174 206 255
174 206 255
174 206 255
174 206 255
174 207 255
174 207 255
174 207 255
174 207 255
174 207 255
174 207 255
174 207 255
174 207 255
174 207 255
175 207 255
175 207 255
175 207 255
175 207 255
175 207 255
175 207 255
175 207 255
175 207 255
175 207 255
175 207 255
175 207 255
175 207 255
175 207 255
175 207 255
176 208 255
176 208 255
176 208 255
176 208 255
176 208 255
176 208 255
176 208 255
176 208 255
176 208 255
176 208 255
176 208 255
176 208 255
176 208 255
176 208 255
175 207 255
175 207 255
175 207 255
175 207 255
175 207 255
175 207 255
175 207 255
175 207 255
175 207 255
175 207 255
175 207 255
175 207 255
175 207 255
175 207 255
174 207 255
174 207 255
174 207 255
174 207 255
174 207 255
174 207 255
174 207 255
174 207 255
174 207 255
174 206 255
174 206 255
174 206 255
174 206 255
174 206 255
173 206 255
173 206 255
173 206 255
173 206 255
173 206 255
173 206 255
173 206 255
173 206 255
173 206 255
173 206 255
173 206 255
173 206 255
173 206 255
172 206 255
172 206 255
172 206 255
172 206 255
172 205 255
172 205 255
172 205 255
172 205 255
172 205 255
172 205 255
172 205 255
172 205 255
171 205 255
171 205 255
171 205 255
171 205 255
171 205 255
171 205 255
171 205 255
171 205 255
171 205 255
171 205 255
171 205 255
171 205 255
171 205 255
170 204 255
170 204 255
170 204 255
170 204 255
170 204 255
170 204 255
170 204 255
170 204 255
170 204 255
170 204 255
170 204 255
170 204 255
170 204 255
169 204 255
169 204 255
169 204 255
169 204 255
169 204 255
169 204 255
169 204 255
169 204 255
169 203 255
169 203 255
169 203 255
169 203 255
168 203 255
168 203 255
168 203 255
168 203 255
168 203 255
168 203 255
168 203 255
168 203 255
168 203 255
168 203 255
168 203 255
168 203 255
168 203 255
168 203 255
167 203 255
167 203 255
167 203 255
167 203 255
167 203 255
167 202 255
167 202 255
167 202 255
167 202 255
167 202 255
167 202 255
167 202 255
167 202 255
167 202 255
166 202 255
166 202 255
166 202 255
166 202 255
166 202 255
166 202 255
166 202 255
166 202 255
166 202 255
166 202 255
166 202 255
166 202 255
166 202 255
166 202 255
166 202 255
166 202 255
166 202 255
165 201 255
165 201 255
165 201 255
165 201 255
165 201 255
165 201 255
165 201 255
165 201 255
165 201 255
165 201 255
165 201 255
165 201 255
165 201 255
165 201 255
165 201 255
165 201 255
165 201 255
165 201 255
165 201 255
165 201 255
165 201 255
165 201 255
164 201 255
164 201 255
164 201 255
164 201 255
164 201 255
164 201 255
164 201 255
164 201 255
164 201 255
164 201 255
164 201 255
164 201 255
164 201 255
164 201 255
164 201 255
164 201 255
164 201 255
164 201 255
164 201 255
164 201 255
164 201 255
164 201 255
164 201 255
164 201 255
164 201 255
164 201 255
164 201 255
164 201 255
164 201 255
164 201 255
164 201 255
164 201 255
164 201 255
164 201 255
164 201 255
164 201 255
164 201 255
164 201 255
164 201 255
164 201 255
164 201 255
164 201 255
164 201 255
164 201 255
164 201 255
164 201 255
164 201 255
164 201 255
164 201 255
164 201 255
164 201 255
164 201 255
164 201 255
164 201 255
164 201 255
164 201 255
164 201 255
164 201 255
164 201 255
164 201 255
164 201 255
164 201 255
164 201 255
164 201 255
164 201 255
164 201 255
164 201 255
164 201 255
164 201 255
164 201 255
165 201 255
165 201 255
165 201 255
165 201 255
165 201 255
165 201 255
165 201 255
165 201 255
165 201 255
165 201 255
165 201 255
165 201 255
165 201 255
165 201 255
165 201 255
165 201 255
165 201 255
165 201 255
165 201 255
165 201 255
165 201 255
165 201 255
166 202 255
166 202 255
166 202 255
166 202 255
166 202 255
166 202 255
166 202 255
166 202 255
166 202 255
166 202 255
166 202 255
166 202 255
166 202 255
166 202 255
166 202 255
166 202 255
166 202 255
167 202 255
167 202 255
167 202 255
167 202 255
167 202 255
167 202 255
167 202 255
167 202 255
167 202 255
167 203 255
167 203 255
167 203 255
167 203 255
167 203 255
168 203 255
168 203 255
168 203 255
168 203 255
168 203 255
168 203 255
168 203 255
168 203 255
168 203 255
168 203 255
168 203 255
168 203 255
168 203 255
168 203 255
169 203 255
169 203 255
169 203 255
169 203 255
169 204 255
169 204 255
169 204 255
169 204 255
169 204 255
169 204 255
169 204 255
169 204 255
170 204 255
170 204 255
170 204 255
170 204 255
170 204 255
170 204 255
170 204 255
170 204 255
170 204 255
170 204 255
170 204 255
170 204 255
170 204 255
171 205 255
171 205 255
171 205 255
171 205 255
171 205 255
171 205 255
171 205 255
171 205 255
171 205 255
171 205 255
171 205 255
171 205 255
171 205 255
172 205 255
172 205 255
172 205 255
172 205 255
172 205 255
172 205 255
172 205 255
172 205 255
172 206 255
172 206 255
172 206 255
172 206 255
173 206 255
173 206 255
173 206 255
173 206 255
173 206 255
173 206 255
173 206 255
173 206 255
173 206 255
173 206 255
173 206 255
173 206 255
173 206 255
174 206 255
174 206 255
174 206 255
174 206 255
174 206 255
174 207 255
174 207 255
174 207 255
174 207 255
174 207 255
174 207 255
174 207 255
174 207 255
174 207 255
175 207 255
175 207 255
175 207 255
175 207 255
175 207 255
175 207 255
175 207 255
175 207 255
175 207 255
175 207 255
175 207 255
175 207 255
175 207 255
175 207 255
176 208 255
176 208 255
176 208 255
176 208 255
176 208 255
176 208 255
176 208 255
176 208 255
176 208 255
176 208 255
176 208 255
176 208 255
176 208 255
176 208 255
176 208 255
175 207 255
175 207 255
175 207 255
175 207 255
175 207 255
175 207 255
175 207 255
175 207 255
175 207 255
175 207 255
175 207 255
175 207 255
175 207 255
175 207 255
174 207 255
174 207 255
174 207 255
174 207 255
174 207 255
174 207 255
174 207 255
174 207 255
174 206 255
174 206 255
174 206 255
174 206 255
174 206 255
173 206 255
173 206 255
173 206 255
173 206 255
173 206 255
173 206 255
173 206 255
173 206 255
173 206 255
173 206 255
173 206 255
173 206 255
173 206 255
172 206 255
172 206 255
172 206 255
172 206 255
172 205 255
172 205 255
172 205 255
172 205 255
172 205 255
172 205 255
172 205 255
172 205 255
171 205 255
171 205 255
171 205 255
171 205 255
171 205 255
171 205 255
171 205 255
171 205 255
171 205 255
171 205 255
171 205 255
171 205 255
171 205 255
170 204 255
170 204 255
170 204 255
170 204 255
170 204 255
170 204 255
170 204 255
170 204 255
170 204 255
170 204 255
170 204 255
170 204 255
169 204 255
169 204 255
169 204 255
169 204 255
169 204 255
169 204 255
169 204 255
169 204 255
169 204 255
169 203 255
169 203 255
169 203 255
169 203 255
168 203 255
168 203 255
168 203 255
168 203 255
168 203 255
168 203 255
168 203 255
168 203 255
168 203 255
168 203 255
168 203 255
168 203 255
168 203 255
167 203 255
167 203 255
167 203 255
167 203 255
167 203 255
167 202 255
167 202 255
167 202 255
167 202 255
167 202 255
167 202 255
167 202 255
167 202 255
167 202 255
166 202 255
166 202 255
166 202 255
166 202 255
166 202 255
166 202 255
166 202 255
166 202 255
166 202 255
166 202 255
166 202 255
166 202 255
166 202 255
166 202 255
166 202 255
166 202 255
165 201 255
165 201 255
165 201 255
165 201 255
165 201 255
165 201 255
165 201 255
165 201 255
165 201 255
165 201 255
165 201 255
165 201 255
165 201 255
165 201 255
165 201 255
165 201 255
165 201 255
165 201 255
165 201 255
165 201 255
165 201 255
164 201 255
164 201 255
164 201 255
164 201 255
164 201 255
164 201 255
164 201 255
164 201 255
164 201 255
164 201 255
164 201 255
164 201 255
164 201 255
164 201 255
164 201 255
164 201 255
164 201 255
164 201 255
164 201 255
164 201 255
164 201 255
164 201 255
164 200 255
164 200 255
164 200 255
164 200 255
164 200 255
164 200 255
164 200 255
164 200 255
164 200 255
164 200 255
164 200 255
164 200 255
164 200 255
164 200 255
164 200 255
164 200 255
164 200 255
164 200 255
164 200 255
164 200 255
164 200 255
164 200 255
164 200 255
164 200 255
164 200 255
164 200 255
164 200 255
164 200 255
164 200 255
164 200 255
164 200 255
164 201 255
164 201 255
164 201 255
164 201 255
164 201 255
164 201 255
164 201 255
164 201 255
164 201 255
164 201 255
164 201 255
164 201 255
164 201 255
164 201 255
164 201 255
164 201 255
164 201 255
164 201 255
164 201 255
164 201 255
164 201 255
164 201 255
164 201 255
165 201 255
165 201 255
165 201 255
165 201 255
165 201 255
165 201 255
165 201 255
165 201 255
165 201 255
165 201 255
165 201 255
165 201 255
165 201 255
165 201 255
165 201 255
165 201 255
165 201 255
165 201 255
165 201 255
165 201 255
165 201 255
166 202 255
166 202 255
166 202 255
166 202 255
166 202 255
166 202 255
166 202 255
166 202 255
166 202 255
166 202 255
166 202 255
166 202 255
166 202 255
166 202 255
166 202 255
166 202 255
167 202 255
167 202 255
167 202 255
167 202 255
167 202 255
167 202 255
167 202 255
167 202 255
167 202 255
167 203 255
167 203 255
167 203 255
167 203 255
167 203 255
168 203 255
168 203 255
168 203 255
168 203 255
168 203 255
168 203 255
168 203 255
168 203 255
168 203 255
168 203 255
168 203 255
168 203 255
168 203 255
169 203 255
169 203 255
169 203 255
169 203 255
169 203 255
169 204 255
169 204 255
169 204 255
169 204 255
169 204 255
169 204 255
169 204 255
169 204 255
170 204 255
170 204 255
170 204 255
170 204 255
170 204 255
170 204 255
170 204 255
170 204 255
170 204 255
170 204 255
170 204 255
170 204 255
171 205 255
171 205 255
171 205 255
171 205 255
171 205 255
171 205 255
171 205 255
171 205 255
171 205 255
171 205 255
171 205 255
171 205 255
171 205 255
172 205 255
172 205 255
172 205 255
172 205 255
172 205 255
172 205 255
172 205 255
172 205 255
172 206 255
172 206 255
172 206 255
172 206 255
173 206 255
173 206 255
173 206 255
173 206 255
173 206 255
173 206 255
173 206 255
173 206 255
173 206 255
173 206 255
173 206 255
173 206 255
173 206 255
174 206 255
174 206 255
174 206 255
174 206 255
174 206 255
174 207 255
174 207 255
174 207 255
174 207 255
174 207 255
174 207 255
174 207 255
174 207 255
175 207 255
175 207 255
175 207 255
175 207 255
175 207 255
175 207 255
175 207 255
175 207 255
175 207 255
175 207 255
175 207 255
175 207 255
175 207 255
175 207 255
176 208 255
176 208 255
176 208 255
176 208 255
176 208 255
176 208 255
176 208 255
176 208 255
176 208 255
176 208 255
176 208 255
176 208 255
176 208 255
176 208 255
176 208 255
176 208 255
175 207 255
175 207 255
175 207 255
175 207 255
175 207 255
175 207 255
175 207 255
175 207 255
175 207 255
175 207 255
175 207 255
175 207 255
175 207 255
175 207 255
174 207 255
174 207 255
174 207 255
174 207 255
174 207 255
174 207 255
174 207 255
174 207 255
174 206 255
174 206 255
174 206 255
174 206 255
174 206 255
173 206 255
173 206 255
173 206 255
173 206 255
173 206 255
173 206 255
173 206 255
173 206 255
173 206 255
173 206 255
173 206 255
173 206 255
173 206 255
172 206 255
172 206 255
172 206 255
172 206 255
172 205 255
172 205 255
172 205 255
172 205 255
172 205 255
172 205 255
172 205 255
172 205 255
171 205 255
171 205 255
171 205 255
171 205 255
171 205 255
171 205 255
171 205 255
171 205 255
171 205 255
171 205 255
171 205 255
171 205 255
170 204 255
170 204 255
170 204 255
170 204 255
170 204 255
170 204 255
170 204 255
170 204 255
170 204 255
170 204 255
170 204 255
170 204 255
170 204 255
169 204 255
169 204 255
169 204 255
169 204 255
169 204 255
169 204 255
169 204 255
169 204 255
169 203 255
169 203 255
169 203 255
169 203 255
168 203 255
168 203 255
168 203 255
168 203 255
168 203 255
168 203 255
168 203 255
168 203 255
168 203 255
168 203 255
168 203 255
168 203 255
168 203 255
167 203 255
167 203 255
167 203 255
167 203 255
167 203 255
167 202 255
167 202 255
167 202 255
167 202 255
167 202 255
167 202 255
167 202 255
167 202 255
167 202 255
166 202 255
166 202 255
166 202 255
166 202 255
166 202 255
166 202 255
166 202 255
166 202 255
166 202 255
166 202 255
166 202 255
166 202 255
166 202 255
166 202 255
166 202 255
166 202 255
165 201 255
165 201 255
165 201 255
165 201 255
165 201 255
165 201 255
165 201 255
165 201 255
165 201 255
165 201 255
165 201 255
165 201 255
165 201 255
165 201 255
165 201 255
165 201 255
165 201 255
165 201 255
165 201 255
164 201 255
164 201 255
164 201 255
164 201 255
164 201 255
164 201 255
164 201 255
164 201 255
164 201 255
164 201 255
164 201 255
164 201 255
164 201 255
164 201 255
164 201 255
164 201 255
164 201 255
164 201 255
164 201 255
164 201 255
164 200 255
164 200 255
164 200 255
164 200 255
164 200 255
164 200 255
164 200 255
164 200 255
164 200 255
164 200 255
164 200 255
164 200 255
164 200 255
164 200 255
164 200 255
164 200 255
164 200 255
164 200 255
164 200 255
164 200 255
164 200 255
164 200 255
164 200 255
164 200 255
164 200 255
164 200 255
164 200 255
164 200 255
164 200 255
164 200 255
164 200 255
164 200 255
164 200 255
164 200 255
164 200 255
164 200 255
164 200 255
164 200 255
164 200 255
164 200 255
164 200 255
164 200 255
164 201 255
164 201 255
164 201 255
164 201 255
164 201 255
164 201 255
164 201 255
164 201 255
164 201 255
164 201 255
164 201 255
164 201 255
164 201 255
164 201 255
164 201 255
164 201 255
164 201 255
164 201 255
164 201 255
164 201 255
165 201 255
165 201 255
165 201 255
165 201 255
165 201 255
165 201 255
165 201 255
165 201 255
165 201 255
165 201 255
165 201 255
165 201 255
165 201 255
165 201 255
165 201 255
165 201 255
165 201 255
165 201 255
165 201 255
166 202 255
166 202 255
166 202 255
166 202 255
166 202 255
166 202 255
166 202 255
166 202 255
166 202 255
166 202 255
166 202 255
166 202 255
166 202 255
166 202 255
166 202 255
166 202 255
167 202 255
167 202 255
167 202 255
167 202 255
167 202 255
167 202 255
167 202 255
167 202 255
167 202 255
167 203 255
167 203 255
167 203 255
167 203 255
167 203 255
168 203 255
168 203 255
168 203 255
168 203 255
168 203 255
168 203 255
168 203 255
168 203 255
168 203 255
168 203 255
168 203 255
168 203 255
168 203 255
169 203 255
169 203 255
169 203 255
169 203 255
169 204 255
169 204 255
169 204 255
169 204 255
169 204 255
169 204 255
169 204 255
169 204 255
170 204 255
170 204 255
170 204 255
170 204 255
170 204 255
170 204 255
170 204 255
170 204 255
170 204 255
170 204 255
170 204 255
170 204 255
170 204 255
171 205 255
171 205 255
171 205 255
171 205 255
171 205 255
171 205 255
171 205 255
171 205 255
171 205 255
171 205 255
171 205 255
171 205 255
172 205 255
172 205 255
172 205 255
172 205 255
172 205 255
172 205 255
172 205 255
172 205 255
172 206 255
172 206 255
172 206 255
172 206 255
172 206 255
173 206 255
173 206 255
173 206 255
173 206 255
173 206 255
173 206 255
173 206 255
173 206 255
173 206 255
173 206 255
173 206 255
173 206 255
174 206 255
174 206 255
174 206 255
174 206 255
174 207 255
174 207 255
174 207 255
174 207 255
174 207 255
174 207 255
174 207 255
174 207 255
174 207 255
175 207 255
175 207 255
175 207 255
175 207 255
175 207 255
175 207 255
175 207 255
175 207 255
175 207 255
175 207 255
175 207 255
175 207 255
175 207 255
175 207 255
176 208 255
176 208 255
176 208 255
176 208 255
176 208 255
176 208 255
176 208 255
176 208 255
176 208 255
176 208 255
176 208 255
176 208 255
176 208 255
176 208 255
176 208 255
176 208 255
175 207 255
175 207 255
175 207 255
175 207 255
175 207 255
175 207 255
175 207 255
175 207 255
175 207 255
175 207 255
175 207 255
175 207 255
175 207 255
175 207 255
174 207 255
174 207 255
174 207 255
174 207 255
174 207 255
174 207 255
174 207 255
174 207 255
174 207 255
174 206 255
174 206 255
174 206 255
174 206 255
173 206 255
173 206 255
173 206 255
173 206 255
173 206 255
173 206 255
173 206 255
173 206 255
173 206 255
173 206 255
173 206 255
173 206 255
173 206 255
172 206 255
172 206 255
172 206 255
172 206 255
172 205 255
172 205 255
172 205 255
172 205 255
172 205 255
172 205 255
172 205 255
172 205 255
171 205 255
171 205 255
171 205 255
171 205 255
171 205 255
171 205 255
171 205 255
171 205 255
171 205 255
171 205 255
171 205 255
171 205 255
170 204 255
170 204 255
170 204 255
170 204 255
170 204 255
170 204 255
170 204 255
170 204 255
170 204 255
170 204 255
170 204 255
170 204 255
169 204 255
169 204 255
169 204 255
169 204 255
169 204 255
169 204 255
169 204 255
169 204 255
169 203 255
169 203 255
169 203 255
169 203 255
169 203 255
168 203 255
168 203 255
168 203 255
168 203 255
168 203 255
168 203 255
168 203 255
168 203 255
168 203 255
168 203 255
168 203 255
168 203 255
167 203 255
167 203 255
167 203 255
167 203 255
167 203 255
167 202 255
167 202 255
167 202 255
167 202 255
167 202 255
167 202 255
167 202 255
167 202 255
167 202 255
166 202 255
166 202 255
166 202 255
166 202 255
166 202 255
166 202 255
166 202 255
166 202 255
166 202 255
166 202 255
166 202 255
166 202 255
166 202 255
166 202 255
166 202 255
165 201 255
165 201 255
165 201 255
165 201 255
165 201 255
165 201 255
165 201 255
165 201 255
165 201 255
165 201 255
165 201 255
165 201 255
165 201 255
165 201 255
165 201 255
165 201 255
165 201 255
165 201 255
165 201 255
164 201 255
164 201 255
164 201 255
164 201 255
164 201 255
164 201 255
164 201 255
164 201 255
164 201 255
164 201 255
164 201 255
164 201 255
164 201 255
164 201 255
164 201 255
164 201 255
164 201 255
164 200 255
164 200 255
164 200 255
164 200 255
164 200 255
164 200 255
164 200 255
164 200 255
164 200 255
164 200 255
164 200 255
164 200 255
164 200 255
164 200 255
164 200 255
164 200 255
164 200 255
164 200 255
163 200 255
163 200 255
163 200 255
163 200 255
163 200 255
163 200 255
163 200 255
163 200 255
163 200 255
163 200 255
163 200 255
163 200 255
163 200 255
163 200 255
163 200 255
163 200 255
164 200 255
164 200 255
164 200 255
164 200 255
164 200 255
164 200 255
164 200 255
164 200 255
164 200 255
164 200 255
164 200 255
164 200 255
164 200 255
164 200 255
164 200 255
164 200 255
164 200 255
164 200 255
164 201 255
164 201 255
164 201 255
164 201 255
164 201 255
164 201 255
164 201 255
164 201 255
164 201 255
164 201 255
164 201 255
164 201 255
164 201 255
164 201 255
164 201 255
164 201 255
164 201 255
165 201 255
165 201 255
165 201 255
165 201 255
165 201 255
165 201 255
165 201 255
165 201 255
165 201 255
165 201 255
165 201 255
165 201 255
165 201 255
165 201 255
165 201 255
165 201 255
165 201 255
165 201 255
165 201 255
166 202 255
166 202 255
166 202 255
166 202 255
166 202 255
166 202 255
166 202 255
166 202 255
166 202 255
166 202 255
166 202 255
166 202 255
166 202 255
166 202 255
166 202 255
167 202 255
167 202 255
167 202 255
167 202 255
167 202 255
167 202 255
167 202 255
167 202 255
167 202 255
167 203 255
167 203 255
167 203 255
167 203 255
167 203 255
168 203 255
168 203 255
168 203 255
168 203 255
168 203 255
168 203 255
168 203 255
168 203 255
168 203 255
168 203 255
168 203 255
168 203 255
169 203 255
169 203 255
169 203 255
169 203 255
169 203 255
169 204 255
169 204 255
169 204 255
169 204 255
169 204 255
169 204 255
169 204 255
169 204 255
170 204 255
170 204 255
170 204 255
170 204 255
170 204 255
170 204 255
170 204 255
170 204 255
170 204 255
170 204 255
170 204 255
170 204 255
171 205 255
171 205 255
171 205 255
171 205 255
171 205 255
171 205 255
171 205 255
171 205 255
171 205 255
171 205 255
171 205 255
171 205 255
172 205 255
172 205 255
172 205 255
172 205 255
172 205 255
172 205 255
172 205 255
172 205 255
172 206 255
172 206 255
172 206 255
172 206 255
172 206 255
173 206 255
173 206 255
173 206 255
173 206 255
173 206 255
173 206 255
173 206 255
173 206 255
173 206 255
173 206 255
173 206 255
173 206 255
174 206 255
174 206 255
174 206 255
174 206 255
174 207 255
174 207 255
174 207 255
174 207 255
174 207 255
174 207 255
174 207 255
174 207 255
174 207 255
175 207 255
175 207 255
175 207 255
175 207 255
175 207 255
175 207 255
175 207 255
175 207 255
175 207 255
175 207 255
175 207 255
175 207 255
175 207 255
175 207 255
176 208 255
176 208 255
176 208 255
176 208 255
176 208 255
176 208 255
176 208 255
176 208 255
176 208 255
176 208 255
176 208 255
176 208 255
176 208 255
176 208 255
176 208 255
176 208 255
176 208 255
175 207 255
175 207 255
175 207 255
175 207 255
175 207 255
175 207 255
175 207 255
175 207 255
175 207 255
175 207 255
175 207 255
175 207 255
175 207 255
174 207 255
174 207 255
174 207 255
174 207 255
174 207 255
174 207 255
174 207 255
174 207 255
174 207 255
174 206 255
174 206 255
174 206 255
174 206 255
173 206 255
173 206 255
173 206 255
173 206 255
173 206 255
173 206 255
173 206 255
173 206 255
173 206 255
173 206 255
173 206 255
173 206 255
173 206 255
172 206 255
172 206 255
172 206 255
172 206 255
172 205 255
172 205 255
172 205 255
172 205 255
172 205 255
172 205 255
172 205 255
172 205 255
171 205 255
171 205 255
171 205 255
171 205 255
171 205 255
171 205 255
171 205 255
171 205 255
171 205 255
171 205 255
171 205 255
171 205 255
170 204 255
170 204 255
170 204 255
170 204 255
170 204 255
170 204 255
170 204 255
170 204 255
170 204 255
170 204 255
170 204 255
170 204 255
169 204 255
169 204 255
169 204 255
169 204 255
169 204 255
169 204 255
169 204 255
169 204 255
169 203 255
169 203 255
169 203 255
169 203 255
168 203 255
168 203 255
168 203 255
168 203 255
168 203 255
168 203 255
168 203 255
168 203 255
168 203 255
168 203 255
168 203 255
168 203 255
168 203 255
167 203 255
167 203 255
167 203 255
167 203 255
167 202 255
167 202 255
167 202 255
167 202 255
167 202 255
167 202 255
167 202 255
167 202 255
167 202 255
166 202 255
166 202 255
166 202 255
166 202 255
166 202 255
166 202 255
166 202 255
166 202 255
166 202 255
166 202 255
166 202 255
166 202 255
166 202 255
166 202 255
166 202 255
165 201 255
165 201 255
165 201 255
165 201 255
165 201 255
165 201 255
165 201 255
165 201 255
165 201 255
165 201 255
165 201 255
165 201 255
165 201 255
165 201 255
165 201 255
165 201 255
165 201 255
164 201 255
164 201 255
164 201 255
164 201 255
164 201 255
164 201 255
164 201 255
164 201 255
164 201 255
164 201 255
164 201 255
164 201 255
164 201 255
164 201 255
164 201 255
164 201 255
164 201 255
164 200 255
164 200 255
164 200 255
164 200 255
164 200 255
164 200 255
164 200 255
164 200 255
164 200 255
164 200 255
164 200 255
164 200 255
163 200 255
163 200 255
163 200 255
163 200 255
163 200 255
163 200 255
163 200 255
163 200 255
163 200 255
163 200 255
163 200 255
163 200 255
163 200 255
163 200 255
163 200 255
163 200 255
163 200 255
163 200 255
163 200 255
163 200 255
163 200 255
163 200 255
163 200 255
163 200 255
163 200 255
163 200 255
163 200 255
163 200 255
163 200 255
163 200 255
163 200 255
163 200 255
163 200 255
163 200 255
164 200 255
164 200 255
164 200 255
164 200 255
164 200 255
164 200 255
164 200 255
164 200 255
164 200 255
164 200 255
164 200 255
164 200 255
164 200 255
164 201 255
164 201 255
164 201 255
164 201 255
164 201 255
164 201 255
164 201 255
164 201 255
164 201 255
164 201 255
164 201 255
164 201 255
164 201 255
164 201 255
164 201 255
164 201 255
165 201 255
165 201 255
165 201 255
165 201 255
165 201 255
165 201 255
165 201 255
165 201 255
165 201 255
165 201 255
165 201 255
165 201 255
165 201 255
165 201 255
165 201 255
165 201 255
165 201 255
166 202 255
166 202 255
166 202 255
166 202 255
166 202 255
166 202 255
166 202 255
166 202 255
166 202 255
166 202 255
166 202 255
166 202 255
166 202 255
166 202 255
166 202 255
167 202 255
167 202 255
167 202 255
167 202 255
167 202 255
167 202 255
167 202 255
167 202 255
167 202 255
167 203 255
167 203 255
167 203 255
167 203 255
168 203 255
168 203 255
168 203 255
168 203 255
168 203 255
168 203 255
168 203 255
168 203 255
168 203 255
168 203 255
168 203 255
168 203 255
168 203 255
169 203 255
169 203 255
169 203 255
169 203 255
169 204 255
169 204 255
169 204 255
169 204 255
169 204 255
169 204 255
169 204 255
169 204 255
170 204 255
170 204 255
170 204 255
170 204 255
170 204 255
170 204 255
170 204 255
170 204 255
170 204 255
170 204 255
170 204 255
170 204 255
171 205 255
171 205 255
171 205 255
171 205 255
171 205 255
171 205 255
171 205 255
171 205 255
171 205 255
171 205 255
171 205 255
171 205 255
172 205 255
172 205 255
172 205 255
172 205 255
172 205 255
172 205 255
172 205 255
172 205 255
172 206 255
172 206 255
172 206 255
172 206 255
173 206 255
173 206 255
173 206 255
173 206 255
173 206 255
173 206 255
173 206 255
173 206 255
173 206 255
173 206 255
173 206 255
173 206 255
173 206 255
174 206 255
174 206 255
174 206 255
174 206 255
174 207 255
174 207 255
174 207 255
174 207 255
174 207 255
174 207 255
174 207 255
174 207 255
174 207 255
175 207 255
175 207 255
175 207 255
175 207 255
175 207 255
175 207 255
175 207 255
175 207 255
175 207 255
175 207 255
175 207 255
175 207 255
175 207 255
176 208 255
176 208 255
176 208 255
176 208 255
176 208 255
176 208 255
176 208 255
176 208 255
176 208 255
176 208 255
176 208 255
176 208 255
176 208 255
176 208 255
176 208 255
176 208 255
176 208 255
176 208 255
175 207 255
175 207 255
175 207 255
175 207 255
175 207 255
175 207 255
175 207 255
175 207 255
175 207 255
175 207 255
175 207 255
175 207 255
175 207 255
174 207 255
174 207 255
174 207 255
174 207 255
174 207 255
174 207 255
174 207 255
174 207 255
174 207 255
174 206 255
174 206 255
174 206 255
174 206 255
173 206 255
173 206 255
173 206 255
173 206 255
173 206 255
173 206 255
173 206 255
173 206 255
173 206 255
173 206 255
173 206 255
173 206 255
173 206 255
172 206 255
172 206 255
172 206 255
172 206 255
172 205 255
172 205 255
172 205 255
172 205 255
172 205 255
172 205 255
172 205 255
172 205 255
171 205 255
171 205 255
171 205 255
171 205 255
171 205 255
171 205 255
171 205 255
171 205 255
171 205 255
171 205 255
171 205 255
171 205 255
170 204 255
170 204 255
170 204 255
170 204 255
170 204 255
170 204 255
170 204 255
170 204 255
170 204 255
170 204 255
170 204 255
169 204 255
169 204 255
169 204 255
169 204 255
169 204 255
169 204 255
169 204 255
169 204 255
169 203 255
169 203 255
169 203 255
169 203 255
168 203 255
168 203 255
168 203 255
168 203 255
168 203 255
168 203 255
168 203 255
168 203 255
168 203 255
168 203 255
168 203 255
168 203 255
168 203 255
167 203 255
167 203 255
167 203 255
167 203 255
167 202 255
167 202 255
167 202 255
167 202 255
167 202 255
167 202 255
167 202 255
167 202 255
167 202 255
166 202 255
166 202 255
166 202 255
166 202 255
166 202 255
166 202 255
166 202 255
166 202 255
166 202 255
166 202 255
166 202 255
166 202 255
166 202 255
166 202 255
165 201 255
165 201 255
165 201 255
165 201 255
165 201 255
165 201 255
165 201 255
165 201 255
165 201 255
165 201 255
165 201 255
165 201 255
165 201 255
165 201 255
165 201 255
165 201 255
165 201 255
164 201 255
164 201 255
164 201 255
164 201 255
164 201 255
164 201 255
164 201 255
164 201 255
164 201 255
164 201 255
164 201 255
164 201 255
164 201 255
164 201 255
164 201 255
164 200 255
164 200 255
164 200 255
164 200 255
164 200 255
164 200 255
164 200 255
164 200 255
164 200 255
164 200 255
164 200 255
163 200 255
163 200 255
163 200 255
163 200 255
163 200 255
163 200 255
163 200 255
163 200 255
163 200 255
163 200 255
163 200 255
163 200 255
163 200 255
163 200 255
163 200 255
163 200 255
163 200 255
163 200 255
163 200 255
163 200 255
163 200 255
163 200 255
163 200 255
163 200 255
163 200 255
163 200 255
163 200 255
163 200 255
163 200 255
163 200 255
163 200 255
163 200 255
163 200 255
163 200 255
163 200 255
163 200 255
163 200 255
163 200 255
163 200 255
163 200 255
163 200 255
163 200 255
163 200 255
163 200 255
164 200 255
164 200 255
164 200 255
164 200 255
164 200 255
164 200 255
164 200 255
164 200 255
164 200 255
164 200 255
164 200 255
164 201 255
164 201 255
164 201 255
164 201 255
164 201 255
164 201 255
164 201 255
164 201 255
164 201 255
164 201 255
164 201 255
164 201 255
164 201 255
164 201 255
164 201 255
165 201 255
165 201 255
165 201 255
165 201 255
165 201 255
165 201 255
165 201 255
165 201 255
165 201 255
165 201 255
165 201 255
165 201 255
165 201 255
165 201 255
165 201 255
165 201 255
165 201 255
166 202 255
166 202 255
166 202 255
166 202 255
166 202 255
166 202 255
166 202 255
166 202 255
166 202 255
166 202 255
166 202 255
166 202 255
166 202 255
166 202 255
167 202 255
167 202 255
167 202 255
167 202 255
167 202 255
167 202 255
167 202 255
167 202 255
167 202 255
167 203 255
167 203 255
167 203 255
167 203 255
168 203 255
168 203 255
168 203 255
168 203 255
168 203 255
168 203 255
168 203 255
168 203 255
168 203 255
168 203 255
168 203 255
168 203 255
168 203 255
169 203 255
169 203 255
169 203 255
169 203 255
169 204 255
169 204 255
169 204 255
169 204 255
169 204 255
169 204 255
169 204 255
169 204 255
170 204 255
170 204 255
170 204 255
170 204 255
170 204 255
170 204 255
170 204 255
170 204 255
170 204 255
170 204 255
170 204 255
171 205 255
171 205 255
171 205 255
171 205 255
171 205 255
171 205 255
171 205 255
171 205 255
171 205 255
171 205 255
171 205 255
171 205 255
172 205 255
172 205 255
172 205 255
172 205 255
172 205 255
172 205 255
172 205 255
172 205 255
172 206 255
172 206 255
172 206 255
172 206 255
173 206 255
173 206 255
173 206 255
173 206 255
173 206 255
173 206 255
173 206 255
173 206 255
173 206 255
173 206 255
173 206 255
173 206 255
173 206 255
174 206 255
174 206 255
174 206 255
174 206 255
174 207 255
174 207 255
174 207 255
174 207 255
174 207 255
174 207 255
174 207 255
174 207 255
174 207 255
175 207 255
175 207 255
175 207 255
175 207 255
175 207 255
175 207 255
175 207 255
175 207 255
175 207 255
175 207 255
175 207 255
175 207 255
175 207 255
176 208 255
176 208 255
176 208 255
176 208 255
176 208 255
176 208 255
176 208 255
176 208 255
176 208 255
176 208 255
176 208 255
176 208 255
176 208 255
176 208 255
176 208 255
176 208 255
176 208 255
176 208 255
175 207 255
175 207 255
175 207 255
175 207 255
175 207 255
175 207 255
175 207 255
175 207 255
175 207 255
175 207 255
175 207 255
175 207 255
175 207 255
175 207 255
174 207 255
174 207 255
174 207 255
174 207 255
174 207 255
174 207 255
174 207 255
174 207 255
174 206 255
174 206 255
174 206 255
174 206 255
173 206 255
173 206 255
173 206 255
173 206 255
173 206 255
173 206 255
173 206 255
173 206 255
173 206 255
173 206 255
173 206 255
173 206 255
173 206 255
172 206 255
172 206 255
172 206 255
172 206 255
172 205 255
172 205 255
172 205 255
172 205 255
172 205 255
172 205 255
172 205 255
172 205 255
171 205 255
171 205 255
171 205 255
171 205 255
171 205 255
171 205 255
171 205 255
171 205 255
171 205 255
171 205 255
171 205 255
170 204 255
170 204 255
170 204 255
170 204 255
170 204 255
170 204 255
170 204 255
170 204 255
170 204 255
170 204 255
170 204 255
170 204 255
169 204 255
169 204 255
169 204 255
169 204 255
169 204 255
169 204 255
169 204 255
169 204 255
169 203 255
169 203 255
169 203 255
169 203 255
168 203 255
168 203 255
168 203 255
168 203 255
168 203 255
168 203 255
168 203 255
168 203 255
168 203 255
168 203 255
168 203 255
168 203 255
167 203 255
167 203 255
167 203 255
167 203 255
167 202 255
167 202 255
167 202 255
167 202 255
167 202 255
167 202 255
167 202 255
167 202 255
167 202 255
166 202 255
166 202 255
166 202 255
166 202 255
166 202 255
166 202 255
166 202 255
166 202 255
166 202 255
166 202 255
166 202 255
166 202 255
166 202 255
166 202 255
165 201 255
165 201 255
165 201 255
165 201 255
165 201 255
165 201 255
165 201 255
165 201 255
165 201 255
165 201 255
165 201 255
165 201 255
165 201 255
165 201 255
165 201 255
165 201 255
164 201 255
164 201 255
164 201 255
164 201 255
164 201 255
164 201 255
164 201 255
164 201 255
164 201 255
164 201 255
164 201 255
164 201 255
164 201 255
164 201 255
164 200 255
164 200 255
164 200 255
164 200 255
164 200 255
164 200 255
164 200 255
164 200 255
164 200 255
163 200 255
163 200 255
163 200 255
163 200 255
163 200 255
163 200 255
163 200 255
163 200 255
163 200 255
163 200 255
163 200 255
163 200 255
163 200 255
163 200 255
163 200 255
163 200 255
163 200 255
163 200 255
163 200 255
163 200 255
163 200 255
163 200 255
163 200 255
163 200 255
163 200 255
163 200 255
163 200 255
163 200 255
163 200 255
163 200 255
163 200 255
163 200 255
163 200 255
163 200 255
163 200 255
163 200 255
163 200 255
163 200 255
163 200 255
163 200 255
163 200 255
163 200 255
163 200 255
163 200 255
163 200 255
163 200 255
163 200 255
163 200 255
163 200 255
163 200 255
163 200 255
163 200 255
163 200 255
164 200 255
164 200 255
164 200 255
164 200 255
164 200 255
164 200 255
164 200 255
164 200 255
164 200 255
164 200 255
164 201 255
164 201 255
164 201 255
164 201 255
164 201 255
164 201 255
164 201 255
164 201 255
164 201 255
164 201 255
164 201 255
164 201 255
164 201 255
164 201 255
165 201 255
165 201 255
165 201 255
165 201 255
165 201 255
165 201 255
165 201 255
165 201 255
165 201 255
165 201 255
165 201 255
165 201 255
165 201 255
165 201 255
165 201 255
165 201 255
166 202 255
166 202 255
166 202 255
166 202 255
166 202 255
166 202 255
166 202 255
166 202 255
166 202 255
166 202 255
166 202 255
166 202 255
166 202 255
166 202 255
167 202 255
167 202 255
167 202 255
167 202 255
167 202 255
167 202 255
167 202 255
167 202 255
167 202 255
167 203 255
167 203 255
167 203 255
167 203 255
168 203 255
168 203 255
168 203 255
168 203 255
168 203 255
168 203 255
168 203 255
168 203 255
168 203 255
168 203 255
168 203 255
168 203 255
169 203 255
169 203 255
169 203 255
169 203 255
169 204 255
169 204 255
169 204 255
169 204 255
169 204 255
169 204 255
169 204 255
169 204 255
170 204 255
170 204 255
170 204 255
170 204 255
170 204 255
170 204 255
170 204 255
170 204 255
170 204 255
170 204 255
170 204 255
170 204 255
171 205 255
171 205 255
171 205 255
171 205 255
171 205 255
171 205 255
171 205 255
171 205 255
171 205 255
171 205 255
171 205 255
172 205 255
172 205 255
172 205 255
172 205 255
172 205 255
172 205 255
172 205 255
172 205 255
172 206 255
172 206 255
172 206 255
172 206 255
173 206 255
173 206 255
173 206 255
173 206 255
173 206 255
173 206 255
173 206 255
173 206 255
173 206 255
173 206 255
173 206 255
173 206 255
173 206 255
174 206 255
174 206 255
174 206 255
174 206 255
174 207 255
174 207 255
174 207 255
174 207 255
174 207 255
174 207 255
174 207 255
174 207 255
175 207 255
175 207 255
175 207 255
175 207 255
175 207 255
175 207 255
175 207 255
175 207 255
175 207 255
175 207 255
175 207 255
175 207 255
175 207 255
175 207 255
176 208 255
176 208 255
176 208 255
176 208 255
176 208 255
176 208 255
176 208 255
176 208 255
176 208 255
176 208 255
176 208 255
176 208 255
176 208 255
176 208 255
176 208 255
176 208 255
176 208 255
176 208 255
176 208 255
175 207 255
175 207 255
175 207 255
175 207 255
175 207 255
175 207 255
175 207 255
175 207 255
175 207 255
175 207 255
175 207 255
175 207 255
175 207 255
174 207 255
174 207 255
174 207 255
174 207 255
174 207 255
174 207 255
174 207 255
174 207 255
174 206 255
174 206 255
174 206 255
174 206 255
173 206 255
173 206 255
173 206 255
173 206 255
173 206 255
173 206 255
173 206 255
173 206 255
173 206 255
173 206 255
173 206 255
173 206 255
173 206 255
172 206 255
172 206 255
172 206 255
172 206 255
172 205 255
172 205 255
172 205 255
172 205 255
172 205 255
172 205 255
172 205 255
172 205 255
171 205 255
171 205 255
171 205 255
171 205 255
171 205 255
171 205 255
171 205 255
171 205 255
171 205 255
171 205 255
171 205 255
170 204 255
170 204 255
170 204 255
170 204 255
170 204 255
170 204 255
170 204 255
170 204 255
170 204 255
170 204 255
170 204 255
170 204 255
169 204 255
169 204 255
169 204 255
169 204 255
169 204 255
169 204 255
169 204 255
169 204 255
169 203 255
169 203 255
169 203 255
168 203 255
168 203 255
168 203 255
168 203 255
168 203 255
168 203 255
168 203 255
168 203 255
168 203 255
168 203 255
168 203 255
168 203 255
167 203 255
167 203 255
167 203 255
167 203 255
167 203 255
167 202 255
167 202 255
167 202 255
167 202 255
167 202 255
167 202 255
167 202 255
167 202 255
166 202 255
166 202 255
166 202 255
166 202 255
166 202 255
166 202 255
166 202 255
166 202 255
166 202 255
166 202 255
166 202 255
166 202 255
166 202 255
166 202 255
165 201 255
165 201 255
165 201 255
165 201 255
165 201 255
165 201 255
165 201 255
165 201 255
165 201 255
165 201 255
165 201 255
165 201 255
165 201 255
165 201 255
165 201 255
164 201 255
164 201 255
164 201 255
164 201 255
164 201 255
164 201 255
164 201 255
164 201 255
164 201 255
164 201 255
164 201 255
164 201 255
164 201 255
164 201 255
164 200 255
164 200 255
164 200 255
164 200 255
164 200 255
164 200 255
164 200 255
164 200 255
163 200 255
163 200 255
163 200 255
163 200 255
163 200 255
163 200 255
163 200 255
163 200 255
163 200 255
163 200 255
163 200 255
163 200 255
163 200 255
163 200 255
163 200 255
163 200 255
163 200 255
163 200 255
163 200 255
163 200 255
163 200 255
163 200 255
163 200 255
163 200 255
163 200 255
163 200 255
163 200 255
163 200 255
163 200 255
163 200 255
163 200 255
163 200 255
163 200 255
163 200 255
163 200 255
163 200 255
163 200 255
163 200 255
163 200 255
163 200 255
163 200 255
163 200 255
163 200 255
163 200 255
163 200 255
163 200 255
163 200 255
163 200 255
163 200 255
163 200 255
163 200 255
163 200 255
163 200 255
163 200 255
163 200 255
163 200 255
163 200 255
163 200 255
163 200 255
163 200 255
164 200 255
164 200 255
164 200 255
164 200 255
164 200 255
164 200 255
164 200 255
164 200 255
164 201 255
164 201 255
164 201 255
164 201 255
164 201 255
164 201 255
164 201 255
164 201 255
164 201 255
164 201 255
164 201 255
164 201 255
164 201 255
165 201 255
165 201 255
165 201 255
165 201 255
165 201 255
165 201 255
165 201 255
165 201 255
165 201 255
165 201 255
165 201 255
165 201 255
165 201 255
165 201 255
165 201 255
165 201 255
166 202 255
166 202 255
166 202 255
166 202 255
166 202 255
166 202 255
166 202 255
166 202 255
166 202 255
166 202 255
166 202 255
166 202 255
166 202 255
166 202 255
167 202 255
167 202 255
167 202 255
167 202 255
167 202 255
167 202 255
167 202 255
167 202 255
167 203 255
167 203 255
167 203 255
167 203 255
167 203 255
168 203 255
168 203 255
168 203 255
168 203 255
168 203 255
168 203 255
168 203 255
168 203 255
168 203 255
168 203 255
168 203 255
168 203 255
169 203 255
169 203 255
169 203 255
169 204 255
169 204 255
169 204 255
169 204 255
169 204 255
169 204 255
169 204 255
169 204 255
170 204 255
170 204 255
170 204 255
170 204 255
170 204 255
170 204 255
170 204 255
170 204 255
170 204 255
170 204 255
170 204 255
170 204 255
171 205 255
171 205 255
171 205 255
171 205 255
171 205 255
171 205 255
171 205 255
171 205 255
171 205 255
171 205 255
171 205 255
172 205 255
172 205 255
172 205 255
172 205 255
172 205 255
172 205 255
172 205 255
172 205 255
172 206 255
172 206 255
172 206 255
172 206 255
173 206 255
173 206 255
173 206 255
173 206 255
173 206 255
173 206 255
173 206 255
173 206 255
173 206 255
173 206 255
173 206 255
173 206 255
174 206 255
174 206 255
174 206 255
174 206 255
174 206 255
174 207 255
174 207 255
174 207 255
174 207 255
174 207 255
174 207 255
174 207 255
174 207 255
175 207 255
175 207 255
175 207 255
175 207 255
175 207 255
175 207 255
175 207 255
175 207 255
175 207 255
175 207 255
175 207 255
175 207 255
175 207 255
176 208 255
176 208 255
176 208 255
176 208 255
176 208 255
176 208 255
176 208 255
176 208 255
176 208 255
176 208 255
176 208 255
176 208 255
176 208 255
176 208 255
176 208 255
176 208 255
176 208 255
176 208 255
176 208 255
176 208 255
175 207 255
175 207 255
175 207 255
175 207 255
175 207 255
175 207 255
175 207 255
175 207 255
175 207 255
175 207 255
175 207 255
175 207 255
175 207 255
174 207 255
174 207 255
174 207 255
174 207 255
174 207 255
174 207 255
174 207 255
174 207 255
174 207 255
174 206 255
174 206 255
174 206 255
174 206 255
173 206 255
173 206 255
173 206 255
173 206 255
173 206 255
173 206 255
173 206 255
173 206 255
173 206 255
173 206 255
173 206 255
173 206 255
172 206 255
172 206 255
172 206 255
172 206 255
172 205 255
172 205 255
172 205 255
172 205 255
172 205 255
172 205 255
172 205 255
171 205 255
171 205 255
171 205 255
171 205 255
171 205 255
171 205 255
171 205 255
171 205 255
171 205 255
171 205 255
171 205 255
171 205 255
170 204 255
170 204 255
170 204 255
170 204 255
170 204 255
170 204 255
170 204 255
170 204 255
170 204 255
170 204 255
170 204 255
169 204 255
169 204 255
169 204 255
169 204 255
169 204 255
169 204 255
169 204 255
169 204 255
169 203 255
169 203 255
169 203 255
169 203 255
168 203 255
168 203 255
168 203 255
168 203 255
168 203 255
168 203 255
168 203 255
168 203 255
168 203 255
168 203 255
168 203 255
168 203 255
167 203 255
167 203 255
167 203 255
167 203 255
167 202 255
167 202 255
167 202 255
167 202 255
167 202 255
167 202 255
167 202 255
167 202 255
166 202 255
166 202 255
166 202 255
166 202 255
166 202 255
166 202 255
166 202 255
166 202 255
166 202 255
166 202 255
166 202 255
166 202 255
166 202 255
166 202 255
165 201 255
165 201 255
165 201 255
165 201 255
165 201 255
165 201 255
165 201 255
165 201 255
165 201 255
165 201 255
165 201 255
165 201 255
165 201 255
165 201 255
165 201 255
164 201 255
164 201 255
164 201 255
164 201 255
164 201 255
164 201 255
164 201 255
164 201 255
164 201 255
164 201 255
164 201 255
164 201 255
164 200 255
164 200 255
164 200 255
164 200 255
164 200 255
164 200 255
164 200 255
164 200 255
163 200 255
163 200 255
163 200 255
163 200 255
163 200 255
163 200 255
163 200 255
163 200 255
163 200 255
163 200 255
163 200 255
163 200 255
163 200 255
163 200 255
163 200 255
163 200 255
163 200 255
163 200 255
163 200 255
163 200 255
163 200 255
163 200 255
163 200 255
163 200 255
163 200 255
163 200 255
163 200 255
163 200 255
163 200 255
163 200 255
163 200 255
163 200 255
163 200 255
163 200 255
163 200 255
163 200 255
163 200 255
163 200 255
163 200 255
163 200 255
163 200 255
163 200 255
163 200 255
163 200 255
163 200 255
163 200 255
163 200 255
163 200 255
163 200 255
163 200 255
163 200 255
163 200 255
163 200 255
163 200 255
163 200 255
163 200 255
163 200 255
163 200 255
163 200 255
163 200 255
163 200 255
163 200 255
163 200 255
163 200 255
163 200 255
163 200 255
164 200 255
164 200 255
164 200 255
164 200 255
164 200 255
164 200 255
164 200 255
164 200 255
164 201 255
164 201 255
164 201 255
164 201 255
164 201 255
164 201 255
164 201 255
164 201 255
164 201 255
164 201 255
164 201 255
164 201 255
165 201 255
165 201 255
165 201 255
165 201 255
165 201 255
165 201 255
165 201 255
165 201 255
165 201 255
165 201 255
165 201 255
165 201 255
165 201 255
165 201 255
165 201 255
166 202 255
166 202 255
166 202 255
166 202 255
166 202 255
166 202 255
166 202 255
166 202 255
166 202 255
166 202 255
166 202 255
166 202 255
166 202 255
166 202 255
167 202 255
167 202 255
167 202 255
167 202 255
167 202 255
167 202 255
167 202 255
167 202 255
167 203 255
167 203 255
167 203 255
167 203 255
168 203 255
168 203 255
168 203 255
168 203 255
168 203 255
168 203 255
168 203 255
168 203 255
168 203 255
168 203 255
168 203 255
168 203 255
169 203 255
169 203 255
169 203 255
169 203 255
169 204 255
169 204 255
169 204 255
169 204 255
169 204 255
169 204 255
169 204 255
169 204 255
170 204 255
170 204 255
170 204 255
170 204 255
170 204 255
170 204 255
170 204 255
170 204 255
170 204 255
170 204 255
170 204 255
171 205 255
171 205 255
171 205 255
171 205 255
171 205 255
171 205 255
171 205 255
171 205 255
171 205 255
171 205 255
171 205 255
171 205 255
172 205 255
172 205 255
172 205 255
172 205 255
172 205 255
172 205 255
172 205 255
172 206 255
172 206 255
172 206 255
172 206 255
173 206 255
173 206 255
173 206 255
173 206 255
173 206 255
173 206 255
173 206 255
173 206 255
173 206 255
173 206 255
173 206 255
173 206 255
174 206 255
174 206 255
174 206 255
174 206 255
174 207 255
174 207 255
174 207 255
174 207 255
174 207 255
174 207 255
174 207 255
174 207 255
174 207 255
175 207 255
175 207 255
175 207 255
175 207 255
175 207 255
175 207 255
175 207 255
175 207 255
175 207 255
175 207 255
175 207 255
175 207 255
175 207 255
176 208 255
176 208 255
176 208 255
176 208 255
176 208 255
176 208 255
176 208 255
176 208 255
176 208 255
176 208 255
176 208 255
176 208 255
176 208 255
176 208 255
176 208 255
176 208 255
176 208 255
176 208 255
176 208 255
176 208 255
175 207 255
175 207 255
175 207 255
175 207 255
175 207 255
175 207 255
175 207 255
175 207 255
175 207 255
175 207 255
175 207 255
175 207 255
175 207 255
175 207 255
174 207 255
174 207 255
174 207 255
174 207 255
174 207 255
174 207 255
174 207 255
174 207 255
174 206 255
174 206 255
174 206 255
174 206 255
173 206 255
173 206 255
173 206 255
173 206 255
173 206 255
173 206 255
173 206 255
173 206 255
173 206 255
173 206 255
173 206 255
173 206 255
172 206 255
172 206 255
172 206 255
172 206 255
172 205 255
172 205 255
172 205 255
172 205 255
172 205 255
172 205 255
172 205 255
171 205 255
171 205 255
171 205 255
171 205 255
171 205 255
171 205 255
171 205 255
171 205 255
171 205 255
171 205 255
171 205 255
171 205 255
170 204 255
170 204 255
170 204 255
170 204 255
170 204 255
170 204 255
170 204 255
170 204 255
170 204 255
170 204 255
170 204 255
169 204 255
169 204 255
169 204 255
169 204 255
169 204 255
169 204 255
169 204 255
169 204 255
169 203 255
169 203 255
169 203 255
169 203 255
168 203 255
168 203 255
168 203 255
168 203 255
168 203 255
168 203 255
168 203 255
168 203 255
168 203 255
168 203 255
168 203 255
167 203 255
167 203 255
167 203 255
167 203 255
167 202 255
167 202 255
167 202 255
167 202 255
167 202 255
167 202 255
167 202 255
167 202 255
166 202 255
166 202 255
166 202 255
166 202 255
166 202 255
166 202 255
166 202 255
166 202 255
166 202 255
166 202 255
166 202 255
166 202 255
166 202 255
165 201 255
165 201 255
165 201 255
165 201 255
165 201 255
165 201 255
165 201 255
165 201 255
165 201 255
165 201 255
165 201 255
165 201 255
165 201 255
165 201 255
165 201 255
164 201 255
164 201 255
164 201 255
164 201 255
164 201 255
164 201 255
164 201 255
164 201 255
164 201 255
164 201 255
164 201 255
164 201 255
164 200 255
164 200 255
164 200 255
164 200 255
164 200 255
164 200 255
164 200 255
163 200 255
163 200 255
163 200 255
163 200 255
163 200 255
163 200 255
163 200 255
163 200 255
163 200 255
163 200 255
163 200 255
163 200 255
163 200 255
163 200 255
163 200 255
163 200 255
163 200 255
163 200 255
163 200 255
163 200 255
163 200 255
163 200 255
163 200 255
163 200 255
163 200 255
163 200 255
163 200 255
163 200 255
163 200 255
163 200 255
163 200 255
163 200 255
163 200 255
163 200 255
163 200 255
163 200 255
163 200 255
163 200 255
163 200 255
163 200 255
163 200 255
163 200 255
163 200 255
163 200 255
163 200 255
163 200 255
163 200 255
163 200 255
163 200 255
163 200 255
163 200 255
163 200 255
163 200 255
163 200 255
163 200 255
163 200 255
163 200 255
163 200 255
163 200 255
163 200 255
163 200 255
163 200 255
163 200 255
163 200 255
163 200 255
163 200 255
163 200 255
163 200 255
163 200 255
163 200 255
163 200 255
163 200 255
164 200 255
164 200 255
164 200 255
164 200 255
164 200 255
164 200 255
164 200 255
164 201 255
164 201 255
164 201 255
164 201 255
164 201 255
164 201 255
164 201 255
164 201 255
164 201 255
164 201 255
164 201 255
164 201 255
165 201 255
165 201 255
165 201 255
165 201 255
165 201 255
165 201 255
165 201 255
165 201 255
165 201 255
165 201 255
165 201 255
165 201 255
165 201 255
165 201 255
166 202 255
166 202 255
166 202 255
166 202 255
166 202 255
166 202 255
166 202 255
166 202 255
166 202 255
166 202 255
166 202 255
166 202 255
166 202 255
166 202 255
167 202 255
167 202 255
167 202 255
167 202 255
167 202 255
167 202 255
167 202 255
167 202 255
167 203 255
167 203 255
167 203 255
167 203 255
168 203 255
168 203 255
168 203 255
168 203 255
168 203 255
168 203 255
168 203 255
168 203 255
168 203 255
168 203 255
168 203 255
169 203 255
169 203 255
169 203 255
169 203 255
169 204 255
169 204 255
169 204 255
169 204 255
169 204 255
169 204 255
169 204 255
169 204 255
170 204 255
170 204 255
170 204 255
170 204 255
170 204 255
170 204 255
170 204 255
170 204 255
170 204 255
170 204 255
170 204 255
171 205 255
171 205 255
171 205 255
171 205 255
171 205 255
171 205 255
171 205 255
171 205 255
171 205 255
171 205 255
171 205 255
172 205 255
172 205 255
172 205 255
172 205 255
172 205 255
172 205 255
172 205 255
172 205 255
172 206 255
172 206 255
172 206 255
172 206 255
173 206 255
173 206 255
173 206 255
173 206 255
173 206 255
173 206 255
173 206 255
173 206 255
173 206 255
173 206 255
173 206 255
173 206 255
174 206 255
174 206 255
174 206 255
174 206 255
174 207 255
174 207 255
174 207 255
174 207 255
174 207 255
174 207 255
174 207 255
174 207 255
174 207 255
175 207 255
175 207 255
175 207 255
175 207 255
175 207 255
175 207 255
175 207 255
175 207 255
175 207 255
175 207 255
175 207 255
175 207 255
175 207 255
176 208 255
176 208 255
176 208 255
176 208 255
176 208 255
176 208 255
176 208 255
176 208 255
176 208 255
176 208 255
176 208 255
176 208 255
176 208 255
176 208 255
176 208 255
176 208 255
176 208 255
176 208 255
176 208 255
176 208 255
176 208 255
175 207 255
175 207 255
175 207 255
175 207 255
175 207 255
175 207 255
175 207 255
175 207 255
175 207 255
175 207 255
175 207 255
175 207 255
175 207 255
174 207 255
174 207 255
174 207 255
174 207 255
174 207 255
174 207 255
174 207 255
174 207 255
174 206 255
174 206 255
174 206 255
174 206 255
173 206 255
173 206 255
173 206 255
173 206 255
173 206 255
173 206 255
173 206 255
173 206 255
173 206 255
173 206 255
173 206 255
173 206 255
172 206 255
172 206 255
172 206 255
172 206 255
172 205 255
172 205 255
172 205 255
172 205 255
172 205 255
172 205 255
172 205 255
172 205 255
171 205 255
171 205 255
171 205 255
171 205 255
171 205 255
171 205 255
171 205 255
171 205 255
171 205 255
171 205 255
171 205 255
170 204 255
170 204 255
170 204 255
170 204 255
170 204 255
170 204 255
170 204 255
170 204 255
170 204 255
170 204 255
170 204 255
169 204 255
169 204 255
169 204 255
169 204 255
169 204 255
169 204 255
169 204 255
169 203 255
169 203 255
169 203 255
169 203 255
168 203 255
168 203 255
168 203 255
168 203 255
168 203 255
168 203 255
168 203 255
168 203 255
168 203 255
168 203 255
168 203 255
168 203 255
167 203 255
167 203 255
167 203 255
167 203 255
167 202 255
167 202 255
167 202 255
167 202 255
167 202 255
167 202 255
167 202 255
167 202 255
166 202 255
166 202 255
166 202 255
166 202 255
166 202 255
166 202 255
166 202 255
166 202 255
166 202 255
166 202 255
166 202 255
166 202 255
165 201 255
165 201 255
165 201 255
165 201 255
165 201 255
165 201 255
165 201 255
165 201 255
165 201 255
165 201 255
165 201 255
165 201 255
165 201 255
165 201 255
165 201 255
164 201 255
164 201 255
164 201 255
164 201 255
164 201 255
164 201 255
164 201 255
164 201 255
164 201 255
164 201 255
164 201 255
164 200 255
164 200 255
164 200 255
164 200 255
164 200 255
164 200 255
164 200 255
163 200 255
163 200 255
163 200 255
163 200 255
163 200 255
163 200 255
163 200 255
163 200 255
163 200 255
163 200 255
163 200 255
163 200 255
163 200 255
163 200 255
163 200 255
163 200 255
163 200 255
163 200 255
163 200 255
163 200 255
163 200 255
163 200 255
163 200 255
163 200 255
163 200 255
163 200 255
163 200 255
163 200 255
163 200 255
163 200 255
163 200 255
163 200 255
163 200 255
163 200 255
163 200 255
163 200 255
163 200 255
163 200 255
163 200 255
163 200 255
163 200 255
163 200 255
163 200 255
163 200 255
163 200 255
163 200 255
163 200 255
163 200 255
163 200 255
163 200 255
163 200 255
163 200 255
163 200 255
163 200 255
163 200 255
163 200 255
163 200 255
163 200 255
163 200 255
163 200 255
163 200 255
163 200 255
163 200 255
163 200 255
163 200 255
163 200 255
163 200 255
163 200 255
163 200 255
163 200 255
163 200 255
163 200 255
163 200 255
163 200 255
163 200 255
163 200 255
164 200 255
164 200 255
164 200 255
164 200 255
164 200 255
164 200 255
164 200 255
164 201 255
164 201 255
164 201 255
164 201 255
164 201 255
164 201 255
164 201 255
164 201 255
164 201 255
164 201 255
164 201 255
165 201 255
165 201 255
165 201 255
165 201 255
165 201 255
165 201 255
165 201 255
165 201 255
165 201 255
165 201 255
165 201 255
165 201 255
165 201 255
165 201 255
166 202 255
166 202 255
166 202 255
166 202 255
166 202 255
166 202 255
166 202 255
166 202 255
166 202 255
166 202 255
166 202 255
166 202 255
166 202 255
167 202 255
167 202 255
167 202 255
167 202 255
167 202 255
167 202 255
167 202 255
167 202 255
167 203 255
167 203 255
167 203 255
167 203 255
168 203 255
168 203 255
168 203 255
168 203 255
168 203 255
168 203 255
168 203 255
168 203 255
168 203 255
168 203 255
168 203 255
168 203 255
169 203 255
169 203 255
169 203 255
169 204 255
169 204 255
169 204 255
169 204 255
169 204 255
169 204 255
169 204 255
169 204 255
170 204 255
170 204 255
170 204 255
170 204 255
170 204 255
170 204 255
170 204 255
170 204 255
170 204 255
170 204 255
170 204 255
171 205 255
171 205 255
171 205 255
171 205 255
171 205 255
171 205 255
171 205 255
171 205 255
171 205 255
171 205 255
171 205 255
172 205 255
172 205 255
172 205 255
172 205 255
172 205 255
172 205 255
172 205 255
172 205 255
172 206 255
172 206 255
172 206 255
172 206 255
173 206 255
173 206 255
173 206 255
173 206 255
173 206 255
173 206 255
173 206 255
173 206 255
173 206 255
173 206 255
173 206 255
173 206 255
174 206 255
174 206 255
174 206 255
174 206 255
174 207 255
174 207 255
174 207 255
174 207 255
174 207 255
174 207 255
174 207 255
174 207 255
175 207 255
175 207 255
175 207 255
175 207 255
175 207 255
175 207 255
175 207 255
175 207 255
175 207 255
175 207 255
175 207 255
175 207 255
175 207 255
176 208 255
176 208 255
176 208 255
176 208 255
176 208 255
176 208 255
176 208 255
176 208 255
176 208 255
176 208 255
176 208 255
176 208 255
176 208 255
176 208 255
176 208 255
176 208 255
176 208 255
176 208 255
176 208 255
176 208 255
176 208 255
176 208 255
175 207 255
175 207 255
175 207 255
175 207 255
175 207 255
175 207 255
175 207 255
175 207 255
175 207 255
175 207 255
175 207 255
175 207 255
175 207 255
174 207 255
174 207 255
174 207 255
174 207 255
174 207 255
174 207 255
174 207 255
174 207 255
174 206 255
174 206 255
174 206 255
174 206 255
173 206 255
173 206 255
173 206 255
173 206 255
173 206 255
173 206 255
173 206 255
173 206 255
173 206 255
173 206 255
173 206 255
173 206 255
172 206 255
172 206 255
172 206 255
172 206 255
172 205 255
172 205 255
172 205 255
172 205 255
172 205 255
172 205 255
172 205 255
172 205 255
171 205 255
171 205 255
171 205 255
171 205 255
171 205 255
171 205 255
171 205 255
171 205 255
171 205 255
171 205 255
171 205 255
170 204 255
170 204 255
170 204 255
170 204 255
170 204 255
170 204 255
170 204 255
170 204 255
170 204 255
170 204 255
170 204 255
169 204 255
169 204 255
169 204 255
169 204 255
169 204 255
169 204 255
169 204 255
169 203 255
169 203 255
169 203 255
169 203 255
168 203 255
168 203 255
168 203 255
168 203 255
168 203 255
168 203 255
168 203 255
168 203 255
168 203 255
168 203 255
168 203 255
167 203 255
167 203 255
167 203 255
167 203 255
167 202 255
167 202 255
167 202 255
167 202 255
167 202 255
167 202 255
167 202 255
167 202 255
166 202 255
166 202 255
166 202 255
166 202 255
166 202 255
166 202 255
166 202 255
166 202 255
166 202 255
166 202 255
166 202 255
166 202 255
166 202 255
165 201 255
165 201 255
165 201 255
165 201 255
165 201 255
165 201 255
165 201 255
165 201 255
165 201 255
165 201 255
165 201 255
165 201 255
165 201 255
165 201 255
164 201 255
164 201 255
164 201 255
164 201 255
164 201 255
164 201 255
164 201 255
164 201 255
164 201 255
164 201 255
164 200 255
164 200 255
164 200 255
164 200 255
164 200 255
164 200 255
164 200 255
163 200 255
163 200 255
163 200 255
163 200 255
163 200 255
163 200 255
163 200 255
163 200 255
163 200 255
163 200 255
163 200 255
163 200 255
163 200 255
163 200 255
163 200 255
163 200 255
163 200 255
163 200 255
163 200 255
163 200 255
163 200 255
163 200 255
163 200 255
163 200 255
163 200 255
163 200 255
163 200 255
163 200 255
163 200 255
163 200 255
163 200 255
163 200 255
162 200 255
162 200 255
162 200 255
162 200 255
162 200 255
162 200 255
162 200 255
162 200 255
162 200 255
162 200 255
162 200 255
162 200 255
162 200 255
162 200 255
162 200 255
162 200 255
163 200 255
163 200 255
163 200 255
163 200 255
163 200 255
163 200 255
163 200 255
163 200 255
163 200 255
163 200 255
163 200 255
163 200 255
163 200 255
163 200 255
163 200 255
163 200 255
163 200 255
163 200 255
163 200 255
163 200 255
163 200 255
163 200 255
163 200 255
163 200 255
163 200 255
163 200 255
163 200 255
163 200 255
163 200 255
163 200 255
163 200 255
163 200 255
164 200 255
164 200 255
164 200 255
164 200 255
164 200 255
164 200 255
164 200 255
164 201 255
164 201 255
164 201 255
164 201 255
164 201 255
164 201 255
164 201 255
164 201 255
164 201 255
164 201 255
165 201 255
165 201 255
165 201 255
165 201 255
165 201 255
165 201 255
165 201 255
165 201 255
165 201 255
165 201 255
165 201 255
165 201 255
165 201 255
165 201 255
166 202 255
166 202 255
166 202 255
166 202 255
166 202 255
166 202 255
166 202 255
166 202 255
166 202 255
166 202 255
166 202 255
166 202 255
166 202 255
167 202 255
167 202 255
167 202 255
167 202 255
167 202 255
167 202 255
167 202 255
167 202 255
167 203 255
167 203 255
167 203 255
167 203 255
168 203 255
168 203 255
168 203 255
168 203 255
168 203 255
168 203 255
168 203 255
168 203 255
168 203 255
168 203 255
168 203 255
169 203 255
169 203 255
169 203 255
169 203 255
169 204 255
169 204 255
169 204 255
169 204 255
169 204 255
169 204 255
169 204 255
170 204 255
170 204 255
170 204 255
170 204 255
170 204 255
170 204 255
170 204 255
170 204 255
170 204 255
170 204 255
170 204 255
171 205 255
171 205 255
171 205 255
171 205 255
171 205 255
171 205 255
171 205 255
171 205 255
171 205 255
171 205 255
171 205 255
172 205 255
172 205 255
172 205 255
172 205 255
172 205 255
172 205 255
172 205 255
172 205 255
172 206 255
172 206 255
172 206 255
172 206 255
173 206 255
173 206 255
173 206 255
173 206 255
173 206 255
173 206 255
173 206 255
173 206 255
173 206 255
173 206 255
173 206 255
173 206 255
174 206 255
174 206 255
174 206 255
174 206 255
174 207 255
174 207 255
174 207 255
174 207 255
174 207 255
174 207 255
174 207 255
174 207 255
175 207 255
175 207 255
175 207 255
175 207 255
175 207 255
175 207 255
175 207 255
175 207 255
175 207 255
175 207 255
175 207 255
175 207 255
175 207 255
176 208 255
176 208 255
176 208 255
176 208 255
176 208 255
176 208 255
176 208 255
176 208 255
176 208 255
176 208 255
176 208 255
176 208 255
176 208 255
176 208 255
176 208 255
176 208 255
176 208 255
176 208 255
176 208 255
176 208 255
176 208 255
176 208 255
176 208 255
175 207 255
175 207 255
175 207 255
175 207 255
175 207 255
175 207 255
175 207 255
175 207 255
175 207 255
175 207 255
175 207 255
175 207 255
175 207 255
174 207 255
174 207 255
174 207 255
174 207 255
174 207 255
174 207 255
174 207 255
174 207 255
174 206 255
174 206 255
174 206 255
174 206 255
173 206 255
173 206 255
173 206 255
173 206 255
173 206 255
173 206 255
173 206 255
173 206 255
173 206 255
173 206 255
173 206 255
172 206 255
172 206 255
172 206 255
172 206 255
172 205 255
172 205 255
172 205 255
172 205 255
172 205 255
172 205 255
172 205 255
172 205 255
171 205 255
171 205 255
171 205 255
171 205 255
171 205 255
171 205 255
171 205 255
171 205 255
171 205 255
171 205 255
171 205 255
170 204 255
170 204 255
170 204 255
170 204 255
170 204 255
170 204 255
170 204 255
170 204 255
170 204 255
170 204 255
170 204 255
169 204 255
169 204 255
169 204 255
169 204 255
169 204 255
169 204 255
169 204 255
169 203 255
169 203 255
169 203 255
169 203 255
168 203 255
168 203 255
168 203 255
168 203 255
168 203 255
168 203 255
168 203 255
168 203 255
168 203 255
168 203 255
168 203 255
167 203 255
167 203 255
167 203 255
167 203 255
167 202 255
167 202 255
167 202 255
167 202 255
167 202 255
167 202 255
167 202 255
166 202 255
166 202 255
166 202 255
166 202 255
166 202 255
166 202 255
166 202 255
166 202 255
166 202 255
166 202 255
166 202 255
166 202 255
166 202 255
165 201 255
165 201 255
165 201 255
165 201 255
165 201 255
165 201 255
165 201 255
165 201 255
165 201 255
165 201 255
165 201 255
165 201 255
165 201 255
164 201 255
164 201 255
164 201 255
164 201 255
164 201 255
164 201 255
164 201 255
164 201 255
164 201 255
164 201 255
164 201 255
164 200 255
164 200 255
164 200 255
164 200 255
164 200 255
164 200 255
163 200 255
163 200 255
163 200 255
163 200 255
163 200 255
163 200 255
163 200 255
163 200 255
163 200 255
163 200 255
163 200 255
163 200 255
163 200 255
163 200 255
163 200 255
163 200 255
163 200 255
163 200 255
163 200 255
163 200 255
163 200 255
163 200 255
163 200 255
163 200 255
163 200 255
163 200 255
162 200 255
162 200 255
162 200 255
162 200 255
162 200 255
162 200 255
162 200 255
162 200 255
162 200 255
162 200 255
162 200 255
162 200 255
162 200 255
162 200 255
162 200 255
162 200 255
162 200 255
162 200 255
162 200 255
162 200 255
162 200 255
162 200 255
162 200 255
162 200 255
162 200 255
162 200 255
162 200 255
162 200 255
162 200 255
162 200 255
162 200 255
162 200 255
163 200 255
163 200 255
163 200 255
163 200 255
163 200 255
163 200 255
163 200 255
163 200 255
163 200 255
163 200 255
163 200 255
163 200 255
163 200 255
163 200 255
163 200 255
163 200 255
163 200 255
163 200 255
163 200 255
163 200 255
163 200 255
163 200 255
163 200 255
163 200 255
163 200 255
163 200 255
164 200 255
164 200 255
164 200 255
164 200 255
164 200 255
164 200 255
164 201 255
164 201 255
164 201 255
164 201 255
164 201 255
164 201 255
164 201 255
164 201 255
164 201 255
164 201 255
164 201 255
165 201 255
165 201 255
165 201 255
165 201 255
165 201 255
165 201 255
165 201 255
165 201 255
165 201 255
165 201 255
165 201 255
165 201 255
165 201 255
166 202 255
166 202 255
166 202 255
166 202 255
166 202 255
166 202 255
166 202 255
166 202 255
166 202 255
166 202 255
166 202 255
166 202 255
166 202 255
167 202 255
167 202 255
167 202 255
167 202 255
167 202 255
167 202 255
167 202 255
167 203 255
167 203 255
167 203 255
167 203 255
168 203 255
168 203 255
168 203 255
168 203 255
168 203 255
168 203 255
168 203 255
168 203 255
168 203 255
168 203 255
168 203 255
169 203 255
169 203 255
169 203 255
169 203 255
169 204 255
169 204 255
169 204 255
169 204 255
169 204 255
169 204 255
169 204 255
170 204 255
170 204 255
170 204 255
170 204 255
170 204 255
170 204 255
170 204 255
170 204 255
170 204 255
170 204 255
170 204 255
171 205 255
171 205 255
171 205 255
171 205 255
171 205 255
171 205 255
171 205 255
171 205 255
171 205 255
171 205 255
171 205 255
172 205 255
172 205 255
172 205 255
172 205 255
172 205 255
172 205 255
172 205 255
172 205 255
172 206 255
172 206 255
172 206 255
172 206 255
173 206 255
173 206 255
173 206 255
173 206 255
173 206 255
173 206 255
173 206 255
173 206 255
173 206 255
173 206 255
173 206 255
174 206 255
174 206 255
174 206 255
174 206 255
174 207 255
174 207 255
174 207 255
174 207 255
174 207 255
174 207 255
174 207 255
174 207 255
175 207 255
175 207 255
175 207 255
175 207 255
175 207 255
175 207 255
175 207 255
175 207 255
175 207 255
175 207 255
175 207 255
175 207 255
175 207 255
176 208 255
176 208 255
176 208 255
176 208 255
176 208 255
176 208 255
176 208 255
176 208 255
176 208 255
176 208 255
176 208 255
176 208 255
176 208 255
176 208 255
176 208 255
176 208 255
176 208 255
176 208 255
176 208 255
176 208 255
176 208 255
176 208 255
176 208 255
176 208 255
175 207 255
175 207 255
175 207 255
175 207 255
175 207 255
175 207 255
175 207 255
175 207 255
175 207 255
175 207 255
175 207 255
175 207 255
175 207 255
174 207 255
174 207 255
174 207 255
174 207 255
174 207 255
174 207 255
174 207 255
174 207 255
174 206 255
174 206 255
174 206 255
174 206 255
173 206 255
173 206 255
173 206 255
173 206 255
173 206 255
173 206 255
173 206 255
173 206 255
173 206 255
173 206 255
173 206 255
172 206 255
172 206 255
172 206 255
172 206 255
172 205 255
172 205 255
172 205 255
172 205 255
172 205 255
172 205 255
172 205 255
172 205 255
171 205 255
171 205 255
171 205 255
171 205 255
171 205 255
171 205 255
171 205 255
171 205 255
171 205 255
171 205 255
171 205 255
170 204 255
170 204 255
170 204 255
170 204 255
170 204 255
170 204 255
170 204 255
170 204 255
170 204 255
170 204 255
169 204 255
169 204 255
169 204 255
169 204 255
169 204 255
169 204 255
169 204 255
169 204 255
169 203 255
169 203 255
169 203 255
168 203 255
168 203 255
168 203 255
168 203 255
168 203 255
168 203 255
168 203 255
168 203 255
168 203 255
168 203 255
168 203 255
167 203 255
167 203 255
167 203 255
167 203 255
167 202 255
167 202 255
167 202 255
167 202 255
167 202 255
167 202 255
167 202 255
167 202 255
166 202 255
166 202 255
166 202 255
166 202 255
166 202 255
166 202 255
166 202 255
166 202 255
166 202 255
166 202 255
166 202 255
166 202 255
165 201 255
165 201 255
165 201 255
165 201 255
165 201 255
165 201 255
165 201 255
165 201 255
165 201 255
165 201 255
165 201 255
165 201 255
165 201 255
164 201 255
164 201 255
164 201 255
164 201 255
164 201 255
164 201 255
164 201 255
164 201 255
164 201 255
164 201 255
164 200 255
164 200 255
164 200 255
164 200 255
164 200 255
164 200 255
163 200 255
163 200 255
163 200 255
163 200 255
163 200 255
163 200 255
163 200 255
163 200 255
163 200 255
163 200 255
163 200 255
163 200 255
163 200 255
163 200 255
163 200 255
163 200 255
163 200 255
163 200 255
163 200 255
163 200 255
163 200 255
163 200 255
163 200 255
162 200 255
162 200 255
162 200 255
162 200 255
162 200 255
162 200 255
162 200 255
162 200 255
162 200 255
162 200 255
162 200 255
162 200 255
162 200 255
162 200 255
162 200 255
162 200 255
162 200 255
162 200 255
162 200 255
162 200 255
162 200 255
162 200 255
162 200 255
162 200 255
162 200 255
162 200 255
162 200 255
162 200 255
162 200 255
162 200 255
162 200 255
162 200 255
162 200 255
162 200 255
162 200 255
162 200 255
162 200 255
162 200 255
162 200 255
162 200 255
162 200 255
162 200 255
163 200 255
163 200 255
163 200 255
163 200 255
163 200 255
163 200 255
163 200 255
163 200 255
163 200 255
163 200 255
163 200 255
163 200 255
163 200 255
163 200 255
163 200 255
163 200 255
163 200 255
163 200 255
163 200 255
163 200 255
163 200 255
163 200 255
163 200 255
164 200 255
164 200 255
164 200 255
164 200 255
164 200 255
164 200 255
164 201 255
164 201 255
164 201 255
164 201 255
164 201 255
164 201 255
164 201 255
164 201 255
164 201 255
164 201 255
165 201 255
165 201 255
165 201 255
165 201 255
165 201 255
165 201 255
165 201 255
165 201 255
165 201 255
165 201 255
165 201 255
165 201 255
165 201 255
166 202 255
166 202 255
166 202 255
166 202 255
166 202 255
166 202 255
166 202 255
166 202 255
166 202 255
166 202 255
166 202 255
166 202 255
167 202 255
167 202 255
167 202 255
167 202 255
167 202 255
167 202 255
167 202 255
167 202 255
167 203 255
167 203 255
167 203 255
167 203 255
168 203 255
168 203 255
168 203 255
168 203 255
168 203 255
168 203 255
168 203 255
168 203 255
168 203 255
168 203 255
168 203 255
169 203 255
169 203 255
169 203 255
169 204 255
169 204 255
169 204 255
169 204 255
169 204 255
169 204 255
169 204 255
169 204 255
170 204 255
170 204 255
170 204 255
170 204 255
170 204 255
170 204 255
170 204 255
170 204 255
170 204 255
170 204 255
171 205 255
171 205 255
171 205 255
171 205 255
171 205 255
171 205 255
171 205 255
171 205 255
171 205 255
171 205 255
171 205 255
172 205 255
172 205 255
172 205 255
172 205 255
172 205 255
172 205 255
172 205 255
172 205 255
172 206 255
172 206 255
172 206 255
172 206 255
173 206 255
173 206 255
173 206 255
173 206 255
173 206 255
173 206 255
173 206 255
173 206 255
173 206 255
173 206 255
173 206 255
174 206 255
174 206 255
174 206 255
174 206 255
174 207 255
174 207 255
174 207 255
174 207 255
174 207 255
174 207 255
174 207 255
174 207 255
175 207 255
175 207 255
175 207 255
175 207 255
175 207 255
175 207 255
175 207 255
175 207 255
175 207 255
175 207 255
175 207 255
175 207 255
175 207 255
176 208 255
176 208 255
176 208 255
176 208 255
176 208 255
176 208 255
176 208 255
176 208 255
176 208 255
176 208 255
176 208 255
176 208 255
176 208 255
176 208 255
176 208 255
176 208 255
176 208 255
176 208 255
176 208 255
176 208 255
176 208 255
176 208 255
176 208 255
176 208 255
176 208 255
175 207 255
175 207 255
175 207 255
175 207 255
175 207 255
175 207 255
175 207 255
175 207 255
175 207 255
175 207 255
175 207 255
175 207 255
174 207 255
174 207 255
174 207 255
174 207 255
174 207 255
174 207 255
174 207 255
174 207 255
174 206 255
174 206 255
174 206 255
174 206 255
173 206 255
173 206 255
173 206 255
173 206 255
173 206 255
173 206 255
173 206 255
173 206 255
173 206 255
173 206 255
173 206 255
173 206 255
172 206 255
172 206 255
172 206 255
172 205 255
172 205 255
172 205 255
172 205 255
172 205 255
172 205 255
172 205 255
172 205 255
171 205 255
171 205 255
171 205 255
171 205 255
171 205 255
171 205 255
171 205 255
171 205 255
171 205 255
171 205 255
171 205 255
170 204 255
170 204 255
170 204 255
170 204 255
170 204 255
170 204 255
170 204 255
170 204 255
170 204 255
170 204 255
169 204 255
169 204 255
169 204 255
169 204 255
169 204 255
169 204 255
169 204 255
169 204 255
169 203 255
169 203 255
169 203 255
168 203 255
168 203 255
168 203 255
168 203 255
168 203 255
168 203 255
168 203 255
168 203 255
168 203 255
168 203 255
168 203 255
167 203 255
167 203 255
167 203 255
167 203 255
167 202 255
167 202 255
167 202 255
167 202 255
167 202 255
167 202 255
167 202 255
166 202 255
166 202 255
166 202 255
166 202 255
166 202 255
166 202 255
166 202 255
166 202 255
166 202 255
166 202 255
166 202 255
166 202 255
165 201 255
165 201 255
165 201 255
165 201 255
165 201 255
165 201 255
165 201 255
165 201 255
165 201 255
165 201 255
165 201 255
165 201 255
165 201 255
164 201 255
164 201 255
164 201 255
164 201 255
164 201 255
164 201 255
164 201 255
164 201 255
164 201 255
164 201 255
164 200 255
164 200 255
164 200 255
164 200 255
164 200 255
163 200 255
163 200 255
163 200 255
163 200 255
163 200 255
163 200 255
163 200 255
163 200 255
163 200 255
163 200 255
163 200 255
163 200 255
163 200 255
163 200 255
163 200 255
163 200 255
163 200 255
163 200 255
163 200 255
163 200 255
163 200 255
163 200 255
162 200 255
162 200 255
162 200 255
162 200 255
162 200 255
162 200 255
162 200 255
162 200 255
162 200 255
162 200 255
162 200 255
162 200 255
162 200 255
162 199 255
162 199 255
162 199 255
162 199 255
162 199 255
162 199 255
162 199 255
162 199 255
162 199 255
162 199 255
162 199 255
162 199 255
162 199 255
162 199 255
162 199 255
162 199 255
162 199 255
162 199 255
162 199 255
162 199 255
162 199 255
162 200 255
162 200 255
162 200 255
162 200 255
162 200 255
162 200 255
162 200 255
162 200 255
162 200 255
162 200 255
162 200 255
162 200 255
162 200 255
162 200 255
163 200 255
163 200 255
163 200 255
163 200 255
163 200 255
163 200 255
163 200 255
163 200 255
163 200 255
163 200 255
163 200 255
163 200 255
163 200 255
163 200 255
163 200 255
163 200 255
163 200 255
163 200 255
163 200 255
163 200 255
163 200 255
163 200 255
164 200 255
164 200 255
164 200 255
164 200 255
164 200 255
164 201 255
164 201 255
164 201 255
164 201 255
164 201 255
164 201 255
164 201 255
164 201 255
164 201 255
164 201 255
165 201 255
165 201 255
165 201 255
165 201 255
165 201 255
165 201 255
165 201 255
165 201 255
165 201 255
165 201 255
165 201 255
165 201 255
165 201 255
166 202 255
166 202 255
166 202 255
166 202 255
166 202 255
166 202 255
166 202 255
166 202 255
166 202 255
166 202 255
166 202 255
166 202 255
167 202 255
167 202 255
167 202 255
167 202 255
167 202 255
167 202 255
167 202 255
167 203 255
167 203 255
167 203 255
167 203 255
168 203 255
168 203 255
168 203 255
168 203 255
168 203 255
168 203 255
168 203 255
168 203 255
168 203 255
168 203 255
168 203 255
169 203 255
169 203 255
169 203 255
169 204 255
169 204 255
169 204 255
169 204 255
169 204 255
169 204 255
169 204 255
169 204 255
170 204 255
170 204 255
170 204 255
170 204 255
170 204 255
170 204 255
170 204 255
170 204 255
170 204 255
170 204 255
171 205 255
171 205 255
171 205 255
171 205 255
171 205 255
171 205 255
171 205 255
171 205 255
171 205 255
171 205 255
171 205 255
172 205 255
172 205 255
172 205 255
172 205 255
172 205 255
172 205 255
172 205 255
172 205 255
172 206 255
172 206 255
172 206 255
173 206 255
173 206 255
173 206 255
173 206 255
173 206 255
173 206 255
173 206 255
173 206 255
173 206 255
173 206 255
173 206 255
173 206 255
174 206 255
174 206 255
174 206 255
174 206 255
174 207 255
174 207 255
174 207 255
174 207 255
174 207 255
174 207 255
174 207 255
174 207 255
175 207 255
175 207 255
175 207 255
175 207 255
175 207 255
175 207 255
175 207 255
175 207 255
175 207 255
175 207 255
175 207 255
175 207 255
176 208 255
176 208 255
176 208 255
176 208 255
176 208 255
176 208 255
176 208 255
176 208 255
176 208 255
176 208 255
176 208 255
176 208 255
176 208 255
176 208 255
176 208 255
176 208 255
176 208 255
176 208 255
176 208 255
176 208 255
176 208 255
176 208 255
176 208 255
176 208 255
176 208 255
176 208 255
175 207 255
175 207 255
175 207 255
175 207 255
175 207 255
175 207 255
175 207 255
175 207 255
175 207 255
175 207 255
175 207 255
175 207 255
175 207 255
174 207 255
174 207 255
174 207 255
174 207 255
174 207 255
174 207 255
174 207 255
174 207 255
174 206 255
174 206 255
174 206 255
174 206 255
173 206 255
173 206 255
173 206 255
173 206 255
173 206 255
173 206 255
173 206 255
173 206 255
173 206 255
173 206 255
173 206 255
172 206 255
172 206 255
172 206 255
172 206 255
172 205 255
172 205 255
172 205 255
172 205 255
172 205 255
172 205 255
172 205 255
171 205 255
171 205 255
171 205 255
171 205 255
171 205 255
171 205 255
171 205 255
171 205 255
171 205 255
171 205 255
171 205 255
170 204 255
170 204 255
170 204 255
170 204 255
170 204 255
170 204 255
170 204 255
170 204 255
170 204 255
170 204 255
169 204 255
169 204 255
169 204 255
169 204 255
169 204 255
169 204 255
169 204 255
169 203 255
169 203 255
169 203 255
169 203 255
168 203 255
168 203 255
168 203 255
168 203 255
168 203 255
168 203 255
168 203 255
168 203 255
168 203 255
168 203 255
168 203 255
167 203 255
167 203 255
167 203 255
167 202 255
167 202 255
167 202 255
167 202 255
167 202 255
167 202 255
167 202 255
167 202 255
166 202 255
166 202 255
166 202 255
166 202 255
166 202 255
166 202 255
166 202 255
166 202 255
166 202 255
166 202 255
166 202 255
165 201 255
165 201 255
165 201 255
165 201 255
165 201 255
165 201 255
165 201 255
165 201 255
165 201 255
165 201 255
165 201 255
165 201 255
165 201 255
164 201 255
164 201 255
164 201 255
164 201 255
164 201 255
164 201 255
164 201 255
164 201 255
164 201 255
164 200 255
164 200 255
164 200 255
164 200 255
164 200 255
164 200 255
163 200 255
163 200 255
163 200 255
163 200 255
163 200 255
163 200 255
163 200 255
163 200 255
163 200 255
163 200 255
163 200 255
163 200 255
163 200 255
163 200 255
163 200 255
163 200 255
163 200 255
163 200 255
163 200 255
163 200 255
162 200 255
162 200 255
162 200 255
162 200 255
162 200 255
162 200 255
162 200 255
162 200 255
162 200 255
162 200 255
162 199 255
162 199 255
162 199 255
162 199 255
162 199 255
162 199 255
162 199 255
162 199 255
162 199 255
162 199 255
162 199 255
162 199 255
162 199 255
162 199 255
162 199 255
162 199 255
162 199 255
162 199 255
162 199 255
162 199 255
162 199 255
162 199 255
162 199 255
162 199 255
162 199 255
162 199 255
162 199 255
162 199 255
162 199 255
162 199 255
162 199 255
162 199 255
162 199 255
162 199 255
162 200 255
162 200 255
162 200 255
162 200 255
162 200 255
162 200 255
162 200 255
162 200 255
162 200 255
162 200 255
163 200 255
163 200 255
163 200 255
163 200 255
163 200 255
163 200 255
163 200 255
163 200 255
163 200 255
163 200 255
163 200 255
163 200 255
163 200 255
163 200 255
163 200 255
163 200 255
163 200 255
163 200 255
163 200 255
163 200 255
164 200 255
164 200 255
164 200 255
164 200 255
164 200 255
164 200 255
164 201 255
164 201 255
164 201 255
164 201 255
164 201 255
164 201 255
164 201 255
164 201 255
164 201 255
165 201 255
165 201 255
165 201 255
165 201 255
165 201 255
165 201 255
165 201 255
165 201 255
165 201 255
165 201 255
165 201 255
165 201 255
165 201 255
166 202 255
166 202 255
166 202 255
166 202 255
166 202 255
166 202 255
166 202 255
166 202 255
166 202 255
166 202 255
166 202 255
167 202 255
167 202 255
167 202 255
167 202 255
167 202 255
167 202 255
167 202 255
167 202 255
167 203 255
167 203 255
167 203 255
168 203 255
168 203 255
168 203 255
168 203 255
168 203 255
168 203 255
168 203 255
168 203 255
168 203 255
168 203 255
168 203 255
169 203 255
169 203 255
169 203 255
169 203 255
169 204 255
169 204 255
169 204 255
169 204 255
169 204 255
169 204 255
169 204 255
170 204 255
170 204 255
170 204 255
170 204 255
170 204 255
170 204 255
170 204 255
170 204 255
170 204 255
170 204 255
171 205 255
171 205 255
171 205 255
171 205 255
171 205 255
171 205 255
171 205 255
171 205 255
171 205 255
171 205 255
171 205 255
172 205 255
172 205 255
172 205 255
172 205 255
172 205 255
172 205 255
172 205 255
172 206 255
172 206 255
172 206 255
172 206 255
173 206 255
173 206 255
173 206 255
173 206 255
173 206 255
173 206 255
173 206 255
173 206 255
173 206 255
173 206 255
173 206 255
174 206 255
174 206 255
174 206 255
174 206 255
174 207 255
174 207 255
174 207 255
174 207 255
174 207 255
174 207 255
174 207 255
174 207 255
175 207 255
175 207 255
175 207 255
175 207 255
175 207 255
175 207 255
175 207 255
175 207 255
175 207 255
175 207 255
175 207 255
175 207 255
175 207 255
176 208 255
176 208 255
176 208 255
176 208 255
176 208 255
176 208 255
176 208 255
176 208 255
176 208 255
176 208 255
176 208 255
176 208 255
176 208 255
177 208 255
176 208 255
176 208 255
176 208 255
176 208 255
176 208 255
176 208 255
176 208 255
176 208 255
176 208 255
176 208 255
176 208 255
176 208 255
176 208 255
175 207 255
175 207 255
175 207 255
175 207 255
175 207 255
175 207 255
175 207 255
175 207 255
175 207 255
175 207 255
175 207 255
175 207 255
174 207 255
174 207 255
174 207 255
174 207 255
174 207 255
174 207 255
174 207 255
174 207 255
174 206 255
174 206 255
174 206 255
174 206 255
173 206 255
173 206 255
173 206 255
173 206 255
173 206 255
173 206 255
173 206 255
173 206 255
173 206 255
173 206 255
173 206 255
172 206 255
172 206 255
172 206 255
172 206 255
172 205 255
172 205 255
172 205 255
172 205 255
172 205 255
172 205 255
172 205 255
171 205 255
171 205 255
171 205 255
171 205 255
171 205 255
171 205 255
171 205 255
171 205 255
171 205 255
171 205 255
171 205 255
170 204 255
170 204 255
170 204 255
170 204 255
170 204 255
170 204 255
170 204 255
170 204 255
170 204 255
170 204 255
169 204 255
169 204 255
169 204 255
169 204 255
169 204 255
169 204 255
169 204 255
169 203 255
169 203 255
169 203 255
169 203 255
168 203 255
168 203 255
168 203 255
168 203 255
168 203 255
168 203 255
168 203 255
168 203 255
168 203 255
168 203 255
167 203 255
167 203 255
167 203 255
167 203 255
167 202 255
167 202 255
167 202 255
167 202 255
167 202 255
167 202 255
167 202 255
166 202 255
166 202 255
166 202 255
166 202 255
166 202 255
166 202 255
166 202 255
166 202 255
166 202 255
166 202 255
166 202 255
166 202 255
165 201 255
165 201 255
165 201 255
165 201 255
165 201 255
165 201 255
165 201 255
165 201 255
165 201 255
165 201 255
165 201 255
165 201 255
164 201 255
164 201 255
164 201 255
164 201 255
164 201 255
164 201 255
164 201 255
164 201 255
164 201 255
164 200 255
164 200 255
164 200 255
164 200 255
164 200 255
163 200 255
163 200 255
163 200 255
163 200 255
163 200 255
163 200 255
163 200 255
163 200 255
163 200 255
163 200 255
163 200 255
163 200 255
163 200 255
163 200 255
163 200 255
163 200 255
163 200 255
163 200 255
163 200 255
162 200 255
162 200 255
162 200 255
162 200 255
162 200 255
162 200 255
162 200 255
162 200 255
162 200 255
162 199 255
162 199 255
162 199 255
162 199 255
162 199 255
162 199 255
162 199 255
162 199 255
162 199 255
162 199 255
162 199 255
162 199 255
162 199 255
162 199 255
162 199 255
162 199 255
162 199 255
162 199 255
162 199 255
162 199 255
162 199 255
162 199 255
162 199 255
162 199 255
162 199 255
162 199 255
162 199 255
162 199 255
162 199 255
162 199 255
162 199 255
162 199 255
162 199 255
162 199 255
162 199 255
162 199 255
162 199 255
162 199 255
162 199 255
162 199 255
162 199 255
162 199 255
162 200 255
162 200 255
162 200 255
162 200 255
162 200 255
162 200 255
162 200 255
162 200 255
162 200 255
163 200 255
163 200 255
163 200 255
163 200 255
163 200 255
163 200 255
163 200 255
163 200 255
163 200 255
163 200 255
163 200 255
163 200 255
163 200 255
163 200 255
163 200 255
163 200 255
163 200 255
163 200 255
163 200 255
164 200 255
164 200 255
164 200 255
164 200 255
164 200 255
164 201 255
164 201 255
164 201 255
164 201 255
164 201 255
164 201 255
164 201 255
164 201 255
164 201 255
165 201 255
165 201 255
165 201 255
165 201 255
165 201 255
165 201 255
165 201 255
165 201 255
165 201 255
165 201 255
165 201 255
165 201 255
165 201 255
166 202 255
166 202 255
166 202 255
166 202 255
166 202 255
166 202 255
166 202 255
166 202 255
166 202 255
166 202 255
166 202 255
167 202 255
167 202 255
167 202 255
167 202 255
167 202 255
167 202 255
167 202 255
167 203 255
167 203 255
167 203 255
167 203 255
168 203 255
168 203 255
168 203 255
168 203 255
168 203 255
168 203 255
168 203 255
168 203 255
168 203 255
168 203 255
169 203 255
169 203 255
169 203 255
169 203 255
169 204 255
169 204 255
169 204 255
169 204 255
169 204 255
169 204 255
169 204 255
170 204 255
170 204 255
170 204 255
170 204 255
170 204 255
170 204 255
170 204 255
170 204 255
170 204 255
170 204 255
171 205 255
171 205 255
171 205 255
171 205 255
171 205 255
171 205 255
171 205 255
171 205 255
171 205 255
171 205 255
171 205 255
172 205 255
172 205 255
172 205 255
172 205 255
172 205 255
172 205 255
172 205 255
172 206 255
172 206 255
172 206 255
172 206 255
173 206 255
173 206 255
173 206 255
173 206 255
173 206 255
173 206 255
173 206 255
173 206 255
173 206 255
173 206 255
173 206 255
174 206 255
174 206 255
174 206 255
174 206 255
174 207 255
174 207 255
174 207 255
174 207 255
174 207 255
174 207 255
174 207 255
174 207 255
175 207 255
175 207 255
175 207 255
175 207 255
175 207 255
175 207 255
175 207 255
175 207 255
175 207 255
175 207 255
175 207 255
175 207 255
176 208 255
176 208 255
176 208 255
176 208 255
176 208 255
176 208 255
176 208 255
176 208 255
176 208 255
176 208 255
176 208 255
176 208 255
176 208 255
177 208 255
177 208 255
177 208 255
176 208 255
176 208 255
176 208 255
176 208 255
176 208 255
176 208 255
176 208 255
176 208 255
176 208 255
176 208 255
176 208 255
176 208 255
176 208 255
175 207 255
175 207 255
175 207 255
175 207 255
175 207 255
175 207 255
175 207 255
175 207 255
175 207 255
175 207 255
175 207 255
175 207 255
174 207 255
174 207 255
174 207 255
174 207 255
174 207 255
174 207 255
174 207 255
174 207 255
174 206 255
174 206 255
174 206 255
173 206 255
173 206 255
173 206 255
173 206 255
173 206 255
173 206 255
173 206 255
173 206 255
173 206 255
173 206 255
173 206 255
172 206 255
172 206 255
172 206 255
172 206 255
172 205 255
172 205 255
172 205 255
172 205 255
172 205 255
172 205 255
172 205 255
171 205 255
171 205 255
171 205 255
171 205 255
171 205 255
171 205 255
171 205 255
171 205 255
171 205 255
171 205 255
171 205 255
170 204 255
170 204 255
170 204 255
170 204 255
170 204 255
170 204 255
170 204 255
170 204 255
170 204 255
170 204 255
169 204 255
169 204 255
169 204 255
169 204 255
169 204 255
169 204 255
169 204 255
169 203 255
169 203 255
169 203 255
169 203 255
168 203 255
168 203 255
168 203 255
168 203 255
168 203 255
168 203 255
168 203 255
168 203 255
168 203 255
168 203 255
167 203 255
167 203 255
167 203 255
167 203 255
167 202 255
167 202 255
167 202 255
167 202 255
167 202 255
167 202 255
167 202 255
166 202 255
166 202 255
166 202 255
166 202 255
166 202 255
166 202 255
166 202 255
166 202 255
166 202 255
166 202 255
166 202 255
165 201 255
165 201 255
165 201 255
165 201 255
165 201 255
165 201 255
165 201 255
165 201 255
165 201 255
165 201 255
165 201 255
165 201 255
164 201 255
164 201 255
164 201 255
164 201 255
164 201 255
164 201 255
164 201 255
164 201 255
164 201 255
164 200 255
164 200 255
164 200 255
164 200 255
164 200 255
163 200 255
163 200 255
163 200 255
163 200 255
163 200 255
163 200 255
163 200 255
163 200 255
163 200 255
163 200 255
163 200 255
163 200 255
163 200 255
163 200 255
163 200 255
163 200 255
163 200 255
162 200 255
162 200 255
162 200 255
162 200 255
162 200 255
162 200 255
162 200 255
162 200 255
162 200 255
162 199 255
162 199 255
162 199 255
162 199 255
162 199 255
162 199 255
162 199 255
162 199 255
162 199 255
162 199 255
162 199 255
162 199 255
162 199 255
162 199 255
162 199 255
162 199 255
162 199 255
162 199 255
162 199 255
162 199 255
162 199 255
162 199 255
162 199 255
162 199 255
162 199 255
162 199 255
162 199 255
162 199 255
162 199 255
162 199 255
162 199 255
162 199 255
162 199 255
162 199 255
162 199 255
162 199 255
162 199 255
162 199 255
162 199 255
162 199 255
162 199 255
162 199 255
162 199 255
162 199 255
162 199 255
162 199 255
162 199 255
162 199 255
162 200 255
162 200 255
162 200 255
162 200 255
162 200 255
162 200 255
162 200 255
162 200 255
163 200 255
163 200 255
163 200 255
163 200 255
163 200 255
163 200 255
163 200 255
163 200 255
163 200 255
163 200 255
163 200 255
163 200 255
163 200 255
163 200 255
163 200 255
163 200 255
163 200 255
163 200 255
164 200 255
164 200 255
164 200 255
164 200 255
164 200 255
164 201 255
164 201 255
164 201 255
164 201 255
164 201 255
164 201 255
164 201 255
164 201 255
164 201 255
165 201 255
165 201 255
165 201 255
165 201 255
165 201 255
165 201 255
165 201 255
165 201 255
165 201 255
165 201 255
165 201 255
165 201 255
166 202 255
166 202 255
166 202 255
166 202 255
166 202 255
166 202 255
166 202 255
166 202 255
166 202 255
166 202 255
166 202 255
167 202 255
167 202 255
167 202 255
167 202 255
167 202 255
167 202 255
167 202 255
167 202 255
167 203 255
167 203 255
167 203 255
168 203 255
168 203 255
168 203 255
168 203 255
168 203 255
168 203 255
168 203 255
168 203 255
168 203 255
168 203 255
168 203 255
169 203 255
169 203 255
169 203 255
169 204 255
169 204 255
169 204 255
169 204 255
169 204 255
169 204 255
169 204 255
170 204 255
170 204 255
170 204 255
170 204 255
170 204 255
170 204 255
170 204 255
170 204 255
170 204 255
170 204 255
171 205 255
171 205 255
171 205 255
171 205 255
171 205 255
171 205 255
171 205 255
171 205 255
171 205 255
171 205 255
171 205 255
172 205 255
172 205 255
172 205 255
172 205 255
172 205 255
172 205 255
172 205 255
172 206 255
172 206 255
172 206 255
172 206 255
173 206 255
173 206 255
173 206 255
173 206 255
173 206 255
173 206 255
173 206 255
173 206 255
173 206 255
173 206 255
173 206 255
174 206 255
174 206 255
174 206 255
174 206 255
174 207 255
174 207 255
174 207 255
174 207 255
174 207 255
174 207 255
174 207 255
175 207 255
175 207 255
175 207 255
175 207 255
175 207 255
175 207 255
175 207 255
175 207 255
175 207 255
175 207 255
175 207 255
175 207 255
176 208 255
176 208 255
176 208 255
176 208 255
176 208 255
176 208 255
176 208 255
176 208 255
176 208 255
176 208 255
176 208 255
176 208 255
176 208 255
177 208 255
177 208 255
177 208 255
177 208 255
176 208 255
176 208 255
176 208 255
176 208 255
176 208 255
176 208 255
176 208 255
176 208 255
176 208 255
176 208 255
176 208 255
176 208 255
176 208 255
175 207 255
175 207 255
175 207 255
175 207 255
175 207 255
175 207 255
175 207 255
175 207 255
175 207 255
175 207 255
175 207 255
175 207 255
174 207 255
174 207 255
174 207 255
174 207 255
174 207 255
174 207 255
174 207 255
174 207 255
174 206 255
174 206 255
174 206 255
174 206 255
173 206 255
173 206 255
173 206 255
173 206 255
173 206 255
173 206 255
173 206 255
173 206 255
173 206 255
173 206 255
173 206 255
172 206 255
172 206 255
172 206 255
172 205 255
172 205 255
172 205 255
172 205 255
172 205 255
172 205 255
172 205 255
171 205 255
171 205 255
171 205 255
171 205 255
171 205 255
171 205 255
171 205 255
171 205 255
171 205 255
171 205 255
171 205 255
170 204 255
170 204 255
170 204 255
170 204 255
170 204 255
170 204 255
170 204 255
170 204 255
170 204 255
170 204 255
169 204 255
169 204 255
169 204 255
169 204 255
169 204 255
169 204 255
169 204 255
169 203 255
169 203 255
169 203 255
168 203 255
168 203 255
168 203 255
168 203 255
168 203 255
168 203 255
168 203 255
168 203 255
168 203 255
168 203 255
168 203 255
167 203 255
167 203 255
167 203 255
167 202 255
167 202 255
167 202 255
167 202 255
167 202 255
167 202 255
167 202 255
166 202 255
166 202 255
166 202 255
166 202 255
166 202 255
166 202 255
166 202 255
166 202 255
166 202 255
166 202 255
166 202 255
165 201 255
165 201 255
165 201 255
165 201 255
165 201 255
165 201 255
165 201 255
165 201 255
165 201 255
165 201 255
165 201 255
165 201 255
164 201 255
164 201 255
164 201 255
164 201 255
164 201 255
164 201 255
164 201 255
164 201 255
164 201 255
164 200 255
164 200 255
164 200 255
164 200 255
163 200 255
163 200 255
163 200 255
163 200 255
163 200 255
163 200 255
163 200 255
163 200 255
163 200 255
163 200 255
163 200 255
163 200 255
163 200 255
163 200 255
163 200 255
163 200 255
163 200 255
162 200 255
162 200 255
162 200 255
162 200 255
162 200 255
162 200 255
162 200 255
162 200 255
162 199 255
162 199 255
162 199 255
162 199 255
162 199 255
162 199 255
162 199 255
162 199 255
162 199 255
162 199 255
162 199 255
162 199 255
162 199 255
162 199 255
162 199 255
162 199 255
162 199 255
162 199 255
162 199 255
162 199 255
162 199 255
162 199 255
162 199 255
162 199 255
162 199 255
162 199 255
162 199 255
162 199 255
162 199 255
162 199 255
162 199 255
162 199 255
162 199 255
162 199 255
162 199 255
162 199 255
162 199 255
162 199 255
162 199 255
162 199 255
162 199 255
162 199 255
162 199 255
162 199 255
162 199 255
162 199 255
162 199 255
162 199 255
162 199 255
162 199 255
162 199 255
162 199 255
162 199 255
162 199 255
162 200 255
162 200 255
162 200 255
162 200 255
162 200 255
162 200 255
162 200 255
162 200 255
163 200 255
163 200 255
163 200 255
163 200 255
163 200 255
163 200 255
163 200 255
163 200 255
163 200 255
163 200 255
163 200 255
163 200 255
163 200 255
163 200 255
163 200 255
163 200 255
163 200 255
164 200 255
164 200 255
164 200 255
164 200 255
164 201 255
164 201 255
164 201 255
164 201 255
164 201 255
164 201 255
164 201 255
164 201 255
164 201 255
165 201 255
165 201 255
165 201 255
165 201 255
165 201 255
165 201 255
165 201 255
165 201 255
165 201 255
165 201 255
165 201 255
165 201 255
166 202 255
166 202 255
166 202 255
166 202 255
166 202 255
166 202 255
166 202 255
166 202 255
166 202 255
166 202 255
166 202 255
167 202 255
167 202 255
167 202 255
167 202 255
167 202 255
167 202 255
167 202 255
167 203 255
167 203 255
167 203 255
168 203 255
168 203 255
168 203 255
168 203 255
168 203 255
168 203 255
168 203 255
168 203 255
168 203 255
168 203 255
168 203 255
169 203 255
169 203 255
169 203 255
169 204 255
169 204 255
169 204 255
169 204 255
169 204 255
169 204 255
169 204 255
170 204 255
170 204 255
170 204 255
170 204 255
170 204 255
170 204 255
170 204 255
170 204 255
170 204 255
170 204 255
171 205 255
171 205 255
171 205 255
171 205 255
171 205 255
171 205 255
171 205 255
171 205 255
171 205 255
171 205 255
171 205 255
172 205 255
172 205 255
172 205 255
172 205 255
172 205 255
172 205 255
172 205 255
172 206 255
172 206 255
172 206 255
173 206 255
173 206 255
173 206 255
173 206 255
173 206 255
173 206 255
173 206 255
173 206 255
173 206 255
173 206 255
173 206 255
174 206 255
174 206 255
174 206 255
174 206 255
174 207 255
174 207 255
174 207 255
174 207 255
174 207 255
174 207 255
174 207 255
174 207 255
175 207 255
175 207 255
175 207 255
175 207 255
175 207 255
175 207 255
175 207 255
175 207 255
175 207 255
175 207 255
175 207 255
175 207 255
176 208 255
176 208 255
176 208 255
176 208 255
176 208 255
176 208 255
176 208 255
176 208 255
176 208 255
176 208 255
176 208 255
176 208 255
176 208 255
177 208 255
177 208 255
177 208 255
177 208 255
177 208 255
176 208 255
176 208 255
176 208 255
176 208 255
176 208 255
176 208 255
176 208 255
176 208 255
176 208 255
176 208 255
176 208 255
176 208 255
176 208 255
175 207 255
175 207 255
175 207 255
175 207 255
175 207 255
175 207 255
175 207 255
175 207 255
175 207 255
175 207 255
175 207 255
175 207 255
174 207 255
174 207 255
174 207 255
174 207 255
174 207 255
174 207 255
174 207 255
174 206 255
174 206 255
174 206 255
174 206 255
173 206 255
173 206 255
173 206 255
173 206 255
173 206 255
173 206 255
173 206 255
173 206 255
173 206 255
173 206 255
173 206 255
172 206 255
172 206 255
172 206 255
172 206 255
172 205 255
172 205 255
172 205 255
172 205 255
172 205 255
172 205 255
172 205 255
171 205 255
171 205 255
171 205 255
171 205 255
171 205 255
171 205 255
171 205 255
171 205 255
171 205 255
171 205 255
170 204 255
170 204 255
170 204 255
170 204 255
170 204 255
170 204 255
170 204 255
170 204 255
170 204 255
170 204 255
169 204 255
169 204 255
169 204 255
169 204 255
169 204 255
169 204 255
169 204 255
169 203 255
169 203 255
169 203 255
168 203 255
168 203 255
168 203 255
168 203 255
168 203 255
168 203 255
168 203 255
168 203 255
168 203 255
168 203 255
167 203 255
167 203 255
167 203 255
167 203 255
167 202 255
167 202 255
167 202 255
167 202 255
167 202 255
167 202 255
167 202 255
166 202 255
166 202 255
166 202 255
166 202 255
166 202 255
166 202 255
166 202 255
166 202 255
166 202 255
166 202 255
166 202 255
165 201 255
165 201 255
165 201 255
165 201 255
165 201 255
165 201 255
165 201 255
165 201 255
165 201 255
165 201 255
165 201 255
164 201 255
164 201 255
164 201 255
164 201 255
164 201 255
164 201 255
164 201 255
164 201 255
164 201 255
164 200 255
164 200 255
164 200 255
164 200 255
163 200 255
163 200 255
163 200 255
163 200 255
163 200 255
163 200 255
163 200 255
163 200 255
163 200 255
163 200 255
163 200 255
163 200 255
163 200 255
163 200 255
163 200 255
163 200 255
163 200 255
162 200 255
162 200 255
162 200 255
162 200 255
162 200 255
162 200 255
162 199 255
162 199 255
162 199 255
162 199 255
162 199 255
162 199 255
162 199 255
162 199 255
162 199 255
162 199 255
162 199 255
162 199 255
162 199 255
162 199 255
162 199 255
162 199 255
162 199 255
162 199 255
162 199 255
162 199 255
162 199 255
162 199 255
162 199 255
162 199 255
162 199 255
162 199 255
162 199 255
162 199 255
162 199 255
162 199 255
161 199 255
161 199 255
162 199 255
162 199 255
162 199 255
162 199 255
162 199 255
162 199 255
162 199 255
162 199 255
162 199 255
162 199 255
162 199 255
162 199 255
162 199 255
162 199 255
162 199 255
162 199 255
162 199 255
162 199 255
162 199 255
162 199 255
162 199 255
162 199 255
162 199 255
162 199 255
162 199 255
162 199 255
162 199 255
162 199 255
162 200 255
162 200 255
162 200 255
162 200 255
162 200 255
162 200 255
162 200 255
163 200 255
163 200 255
163 200 255
163 200 255
163 200 255
163 200 255
163 200 255
163 200 255
163 200 255
163 200 255
163 200 255
163 200 255
163 200 255
163 200 255
163 200 255
163 200 255
164 200 255
164 200 255
164 200 255
164 200 255
164 201 255
164 201 255
164 201 255
164 201 255
164 201 255
164 201 255
164 201 255
164 201 255
164 201 255
165 201 255
165 201 255
165 201 255
165 201 255
165 201 255
165 201 255
165 201 255
165 201 255
165 201 255
165 201 255
165 201 255
166 202 255
166 202 255
166 202 255
166 202 255
166 202 255
166 202 255
166 202 255
166 202 255
166 202 255
166 202 255
166 202 255
167 202 255
167 202 255
167 202 255
167 202 255
167 202 255
167 202 255
167 202 255
167 203 255
167 203 255
167 203 255
167 203 255
168 203 255
168 203 255
168 203 255
168 203 255
168 203 255
168 203 255
168 203 255
168 203 255
168 203 255
168 203 255
169 203 255
169 203 255
169 203 255
169 204 255
169 204 255
169 204 255
169 204 255
169 204 255
169 204 255
169 204 255
170 204 255
170 204 255
170 204 255
170 204 255
170 204 255
170 204 255
170 204 255
170 204 255
170 204 255
170 204 255
171 205 255
171 205 255
171 205 255
171 205 255
171 205 255
171 205 255
171 205 255
171 205 255
171 205 255
171 205 255
172 205 255
172 205 255
172 205 255
172 205 255
172 205 255
172 205 255
172 205 255
172 206 255
172 206 255
172 206 255
172 206 255
173 206 255
173 206 255
173 206 255
173 206 255
173 206 255
173 206 255
173 206 255
173 206 255
173 206 255
173 206 255
173 206 255
174 206 255
174 206 255
174 206 255
174 206 255
174 207 255
174 207 255
174 207 255
174 207 255
174 207 255
174 207 255
174 207 255
175 207 255
175 207 255
175 207 255
175 207 255
175 207 255
175 207 255
175 207 255
175 207 255
175 207 255
175 207 255
175 207 255
175 207 255
176 208 255
176 208 255
176 208 255
176 208 255
176 208 255
176 208 255
176 208 255
176 208 255
176 208 255
176 208 255
176 208 255
176 208 255
176 208 255
177 208 255
177 208 255
177 208 255
177 208 255
177 208 255
177 208 255
177 208 255
176 208 255
176 208 255
176 208 255
176 208 255
176 208 255
176 208 255
176 208 255
176 208 255
176 208 255
176 208 255
176 208 255
176 208 255
175 207 255
175 207 255
175 207 255
175 207 255
175 207 255
175 207 255
175 207 255
175 207 255
175 207 255
175 207 255
175 207 255
175 207 255
174 207 255
174 207 255
174 207 255
174 207 255
174 207 255
174 207 255
174 207 255
174 207 255
174 206 255
174 206 255
174 206 255
174 206 255
173 206 255
173 206 255
173 206 255
173 206 255
173 206 255
173 206 255
173 206 255
173 206 255
173 206 255
173 206 255
172 206 255
172 206 255
172 206 255
172 206 255
172 205 255
172 205 255
172 205 255
172 205 255
172 205 255
172 205 255
172 205 255
171 205 255
171 205 255
171 205 255
171 205 255
171 205 255
171 205 255
171 205 255
171 205 255
171 205 255
171 205 255
170 204 255
170 204 255
170 204 255
170 204 255
170 204 255
170 204 255
170 204 255
170 204 255
170 204 255
170 204 255
169 204 255
169 204 255
169 204 255
169 204 255
169 204 255
169 204 255
169 204 255
169 203 255
169 203 255
169 203 255
168 203 255
168 203 255
168 203 255
168 203 255
168 203 255
168 203 255
168 203 255
168 203 255
168 203 255
168 203 255
167 203 255
167 203 255
167 203 255
167 203 255
167 202 255
167 202 255
167 202 255
167 202 255
167 202 255
167 202 255
167 202 255
166 202 255
166 202 255
166 202 255
166 202 255
166 202 255
166 202 255
166 202 255
166 202 255
166 202 255
166 202 255
165 201 255
165 201 255
165 201 255
165 201 255
165 201 255
165 201 255
165 201 255
165 201 255
165 201 255
165 201 255
165 201 255
165 201 255
164 201 255
164 201 255
164 201 255
164 201 255
164 201 255
164 201 255
164 201 255
164 201 255
164 200 255
164 200 255
164 200 255
164 200 255
163 200 255
163 200 255
163 200 255
163 200 255
163 200 255
163 200 255
163 200 255
163 200 255
163 200 255
163 200 255
163 200 255
163 200 255
163 200 255
163 200 255
163 200 255
163 200 255
162 200 255
162 200 255
162 200 255
162 200 255
162 200 255
162 200 255
162 199 255
162 199 255
162 199 255
162 199 255
162 199 255
162 199 255
162 199 255
162 199 255
162 199 255
162 199 255
162 199 255
162 199 255
162 199 255
162 199 255
162 199 255
162 199 255
162 199 255
162 199 255
162 199 255
162 199 255
161 199 255
161 199 255
161 199 255
161 199 255
161 199 255
161 199 255
161 199 255
161 199 255
161 199 255
161 199 255
161 199 255
161 199 255
161 199 255
161 199 255
161 199 255
161 199 255
161 199 255
161 199 255
161 199 255
161 199 255
161 199 255
161 199 255
161 199 255
161 199 255
162 199 255
162 199 255
162 199 255
162 199 255
162 199 255
162 199 255
162 199 255
162 199 255
162 199 255
162 199 255
162 199 255
162 199 255
162 199 255
162 199 255
162 199 255
162 199 255
162 199 255
162 199 255
162 199 255
162 199 255
162 200 255
162 200 255
162 200 255
162 200 255
162 200 255
162 200 255
163 200 255
163 200 255
163 200 255
163 200 255
163 200 255
163 200 255
163 200 255
163 200 255
163 200 255
163 200 255
163 200 255
163 200 255
163 200 255
163 200 255
163 200 255
163 200 255
164 200 255
164 200 255
164 200 255
164 200 255
164 201 255
164 201 255
164 201 255
164 201 255
164 201 255
164 201 255
164 201 255
164 201 255
165 201 255
165 201 255
165 201 255
165 201 255
165 201 255
165 201 255
165 201 255
165 201 255
165 201 255
165 201 255
165 201 255
165 201 255
166 202 255
166 202 255
166 202 255
166 202 255
166 202 255
166 202 255
166 202 255
166 202 255
166 202 255
166 202 255
167 202 255
167 202 255
167 202 255
167 202 255
167 202 255
167 202 255
167 202 255
167 203 255
167 203 255
167 203 255
167 203 255
168 203 255
168 203 255
168 203 255
168 203 255
168 203 255
168 203 255
168 203 255
168 203 255
168 203 255
168 203 255
169 203 255
169 203 255
169 203 255
169 204 255
169 204 255
169 204 255
169 204 255
169 204 255
169 204 255
169 204 255
170 204 255
170 204 255
170 204 255
170 204 255
170 204 255
170 204 255
170 204 255
170 204 255
170 204 255
170 204 255
171 205 255
171 205 255
171 205 255
171 205 255
171 205 255
171 205 255
171 205 255
171 205 255
171 205 255
171 205 255
172 205 255
172 205 255
172 205 255
172 205 255
172 205 255
172 205 255
172 205 255
172 206 255
172 206 255
172 206 255
172 206 255
173 206 255
173 206 255
173 206 255
173 206 255
173 206 255
173 206 255
173 206 255
173 206 255
173 206 255
173 206 255
174 206 255
174 206 255
174 206 255
174 206 255
174 207 255
174 207 255
174 207 255
174 207 255
174 207 255
174 207 255
174 207 255
174 207 255
175 207 255
175 207 255
175 207 255
175 207 255
175 207 255
175 207 255
175 207 255
175 207 255
175 207 255
175 207 255
175 207 255
175 207 255
176 208 255
176 208 255
176 208 255
176 208 255
176 208 255
176 208 255
176 208 255
176 208 255
176 208 255
176 208 255
176 208 255
176 208 255
177 208 255
177 208 255
177 208 255
177 208 255
177 208 255
177 208 255
177 208 255
177 208 255
176 208 255
176 208 255
176 208 255
176 208 255
176 208 255
176 208 255
176 208 255
176 208 255
176 208 255
176 208 255
176 208 255
176 208 255
176 208 255
175 207 255
175 207 255
175 207 255
175 207 255
175 207 255
175 207 255
175 207 255
175 207 255
175 207 255
175 207 255
175 207 255
175 207 255
174 207 255
174 207 255
174 207 255
174 207 255
174 207 255
174 207 255
174 207 255
174 206 255
174 206 255
174 206 255
174 206 255
173 206 255
173 206 255
173 206 255
173 206 255
173 206 255
173 206 255
173 206 255
173 206 255
173 206 255
173 206 255
173 206 255
172 206 255
172 206 255
172 206 255
172 205 255
172 205 255
172 205 255
172 205 255
172 205 255
172 205 255
172 205 255
171 205 255
171 205 255
171 205 255
171 205 255
171 205 255
171 205 255
171 205 255
171 205 255
171 205 255
171 205 255
170 204 255
170 204 255
170 204 255
170 204 255
170 204 255
170 204 255
170 204 255
170 204 255
170 204 255
170 204 255
169 204 255
169 204 255
169 204 255
169 204 255
169 204 255
169 204 255
169 204 255
169 203 255
169 203 255
169 203 255
168 203 255
168 203 255
168 203 255
168 203 255
168 203 255
168 203 255
168 203 255
168 203 255
168 203 255
168 203 255
167 203 255
167 203 255
167 203 255
167 202 255
167 202 255
167 202 255
167 202 255
167 202 255
167 202 255
167 202 255
166 202 255
166 202 255
166 202 255
166 202 255
166 202 255
166 202 255
166 202 255
166 202 255
166 202 255
166 202 255
166 202 255
165 201 255
165 201 255
165 201 255
165 201 255
165 201 255
165 201 255
165 201 255
165 201 255
165 201 255
165 201 255
165 201 255
164 201 255
164 201 255
164 201 255
164 201 255
164 201 255
164 201 255
164 201 255
164 201 255
164 200 255
164 200 255
164 200 255
164 200 255
163 200 255
163 200 255
163 200 255
163 200 255
163 200 255
163 200 255
163 200 255
163 200 255
163 200 255
163 200 255
163 200 255
163 200 255
163 200 255
163 200 255
163 200 255
162 200 255
162 200 255
162 200 255
162 200 255
162 200 255
162 200 255
162 199 255
162 199 255
162 199 255
162 199 255
162 199 255
162 199 255
162 199 255
162 199 255
162 199 255
162 199 255
162 199 255
162 199 255
162 199 255
162 199 255
162 199 255
162 199 255
162 199 255
161 199 255
161 199 255
161 199 255
161 199 255
161 199 255
161 199 255
161 199 255
161 199 255
161 199 255
161 199 255
161 199 255
161 199 255
161 199 255
161 199 255
161 199 255
161 199 255
161 199 255
161 199 255
161 199 255
161 199 255
161 199 255
161 199 255
161 199 255
161 199 255
161 199 255
161 199 255
161 199 255
161 199 255
161 199 255
161 199 255
161 199 255
161 199 255
161 199 255
161 199 255
162 199 255
162 199 255
162 199 255
162 199 255
162 199 255
162 199 255
162 199 255
162 199 255
162 199 255
162 199 255
162 199 255
162 199 255
162 199 255
162 199 255
162 199 255
162 199 255
162 199 255
162 200 255
162 200 255
162 200 255
162 200 255
162 200 255
162 200 255
163 200 255
163 200 255
163 200 255
163 200 255
163 200 255
163 200 255
163 200 255
163 200 255
163 200 255
163 200 255
163 200 255
163 200 255
163 200 255
163 200 255
163 200 255
164 200 255
164 200 255
164 200 255
164 200 255
164 201 255
164 201 255
164 201 255
164 201 255
164 201 255
164 201 255
164 201 255
164 201 255
165 201 255
165 201 255
165 201 255
165 201 255
165 201 255
165 201 255
165 201 255
165 201 255
165 201 255
165 201 255
165 201 255
166 202 255
166 202 255
166 202 255
166 202 255
166 202 255
166 202 255
166 202 255
166 202 255
166 202 255
166 202 255
166 202 255
167 202 255
167 202 255
167 202 255
167 202 255
167 202 255
167 202 255
167 202 255
167 203 255
167 203 255
167 203 255
168 203 255
168 203 255
168 203 255
168 203 255
168 203 255
168 203 255
168 203 255
168 203 255
168 203 255
168 203 255
169 203 255
169 203 255
169 203 255
169 204 255
169 204 255
169 204 255
169 204 255
169 204 255
169 204 255
169 204 255
170 204 255
170 204 255
170 204 255
170 204 255
170 204 255
170 204 255
170 204 255
170 204 255
170 204 255
170 204 255
171 205 255
171 205 255
171 205 255
171 205 255
171 205 255
171 205 255
171 205 255
171 205 255
171 205 255
171 205 255
172 205 255
172 205 255
172 205 255
172 205 255
172 205 255
172 205 255
172 205 255
172 206 255
172 206 255
172 206 255
173 206 255
173 206 255
173 206 255
173 206 255
173 206 255
173 206 255
173 206 255
173 206 255
173 206 255
173 206 255
173 206 255
174 206 255
174 206 255
174 206 255
174 206 255
174 207 255
174 207 255
174 207 255
174 207 255
174 207 255
174 207 255
174 207 255
175 207 255
175 207 255
175 207 255
175 207 255
175 207 255
175 207 255
175 207 255
175 207 255
175 207 255
175 207 255
175 207 255
175 207 255
176 208 255
176 208 255
176 208 255
176 208 255
176 208 255
176 208 255
176 208 255
176 208 255
176 208 255
176 208 255
176 208 255
176 208 255
176 208 255
177 208 255
177 208 255
177 208 255
177 208 255
177 208 255
177 208 255
177 208 255
177 208 255
177 208 255
176 208 255
176 208 255
176 208 255
176 208 255
176 208 255
176 208 255
176 208 255
176 208 255
176 208 255
176 208 255
176 208 255
176 208 255
176 208 255
175 207 255
175 207 255
175 207 255
175 207 255
175 207 255
175 207 255
175 207 255
175 207 255
175 207 255
175 207 255
175 207 255
174 207 255
174 207 255
174 207 255
174 207 255
174 207 255
174 207 255
174 207 255
174 207 255
174 206 255
174 206 255
174 206 255
173 206 255
173 206 255
173 206 255
173 206 255
173 206 255
173 206 255
173 206 255
173 206 255
173 206 255
173 206 255
173 206 255
172 206 255
172 206 255
172 206 255
172 206 255
172 205 255
172 205 255
172 205 255
172 205 255
172 205 255
172 205 255
171 205 255
171 205 255
171 205 255
171 205 255
171 205 255
171 205 255
171 205 255
171 205 255
171 205 255
171 205 255
171 205 255
170 204 255
170 204 255
170 204 255
170 204 255
170 204 255
170 204 255
170 204 255
170 204 255
170 204 255
169 204 255
169 204 255
169 204 255
169 204 255
169 204 255
169 204 255
169 204 255
169 203 255
169 203 255
169 203 255
168 203 255
168 203 255
168 203 255
168 203 255
168 203 255
168 203 255
168 203 255
168 203 255
168 203 255
168 203 255
167 203 255
167 203 255
167 203 255
167 202 255
167 202 255
167 202 255
167 202 255
167 202 255
167 202 255
167 202 255
166 202 255
166 202 255
166 202 255
166 202 255
166 202 255
166 202 255
166 202 255
166 202 255
166 202 255
166 202 255
165 201 255
165 201 255
165 201 255
165 201 255
165 201 255
165 201 255
165 201 255
165 201 255
165 201 255
165 201 255
165 201 255
164 201 255
164 201 255
164 201 255
164 201 255
164 201 255
164 201 255
164 201 255
164 201 255
164 200 255
164 200 255
164 200 255
164 200 255
163 200 255
163 200 255
163 200 255
163 200 255
163 200 255
163 200 255
163 200 255
163 200 255
163 200 255
163 200 255
163 200 255
163 200 255
163 200 255
163 200 255
163 200 255
162 200 255
162 200 255
162 200 255
162 200 255
162 200 255
162 199 255
162 199 255
162 199 255
162 199 255
162 199 255
162 199 255
162 199 255
162 199 255
162 199 255
162 199 255
162 199 255
162 199 255
162 199 255
162 199 255
162 199 255
162 199 255
161 199 255
161 199 255
161 199 255
161 199 255
161 199 255
161 199 255
161 199 255
161 199 255
161 199 255
161 199 255
161 199 255
161 199 255
161 199 255
161 199 255
161 199 255
161 199 255
161 199 255
161 199 255
161 199 255
161 199 255
161 199 255
161 199 255
161 199 255
161 199 255
161 199 255
161 199 255
161 199 255
161 199 255
161 199 255
161 199 255
161 199 255
161 199 255
161 199 255
161 199 255
161 199 255
161 199 255
161 199 255
161 199 255
161 199 255
161 199 255
161 199 255
162 199 255
162 199 255
162 199 255
162 199 255
162 199 255
162 199 255
162 199 255
162 199 255
162 199 255
162 199 255
162 199 255
162 199 255
162 199 255
162 199 255
162 200 255
162 200 255
162 200 255
162 200 255
162 200 255
162 200 255
163 200 255
163 200 255
163 200 255
163 200 255
163 200 255
163 200 255
163 200 255
163 200 255
163 200 255
163 200 255
163 200 255
163 200 255
163 200 255
163 200 255
163 200 255
164 200 255
164 200 255
164 200 255
164 200 255
164 201 255
164 201 255
164 201 255
164 201 255
164 201 255
164 201 255
164 201 255
164 201 255
165 201 255
165 201 255
165 201 255
165 201 255
165 201 255
165 201 255
165 201 255
165 201 255
165 201 255
165 201 255
165 201 255
166 202 255
166 202 255
166 202 255
166 202 255
166 202 255
166 202 255
166 202 255
166 202 255
166 202 255
166 202 255
167 202 255
167 202 255
167 202 255
167 202 255
167 202 255
167 202 255
167 202 255
167 203 255
167 203 255
167 203 255
168 203 255
168 203 255
168 203 255
168 203 255
168 203 255
168 203 255
168 203 255
168 203 255
168 203 255
168 203 255
169 203 255
169 203 255
169 203 255
169 204 255
169 204 255
169 204 255
169 204 255
169 204 255
169 204 255
169 204 255
170 204 255
170 204 255
170 204 255
170 204 255
170 204 255
170 204 255
170 204 255
170 204 255
170 204 255
171 205 255
171 205 255
171 205 255
171 205 255
171 205 255
171 205 255
171 205 255
171 205 255
171 205 255
171 205 255
171 205 255
172 205 255
172 205 255
172 205 255
172 205 255
172 205 255
172 205 255
172 206 255
172 206 255
172 206 255
172 206 255
173 206 255
173 206 255
173 206 255
173 206 255
173 206 255
173 206 255
173 206 255
173 206 255
173 206 255
173 206 255
173 206 255
174 206 255
174 206 255
174 206 255
174 207 255
174 207 255
174 207 255
174 207 255
174 207 255
174 207 255
174 207 255
174 207 255
175 207 255
175 207 255
175 207 255
175 207 255
175 207 255
175 207 255
175 207 255
175 207 255
175 207 255
175 207 255
175 207 255
176 208 255
176 208 255
176 208 255
176 208 255
176 208 255
176 208 255
176 208 255
176 208 255
176 208 255
176 208 255
176 208 255
176 208 255
176 208 255
177 208 255
177 208 255
177 208 255
177 208 255
177 208 255
177 208 255
177 208 255
177 208 255
177 208 255
177 208 255
177 208 255
176 208 255
176 208 255
176 208 255
176 208 255
176 208 255
176 208 255
176 208 255
176 208 255
176 208 255
176 208 255
176 208 255
176 208 255
175 207 255
175 207 255
175 207 255
175 207 255
175 207 255
175 207 255
175 207 255
175 207 255
175 207 255
175 207 255
175 207 255
175 207 255
174 207 255
174 207 255
174 207 255
174 207 255
174 207 255
174 207 255
174 207 255
174 206 255
174 206 255
174 206 255
174 206 255
173 206 255
173 206 255
173 206 255
173 206 255
173 206 255
173 206 255
173 206 255
173 206 255
173 206 255
173 206 255
173 206 255
172 206 255
172 206 255
172 206 255
172 205 255
172 205 255
172 205 255
172 205 255
172 205 255
172 205 255
172 205 255
171 205 255
171 205 255
171 205 255
171 205 255
171 205 255
171 205 255
171 205 255
171 205 255
171 205 255
171 205 255
170 204 255
170 204 255
170 204 255
170 204 255
170 204 255
170 204 255
170 204 255
170 204 255
170 204 255
169 204 255
169 204 255
169 204 255
169 204 255
169 204 255
169 204 255
169 204 255
169 203 255
169 203 255
169 203 255
168 203 255
168 203 255
168 203 255
168 203 255
168 203 255
168 203 255
168 203 255
168 203 255
168 203 255
168 203 255
167 203 255
167 203 255
167 203 255
167 202 255
167 202 255
167 202 255
167 202 255
167 202 255
167 202 255
167 202 255
166 202 255
166 202 255
166 202 255
166 202 255
166 202 255
166 202 255
166 202 255
166 202 255
166 202 255
166 202 255
165 201 255
165 201 255
165 201 255
165 201 255
165 201 255
165 201 255
165 201 255
165 201 255
165 201 255
165 201 255
165 201 255
164 201 255
164 201 255
164 201 255
164 201 255
164 201 255
164 201 255
164 201 255
164 200 255
164 200 255
164 200 255
164 200 255
163 200 255
163 200 255
163 200 255
163 200 255
163 200 255
163 200 255
163 200 255
163 200 255
163 200 255
163 200 255
163 200 255
163 200 255
163 200 255
163 200 255
162 200 255
162 200 255
162 200 255
162 200 255
162 200 255
162 200 255
162 199 255
162 199 255
162 199 255
162 199 255
162 199 255
162 199 255
162 199 255
162 199 255
162 199 255
162 199 255
162 199 255
162 199 255
162 199 255
162 199 255
161 199 255
161 199 255
161 199 255
161 199 255
161 199 255
161 199 255
161 199 255
161 199 255
161 199 255
161 199 255
161 199 255
161 199 255
161 199 255
161 199 255
161 199 255
161 199 255
161 199 255
161 199 255
161 199 255
161 199 255
161 199 255
161 199 255
161 199 255
161 199 255
161 199 255
161 199 255
161 199 255
161 199 255
161 199 255
161 199 255
161 199 255
161 199 255
161 199 255
161 199 255
161 199 255
161 199 255
161 199 255
161 199 255
161 199 255
161 199 255
161 199 255
161 199 255
161 199 255
161 199 255
161 199 255
161 199 255
162 199 255
162 199 255
162 199 255
162 199 255
162 199 255
162 199 255
162 199 255
162 199 255
162 199 255
162 199 255
162 199 255
162 199 255
162 199 255
162 199 255
162 200 255
162 200 255
162 200 255
162 200 255
162 200 255
162 200 255
163 200 255
163 200 255
163 200 255
163 200 255
163 200 255
163 200 255
163 200 255
163 200 255
163 200 255
163 200 255
163 200 255
163 200 255
163 200 255
164 200 255
164 200 255
164 200 255
164 200 255
164 200 255
164 201 255
164 201 255
164 201 255
164 201 255
164 201 255
164 201 255
164 201 255
165 201 255
165 201 255
165 201 255
165 201 255
165 201 255
165 201 255
165 201 255
165 201 255
165 201 255
165 201 255
165 201 255
166 202 255
166 202 255
166 202 255
166 202 255
166 202 255
166 202 255
166 202 255
166 202 255
166 202 255
166 202 255
167 202 255
167 202 255
167 202 255
167 202 255
167 202 255
167 202 255
167 202 255
167 203 255
167 203 255
167 203 255
168 203 255
168 203 255
168 203 255
168 203 255
168 203 255
168 203 255
168 203 255
168 203 255
168 203 255
168 203 255
169 203 255
169 203 255
169 203 255
169 204 255
169 204 255
169 204 255
169 204 255
169 204 255
169 204 255
170 204 255
170 204 255
170 204 255
170 204 255
170 204 255
170 204 255
170 204 255
170 204 255
170 204 255
170 204 255
171 205 255
171 205 255
171 205 255
171 205 255
171 205 255
171 205 255
171 205 255
171 205 255
171 205 255
171 205 255
172 205 255
172 205 255
172 205 255
172 205 255
172 205 255
172 205 255
172 205 255
172 206 255
172 206 255
172 206 255
173 206 255
173 206 255
173 206 255
173 206 255
173 206 255
173 206 255
173 206 255
173 206 255
173 206 255
173 206 255
173 206 255
174 206 255
174 206 255
174 206 255
174 206 255
174 207 255
174 207 255
174 207 255
174 207 255
174 207 255
174 207 255
174 207 255
175 207 255
175 207 255
175 207 255
175 207 255
175 207 255
175 207 255
175 207 255
175 207 255
175 207 255
175 207 255
175 207 255
175 207 255
176 208 255
176 208 255
176 208 255
176 208 255
176 208 255
176 208 255
176 208 255
176 208 255
176 208 255
176 208 255
176 208 255
176 208 255
177 208 255
177 208 255
177 208 255
177 208 255
177 208 255
177 208 255
177 208 255
177 208 255
177 208 255
177 208 255
177 208 255
177 208 255
177 208 255
176 208 255
176 208 255
176 208 255
176 208 255
176 208 255
176 208 255
176 208 255
176 208 255
176 208 255
176 208 255
176 208 255
176 208 255
175 207 255
175 207 255
175 207 255
175 207 255
175 207 255
175 207 255
175 207 255
175 207 255
175 207 255
175 207 255
175 207 255
175 207 255
174 207 255
174 207 255
174 207 255
174 207 255
174 207 255
174 207 255
174 207 255
174 206 255
174 206 255
174 206 255
173 206 255
173 206 255
173 206 255
173 206 255
173 206 255
173 206 255
173 206 255
173 206 255
173 206 255
173 206 255
173 206 255
172 206 255
172 206 255
172 206 255
172 205 255
172 205 255
172 205 255
172 205 255
172 205 255
172 205 255
172 205 255
171 205 255
171 205 255
171 205 255
171 205 255
171 205 255
171 205 255
171 205 255
171 205 255
171 205 255
171 205 255
170 204 255
170 204 255
170 204 255
170 204 255
170 204 255
170 204 255
170 204 255
170 204 255
170 204 255
170 204 255
169 204 255
169 204 255
169 204 255
169 204 255
169 204 255
169 204 255
169 203 255
169 203 255
169 203 255
168 203 255
168 203 255
168 203 255
168 203 255
168 203 255
168 203 255
168 203 255
168 203 255
168 203 255
168 203 255
167 203 255
167 203 255
167 203 255
167 202 255
167 202 255
167 202 255
167 202 255
167 202 255
167 202 255
167 202 255
166 202 255
166 202 255
166 202 255
166 202 255
166 202 255
166 202 255
166 202 255
166 202 255
166 202 255
166 202 255
165 201 255
165 201 255
165 201 255
165 201 255
165 201 255
165 201 255
165 201 255
165 201 255
165 201 255
165 201 255
164 201 255
164 201 255
164 201 255
164 201 255
164 201 255
164 201 255
164 201 255
164 201 255
164 200 255
164 200 255
164 200 255
164 200 255
163 200 255
163 200 255
163 200 255
163 200 255
163 200 255
163 200 255
163 200 255
163 200 255
163 200 255
163 200 255
163 200 255
163 200 255
163 200 255
162 200 255
162 200 255
162 200 255
162 200 255
162 200 255
162 199 255
162 199 255
162 199 255
162 199 255
162 199 255
162 199 255
162 199 255
162 199 255
162 199 255
162 199 255
162 199 255
162 199 255
162 199 255
161 199 255
161 199 255
161 199 255
161 199 255
161 199 255
161 199 255
161 199 255
161 199 255
161 199 255
161 199 255
161 199 255
161 199 255
161 199 255
161 199 255
161 199 255
161 199 255
161 199 255
161 199 255
161 199 255
161 199 255
161 199 255
161 199 255
161 199 255
161 199 255
161 199 255
161 199 255
161 199 255
161 199 255
161 199 255
161 199 255
161 199 255
161 199 255
161 199 255
161 199 255
161 199 255
161 199 255
161 199 255
161 199 255
161 199 255
161 199 255
161 199 255
161 199 255
161 199 255
161 199 255
161 199 255
161 199 255
161 199 255
161 199 255
161 199 255
161 199 255
161 199 255
161 199 255
162 199 255
162 199 255
162 199 255
162 199 255
162 199 255
162 199 255
162 199 255
162 199 255
162 199 255
162 199 255
162 199 255
162 199 255
162 199 255
162 200 255
162 200 255
162 200 255
162 200 255
162 200 255
163 200 255
163 200 255
163 200 255
163 200 255
163 200 255
163 200 255
163 200 255
163 200 255
163 200 255
163 200 255
163 200 255
163 200 255
163 200 255
164 200 255
164 200 255
164 200 255
164 200 255
164 201 255
164 201 255
164 201 255
164 201 255
164 201 255
164 201 255
164 201 255
164 201 255
165 201 255
165 201 255
165 201 255
165 201 255
165 201 255
165 201 255
165 201 255
165 201 255
165 201 255
165 201 255
166 202 255
166 202 255
166 202 255
166 202 255
166 202 255
166 202 255
166 202 255
166 202 255
166 202 255
166 202 255
167 202 255
167 202 255
167 202 255
167 202 255
167 202 255
167 202 255
167 202 255
167 203 255
167 203 255
167 203 255
168 203 255
168 203 255
168 203 255
168 203 255
168 203 255
168 203 255
168 203 255
168 203 255
168 203 255
168 203 255
169 203 255
169 203 255
169 203 255
169 204 255
169 204 255
169 204 255
169 204 255
169 204 255
169 204 255
170 204 255
170 204 255
170 204 255
170 204 255
170 204 255
170 204 255
170 204 255
170 204 255
170 204 255
170 204 255
171 205 255
171 205 255
171 205 255
171 205 255
171 205 255
171 205 255
171 205 255
171 205 255
171 205 255
171 205 255
172 205 255
172 205 255
172 205 255
172 205 255
172 205 255
172 205 255
172 205 255
172 206 255
172 206 255
172 206 255
173 206 255
173 206 255
173 206 255
173 206 255
173 206 255
173 206 255
173 206 255
173 206 255
173 206 255
173 206 255
173 206 255
174 206 255
174 206 255
174 206 255
174 207 255
174 207 255
174 207 255
174 207 255
174 207 255
174 207 255
174 207 255
175 207 255
175 207 255
175 207 255
175 207 255
175 207 255
175 207 255
175 207 255
175 207 255
175 207 255
175 207 255
175 207 255
175 207 255
176 208 255
176 208 255
176 208 255
176 208 255
176 208 255
176 208 255
176 208 255
176 208 255
176 208 255
176 208 255
176 208 255
176 208 255
177 208 255
177 208 255
177 208 255
177 208 255
177 208 255
177 208 255
177 208 255
177 208 255
177 208 255
177 208 255
177 208 255
177 208 255
177 208 255
177 208 255
177 208 255
176 208 255
176 208 255
176 208 255
176 208 255
176 208 255
176 208 255
176 208 255
176 208 255
176 208 255
176 208 255
176 208 255
176 208 255
175 207 255
175 207 255
175 207 255
175 207 255
175 207 255
175 207 255
175 207 255
175 207 255
175 207 255
175 207 255
175 207 255
174 207 255
174 207 255
174 207 255
174 207 255
174 207 255
174 207 255
174 207 255
174 206 255
174 206 255
174 206 255
174 206 255
173 206 255
173 206 255
173 206 255
173 206 255
173 206 255
173 206 255
173 206 255
173 206 255
173 206 255
173 206 255
172 206 255
172 206 255
172 206 255
172 206 255
172 205 255
172 205 255
172 205 255
172 205 255
172 205 255
172 205 255
171 205 255
171 205 255
171 205 255
171 205 255
171 205 255
171 205 255
171 205 255
171 205 255
171 205 255
171 205 255
170 204 255
170 204 255
170 204 255
170 204 255
170 204 255
170 204 255
170 204 255
170 204 255
170 204 255
170 204 255
169 204 255
169 204 255
169 204 255
169 204 255
169 204 255
169 204 255
169 203 255
169 203 255
169 203 255
168 203 255
168 203 255
168 203 255
168 203 255
168 203 255
168 203 255
168 203 255
168 203 255
168 203 255
168 203 255
167 203 255
167 203 255
167 203 255
167 202 255
167 202 255
167 202 255
167 202 255
167 202 255
167 202 255
166 202 255
166 202 255
166 202 255
166 202 255
166 202 255
166 202 255
166 202 255
166 202 255
166 202 255
166 202 255
165 201 255
165 201 255
165 201 255
165 201 255
165 201 255
165 201 255
165 201 255
165 201 255
165 201 255
165 201 255
165 201 255
164 201 255
164 201 255
164 201 255
164 201 255
164 201 255
164 201 255
164 201 255
164 200 255
164 200 255
164 200 255
164 200 255
163 200 255
163 200 255
163 200 255
163 200 255
163 200 255
163 200 255
163 200 255
163 200 255
163 200 255
163 200 255
163 200 255
163 200 255
163 200 255
162 200 255
162 200 255
162 200 255
162 200 255
162 200 255
162 199 255
162 199 255
162 199 255
162 199 255
162 199 255
162 199 255
162 199 255
162 199 255
162 199 255
162 199 255
162 199 255
162 199 255
161 199 255
161 199 255
161 199 255
161 199 255
161 199 255
161 199 255
161 199 255
161 199 255
161 199 255
161 199 255
161 199 255
161 199 255
161 199 255
161 199 255
161 199 255
161 199 255
161 199 255
161 199 255
161 199 255
161 199 255
161 199 255
161 199 255
161 199 255
161 199 255
161 199 255
161 199 255
161 199 255
161 199 255
161 199 255
161 199 255
161 199 255
161 199 255
161 199 255
161 199 255
161 199 255
161 199 255
161 199 255
161 199 255
161 199 255
161 199 255
161 199 255
161 199 255
161 199 255
161 199 255
161 199 255
161 199 255
161 199 255
161 199 255
161 199 255
161 199 255
161 199 255
161 199 255
161 199 255
161 199 255
161 199 255
161 199 255
162 199 255
162 199 255
162 199 255
162 199 255
162 199 255
162 199 255
162 199 255
162 199 255
162 199 255
162 199 255
162 199 255
162 199 255
162 200 255
162 200 255
162 200 255
162 200 255
162 200 255
163 200 255
163 200 255
163 200 255
163 200 255
163 200 255
163 200 255
163 200 255
163 200 255
163 200 255
163 200 255
163 200 255
163 200 255
163 200 255
164 200 255
164 200 255
164 200 255
164 200 255
164 201 255
164 201 255
164 201 255
164 201 255
164 201 255
164 201 255
164 201 255
165 201 255
165 201 255
165 201 255
165 201 255
165 201 255
165 201 255
165 201 255
165 201 255
165 201 255
165 201 255
165 201 255
166 202 255
166 202 255
166 202 255
166 202 255
166 202 255
166 202 255
166 202 255
166 202 255
166 202 255
166 202 255
167 202 255
167 202 255
167 202 255
167 202 255
167 202 255
167 202 255
167 203 255
167 203 255
167 203 255
168 203 255
168 203 255
168 203 255
168 203 255
168 203 255
168 203 255
168 203 255
168 203 255
168 203 255
168 203 255
169 203 255
169 203 255
169 203 255
169 204 255
169 204 255
169 204 255
169 204 255
169 204 255
169 204 255
170 204 255
170 204 255
170 204 255
170 204 255
170 204 255
170 204 255
170 204 255
170 204 255
170 204 255
170 204 255
171 205 255
171 205 255
171 205 255
171 205 255
171 205 255
171 205 255
171 205 255
171 205 255
171 205 255
171 205 255
172 205 255
172 205 255
172 205 255
172 205 255
172 205 255
172 205 255
172 206 255
172 206 255
172 206 255
172 206 255
173 206 255
173 206 255
173 206 255
173 206 255
173 206 255
173 206 255
173 206 255
173 206 255
173 206 255
173 206 255
174 206 255
174 206 255
174 206 255
174 206 255
174 207 255
174 207 255
174 207 255
174 207 255
174 207 255
174 207 255
174 207 255
175 207 255
175 207 255
175 207 255
175 207 255
175 207 255
175 207 255
175 207 255
175 207 255
175 207 255
175 207 255
175 207 255
176 208 255
176 208 255
176 208 255
176 208 255
176 208 255
176 208 255
176 208 255
176 208 255
176 208 255
176 208 255
176 208 255
176 208 255
177 208 255
177 208 255
177 208 255
177 208 255
177 208 255
177 208 255
177 208 255
177 208 255
177 208 255
177 208 255
177 208 255
177 208 255
177 208 255
177 208 255
177 208 255
177 208 255
176 208 255
176 208 255
176 208 255
176 208 255
176 208 255
176 208 255
176 208 255
176 208 255
176 208 255
176 208 255
176 208 255
176 208 255
175 207 255
175 207 255
175 207 255
175 207 255
175 207 255
175 207 255
175 207 255
175 207 255
175 207 255
175 207 255
175 207 255
175 207 255
174 207 255
174 207 255
174 207 255
174 207 255
174 207 255
174 207 255
174 207 255
174 206 255
174 206 255
174 206 255
174 206 255
173 206 255
173 206 255
173 206 255
173 206 255
173 206 255
173 206 255
173 206 255
173 206 255
173 206 255
173 206 255
172 206 255
172 206 255
172 206 255
172 205 255
172 205 255
172 205 255
172 205 255
172 205 255
172 205 255
172 205 255
171 205 255
171 205 255
171 205 255
171 205 255
171 205 255
171 205 255
171 205 255
171 205 255
171 205 255
171 205 255
170 204 255
170 204 255
170 204 255
170 204 255
170 204 255
170 204 255
170 204 255
170 204 255
170 204 255
169 204 255
169 204 255
169 204 255
169 204 255
169 204 255
169 204 255
169 203 255
169 203 255
169 203 255
168 203 255
168 203 255
168 203 255
168 203 255
168 203 255
168 203 255
168 203 255
168 203 255
168 203 255
168 203 255
167 203 255
167 203 255
167 203 255
167 202 255
167 202 255
167 202 255
167 202 255
167 202 255
167 202 255
166 202 255
166 202 255
166 202 255
166 202 255
166 202 255
166 202 255
166 202 255
166 202 255
166 202 255
166 202 255
165 201 255
165 201 255
165 201 255
165 201 255
165 201 255
165 201 255
165 201 255
165 201 255
165 201 255
165 201 255
164 201 255
164 201 255
164 201 255
164 201 255
164 201 255
164 201 255
164 201 255
164 201 255
164 200 255
164 200 255
164 200 255
163 200 255
163 200 255
163 200 255
163 200 255
163 200 255
163 200 255
163 200 255
163 200 255
163 200 255
163 200 255
163 200 255
163 200 255
163 200 255
162 200 255
162 200 255
162 200 255
162 200 255
162 200 255
162 199 255
162 199 255
162 199 255
162 199 255
162 199 255
162 199 255
162 199 255
162 199 255
162 199 255
162 199 255
162 199 255
161 199 255
161 199 255
161 199 255
161 199 255
161 199 255
161 199 255
161 199 255
161 199 255
161 199 255
161 199 255
161 199 255
161 199 255
161 199 255
161 199 255
161 199 255
161 199 255
161 199 255
161 199 255
161 199 255
161 199 255
161 199 255
161 199 255
161 199 255
161 199 255
161 199 255
161 199 255
161 199 255
161 199 255
161 199 255
161 199 255
161 199 255
161 199 255
161 199 255
161 199 255
161 199 255
161 199 255
161 199 255
161 199 255
161 199 255
161 199 255
161 199 255
161 199 255
161 199 255
161 199 255
161 199 255
161 199 255
161 199 255
161 199 255
161 199 255
161 199 255
161 199 255
161 199 255
161 199 255
161 199 255
161 199 255
161 199 255
161 199 255
161 199 255
161 199 255
161 199 255
162 199 255
162 199 255
162 199 255
162 199 255
162 199 255
162 199 255
162 199 255
162 199 255
162 199 255
162 199 255
162 199 255
162 200 255
162 200 255
162 200 255
162 200 255
162 200 255
163 200 255
163 200 255
163 200 255
163 200 255
163 200 255
163 200 255
163 200 255
163 200 255
163 200 255
163 200 255
163 200 255
163 200 255
163 200 255
164 200 255
164 200 255
164 200 255
164 201 255
164 201 255
164 201 255
164 201 255
164 201 255
164 201 255
164 201 255
164 201 255
165 201 255
165 201 255
165 201 255
165 201 255
165 201 255
165 201 255
165 201 255
165 201 255
165 201 255
165 201 255
166 202 255
166 202 255
166 202 255
166 202 255
166 202 255
166 202 255
166 202 255
166 202 255
166 202 255
166 202 255
167 202 255
167 202 255
167 202 255
167 202 255
167 202 255
167 202 255
167 203 255
167 203 255
167 203 255
168 203 255
168 203 255
168 203 255
168 203 255
168 203 255
168 203 255
168 203 255
168 203 255
168 203 255
168 203 255
169 203 255
169 203 255
169 203 255
169 204 255
169 204 255
169 204 255
169 204 255
169 204 255
169 204 255
170 204 255
170 204 255
170 204 255
170 204 255
170 204 255
170 204 255
170 204 255
170 204 255
170 204 255
171 205 255
171 205 255
171 205 255
171 205 255
171 205 255
171 205 255
171 205 255
171 205 255
171 205 255
171 205 255
172 205 255
172 205 255
172 205 255
172 205 255
172 205 255
172 205 255
172 205 255
172 206 255
172 206 255
172 206 255
173 206 255
173 206 255
173 206 255
173 206 255
173 206 255
173 206 255
173 206 255
173 206 255
173 206 255
173 206 255
174 206 255
174 206 255
174 206 255
174 206 255
174 207 255
174 207 255
174 207 255
174 207 255
174 207 255
174 207 255
174 207 255
175 207 255
175 207 255
175 207 255
175 207 255
175 207 255
175 207 255
175 207 255
175 207 255
175 207 255
175 207 255
175 207 255
175 207 255
176 208 255
176 208 255
176 208 255
176 208 255
176 208 255
176 208 255
176 208 255
176 208 255
176 208 255
176 208 255
176 208 255
176 208 255
177 208 255
177 208 255
177 208 255
177 208 255
177 208 255
177 208 255
177 208 255
177 208 255
177 209 255
177 208 255
177 208 255
177 208 255
177 208 255
177 208 255
177 208 255
177 208 255
177 208 255
176 208 255
176 208 255
176 208 255
176 208 255
176 208 255
176 208 255
176 208 255
176 208 255
176 208 255
176 208 255
176 208 255
176 208 255
175 207 255
175 207 255
175 207 255
175 207 255
175 207 255
175 207 255
175 207 255
175 207 255
175 207 255
175 207 255
175 207 255
174 207 255
174 207 255
174 207 255
174 207 255
174 207 255
174 207 255
174 207 255
174 207 255
174 206 255
174 206 255
174 206 255
173 206 255
173 206 255
173 206 255
173 206 255
173 206 255
173 206 255
173 206 255
173 206 255
173 206 255
173 206 255
172 206 255
172 206 255
172 206 255
172 206 255
172 205 255
172 205 255
172 205 255
172 205 255
172 205 255
172 205 255
171 205 255
171 205 255
171 205 255
171 205 255
171 205 255
171 205 255
171 205 255
171 205 255
171 205 255
171 205 255
170 204 255
170 204 255
170 204 255
170 204 255
170 204 255
170 204 255
170 204 255
170 204 255
170 204 255
169 204 255
169 204 255
169 204 255
169 204 255
169 204 255
169 204 255
169 203 255
169 203 255
169 203 255
169 203 255
168 203 255
168 203 255
168 203 255
168 203 255
168 203 255
168 203 255
168 203 255
168 203 255
168 203 255
167 203 255
167 203 255
167 203 255
167 202 255
167 202 255
167 202 255
167 202 255
167 202 255
167 202 255
166 202 255
166 202 255
166 202 255
166 202 255
166 202 255
166 202 255
166 202 255
166 202 255
166 202 255
166 202 255
165 201 255
165 201 255
165 201 255
165 201 255
165 201 255
165 201 255
165 201 255
165 201 255
165 201 255
165 201 255
164 201 255
164 201 255
164 201 255
164 201 255
164 201 255
164 201 255
164 201 255
164 200 255
164 200 255
164 200 255
164 200 255
163 200 255
163 200 255
163 200 255
163 200 255
163 200 255
163 200 255
163 200 255
163 200 255
163 200 255
163 200 255
163 200 255
163 200 255
162 200 255
162 200 255
162 200 255
162 200 255
162 200 255
162 199 255
162 199 255
162 199 255
162 199 255
162 199 255
162 199 255
162 199 255
162 199 255
162 199 255
162 199 255
162 199 255
161 199 255
161 199 255
161 199 255
161 199 255
161 199 255
161 199 255
161 199 255
161 199 255
161 199 255
161 199 255
161 199 255
161 199 255
161 199 255
161 199 255
161 199 255
161 199 255
161 199 255
161 199 255
161 199 255
161 199 255
161 199 255
161 199 255
161 199 255
161 199 255
161 199 255
161 199 255
161 199 255
161 199 255
161 199 255
161 199 255
161 199 255
161 199 255
161 199 255
161 199 255
161 199 255
161 199 255
161 199 255
161 199 255
161 199 255
161 199 255
161 199 255
161 199 255
161 199 255
161 199 255
161 199 255
161 199 255
161 199 255
161 199 255
161 199 255
161 199 255
161 199 255
161 199 255
161 199 255
161 199 255
161 199 255
161 199 255
161 199 255
161 199 255
161 199 255
161 199 255
161 199 255
161 199 255
162 199 255
162 199 255
162 199 255
162 199 255
162 199 255
162 199 255
162 199 255
162 199 255
162 199 255
162 199 255
162 199 255
162 200 255
162 200 255
162 200 255
162 200 255
162 200 255
163 200 255
163 200 255
163 200 255
163 200 255
163 200 255
163 200 255
163 200 255
163 200 255
163 200 255
163 200 255
163 200 255
163 200 255
164 200 255
164 200 255
164 200 255
164 200 255
164 201 255
164 201 255
164 201 255
164 201 255
164 201 255
164 201 255
164 201 255
165 201 255
165 201 255
165 201 255
165 201 255
165 201 255
165 201 255
165 201 255
165 201 255
165 201 255
165 201 255
166 202 255
166 202 255
166 202 255
166 202 255
166 202 255
166 202 255
166 202 255
166 202 255
166 202 255
166 202 255
167 202 255
167 202 255
167 202 255
167 202 255
167 202 255
167 202 255
167 203 255
167 203 255
167 203 255
168 203 255
168 203 255
168 203 255
168 203 255
168 203 255
168 203 255
168 203 255
168 203 255
168 203 255
169 203 255
169 203 255
169 203 255
169 203 255
169 204 255
169 204 255
169 204 255
169 204 255
169 204 255
169 204 255
170 204 255
170 204 255
170 204 255
170 204 255
170 204 255
170 204 255
170 204 255
170 204 255
170 204 255
171 205 255
171 205 255
171 205 255
171 205 255
171 205 255
171 205 255
171 205 255
171 205 255
171 205 255
171 205 255
172 205 255
172 205 255
172 205 255
172 205 255
172 205 255
172 205 255
172 206 255
172 206 255
172 206 255
172 206 255
173 206 255
173 206 255
173 206 255
173 206 255
173 206 255
173 206 255
173 206 255
173 206 255
173 206 255
173 206 255
174 206 255
174 206 255
174 206 255
174 207 255
174 207 255
174 207 255
174 207 255
174 207 255
174 207 255
174 207 255
175 207 255
175 207 255
175 207 255
175 207 255
175 207 255
175 207 255
175 207 255
175 207 255
175 207 255
175 207 255
175 207 255
175 207 255
176 208 255
176 208 255
176 208 255
176 208 255
176 208 255
176 208 255
176 208 255
176 208 255
176 208 255
176 208 255
176 208 255
176 208 255
177 208 255
177 208 255
177 208 255
177 208 255
177 208 255
177 208 255
177 208 255
177 208 255
177 209 255
177 209 255
177 209 255
177 208 255
177 208 255
177 208 255
177 208 255
177 208 255
177 208 255
177 208 255
177 208 255
176 208 255
176 208 255
176 208 255
176 208 255
176 208 255
176 208 255
176 208 255
176 208 255
176 208 255
176 208 255
176 208 255
176 208 255
175 207 255
175 207 255
175 207 255
175 207 255
175 207 255
175 207 255
175 207 255
175 207 255
175 207 255
175 207 255
175 207 255
174 207 255
174 207 255
174 207 255
174 207 255
174 207 255
174 207 255
174 207 255
174 206 255
174 206 255
174 206 255
174 206 255
173 206 255
173 206 255
173 206 255
173 206 255
173 206 255
173 206 255
173 206 255
173 206 255
173 206 255
173 206 255
172 206 255
172 206 255
172 206 255
172 205 255
172 205 255
172 205 255
172 205 255
172 205 255
172 205 255
172 205 255
171 205 255
171 205 255
171 205 255
171 205 255
171 205 255
171 205 255
171 205 255
171 205 255
171 205 255
170 204 255
170 204 255
170 204 255
170 204 255
170 204 255
170 204 255
170 204 255
170 204 255
170 204 255
170 204 255
169 204 255
169 204 255
169 204 255
169 204 255
169 204 255
169 204 255
169 203 255
169 203 255
169 203 255
168 203 255
168 203 255
168 203 255
168 203 255
168 203 255
168 203 255
168 203 255
168 203 255
168 203 255
167 203 255
167 203 255
167 203 255
167 202 255
167 202 255
167 202 255
167 202 255
167 202 255
167 202 255
166 202 255
166 202 255
166 202 255
166 202 255
166 202 255
166 202 255
166 202 255
166 202 255
166 202 255
166 202 255
165 201 255
165 201 255
165 201 255
165 201 255
165 201 255
165 201 255
165 201 255
165 201 255
165 201 255
165 201 255
164 201 255
164 201 255
164 201 255
164 201 255
164 201 255
164 201 255
164 201 255
164 200 255
164 200 255
164 200 255
163 200 255
163 200 255
163 200 255
163 200 255
163 200 255
163 200 255
163 200 255
163 200 255
163 200 255
163 200 255
163 200 255
163 200 255
162 200 255
162 200 255
162 200 255
162 200 255
162 200 255
162 199 255
162 199 255
162 199 255
162 199 255
162 199 255
162 199 255
162 199 255
162 199 255
162 199 255
162 199 255
161 199 255
161 199 255
161 199 255
161 199 255
161 199 255
161 199 255
161 199 255
161 199 255
161 199 255
161 199 255
161 199 255
161 199 255
161 199 255
161 199 255
161 199 255
161 199 255
161 199 255
161 199 255
161 199 255
161 199 255
161 199 255
161 199 255
161 199 255
161 199 255
161 199 255
161 199 255
161 199 255
161 199 255
161 199 255
161 199 255
161 199 255
161 199 255
161 199 255
161 199 255
161 199 255
161 199 255
161 199 255
161 199 255
161 199 255
161 199 255
161 199 255
161 199 255
161 199 255
161 199 255
161 199 255
161 199 255
161 199 255
161 199 255
161 199 255
161 199 255
161 199 255
161 199 255
161 199 255
161 199 255
161 199 255
161 199 255
161 199 255
161 199 255
161 199 255
161 199 255
161 199 255
161 199 255
161 199 255
161 199 255
161 199 255
161 199 255
162 199 255
162 199 255
162 199 255
162 199 255
162 199 255
162 199 255
162 199 255
162 199 255
162 199 255
162 199 255
162 200 255
162 200 255
162 200 255
162 200 255
162 200 255
163 200 255
163 200 255
163 200 255
163 200 255
163 200 255
163 200 255
163 200 255
163 200 255
163 200 255
163 200 255
163 200 255
163 200 255
164 200 255
164 200 255
164 200 255
164 200 255
164 201 255
164 201 255
164 201 255
164 201 255
164 201 255
164 201 255
164 201 255
165 201 255
165 201 255
165 201 255
165 201 255
165 201 255
165 201 255
165 201 255
165 201 255
165 201 255
166 202 255
166 202 255
166 202 255
166 202 255
166 202 255
166 202 255
166 202 255
166 202 255
166 202 255
166 202 255
167 202 255
167 202 255
167 202 255
167 202 255
167 202 255
167 202 255
167 203 255
167 203 255
167 203 255
168 203 255
168 203 255
168 203 255
168 203 255
168 203 255
168 203 255
168 203 255
168 203 255
168 203 255
169 203 255
169 203 255
169 203 255
169 204 255
169 204 255
169 204 255
169 204 255
169 204 255
169 204 255
170 204 255
170 204 255
170 204 255
170 204 255
170 204 255
170 204 255
170 204 255
170 204 255
170 204 255
170 204 255
171 205 255
171 205 255
171 205 255
171 205 255
171 205 255
171 205 255
171 205 255
171 205 255
171 205 255
172 205 255
172 205 255
172 205 255
172 205 255
172 205 255
172 205 255
172 205 255
172 206 255
172 206 255
172 206 255
173 206 255
173 206 255
173 206 255
173 206 255
173 206 255
173 206 255
173 206 255
173 206 255
173 206 255
173 206 255
174 206 255
174 206 255
174 206 255
174 206 255
174 207 255
174 207 255
174 207 255
174 207 255
174 207 255
174 207 255
174 207 255
175 207 255
175 207 255
175 207 255
175 207 255
175 207 255
175 207 255
175 207 255
175 207 255
175 207 255
175 207 255
175 207 255
176 208 255
176 208 255
176 208 255
176 208 255
176 208 255
176 208 255
176 208 255
176 208 255
176 208 255
176 208 255
176 208 255
176 208 255
177 208 255
177 208 255
177 208 255
177 208 255
177 208 255
177 208 255
177 208 255
177 208 255
177 209 255
177 209 255
177 209 255
177 209 255
177 209 255
177 208 255
177 208 255
177 208 255
177 208 255
177 208 255
177 208 255
177 208 255
177 208 255
176 208 255
176 208 255
176 208 255
176 208 255
176 208 255
176 208 255
176 208 255
176 208 255
176 208 255
176 208 255
176 208 255
176 208 255
175 207 255
175 207 255
175 207 255
175 207 255
175 207 255
175 207 255
175 207 255
175 207 255
175 207 255
175 207 255
175 207 255
174 207 255
174 207 255
174 207 255
174 207 255
174 207 255
174 207 255
174 207 255
174 206 255
174 206 255
174 206 255
173 206 255
173 206 255
173 206 255
173 206 255
173 206 255
173 206 255
173 206 255
173 206 255
173 206 255
173 206 255
173 206 255
172 206 255
172 206 255
172 206 255
172 205 255
172 205 255
172 205 255
172 205 255
172 205 255
172 205 255
171 205 255
171 205 255
171 205 255
171 205 255
171 205 255
171 205 255
171 205 255
171 205 255
171 205 255
171 205 255
170 204 255
170 204 255
170 204 255
170 204 255
170 204 255
170 204 255
170 204 255
170 204 255
170 204 255
169 204 255
169 204 255
169 204 255
169 204 255
169 204 255
169 204 255
169 203 255
169 203 255
169 203 255
168 203 255
168 203 255
168 203 255
168 203 255
168 203 255
168 203 255
168 203 255
168 203 255
168 203 255
167 203 255
167 203 255
167 203 255
167 202 255
167 202 255
167 202 255
167 202 255
167 202 255
167 202 255
166 202 255
166 202 255
166 202 255
166 202 255
166 202 255
166 202 255
166 202 255
166 202 255
166 202 255
165 201 255
165 201 255
165 201 255
165 201 255
165 201 255
165 201 255
165 201 255
165 201 255
165 201 255
165 201 255
164 201 255
164 201 255
164 201 255
164 201 255
164 201 255
164 201 255
164 201 255
164 200 255
164 200 255
164 200 255
164 200 255
163 200 255
163 200 255
163 200 255
163 200 255
163 200 255
163 200 255
163 200 255
163 200 255
163 200 255
163 200 255
163 200 255
162 200 255
162 200 255
162 200 255
162 200 255
162 200 255
162 199 255
162 199 255
162 199 255
162 199 255
162 199 255
162 199 255
162 199 255
162 199 255
162 199 255
162 199 255
161 199 255
161 199 255
161 199 255
161 199 255
161 199 255
161 199 255
161 199 255
161 199 255
161 199 255
161 199 255
161 199 255
161 199 255
161 199 255
161 199 255
161 199 255
161 199 255
161 199 255
161 199 255
161 199 255
161 199 255
161 199 255
161 199 255
161 199 255
161 199 255
161 199 255
161 199 255
161 199 255
160 198 255
160 198 255
160 198 255
160 198 255
160 198 255
160 198 255
160 198 255
160 198 255
160 198 255
160 198 255
160 198 255
160 198 255
160 198 255
160 198 255
160 198 255
161 199 255
161 199 255
161 199 255
161 199 255
161 199 255
161 199 255
161 199 255
161 199 255
161 199 255
161 199 255
161 199 255
161 199 255
161 199 255
161 199 255
161 199 255
161 199 255
161 199 255
161 199 255
161 199 255
161 199 255
161 199 255
161 199 255
161 199 255
161 199 255
161 199 255
161 199 255
162 199 255
162 199 255
162 199 255
162 199 255
162 199 255
162 199 255
162 199 255
162 199 255
162 199 255
162 199 255
162 200 255
162 200 255
162 200 255
162 200 255
162 200 255
163 200 255
163 200 255
163 200 255
163 200 255
163 200 255
163 200 255
163 200 255
163 200 255
163 200 255
163 200 255
163 200 255
164 200 255
164 200 255
164 200 255
164 200 255
164 201 255
164 201 255
164 201 255
164 201 255
164 201 255
164 201 255
164 201 255
165 201 255
165 201 255
165 201 255
165 201 255
165 201 255
165 201 255
165 201 255
165 201 255
165 201 255
165 201 255
166 202 255
166 202 255
166 202 255
166 202 255
166 202 255
166 202 255
166 202 255
166 202 255
166 202 255
167 202 255
167 202 255
167 202 255
167 202 255
167 202 255
167 202 255
167 203 255
167 203 255
167 203 255
168 203 255
168 203 255
168 203 255
168 203 255
168 203 255
168 203 255
168 203 255
168 203 255
168 203 255
169 203 255
169 203 255
169 203 255
169 204 255
169 204 255
169 204 255
169 204 255
169 204 255
169 204 255
170 204 255
170 204 255
170 204 255
170 204 255
170 204 255
170 204 255
170 204 255
170 204 255
170 204 255
171 205 255
171 205 255
171 205 255
171 205 255
171 205 255
171 205 255
171 205 255
171 205 255
171 205 255
171 205 255
172 205 255
172 205 255
172 205 255
172 205 255
172 205 255
172 205 255
172 206 255
172 206 255
172 206 255
172 206 255
173 206 255
173 206 255
173 206 255
173 206 255
173 206 255
173 206 255
173 206 255
173 206 255
173 206 255
173 206 255
174 206 255
174 206 255
174 206 255
174 207 255
174 207 255
174 207 255
174 207 255
174 207 255
174 207 255
174 207 255
175 207 255
175 207 255
175 207 255
175 207 255
175 207 255
175 207 255
175 207 255
175 207 255
175 207 255
175 207 255
175 207 255
176 208 255
176 208 255
176 208 255
176 208 255
176 208 255
176 208 255
176 208 255
176 208 255
176 208 255
176 208 255
176 208 255
176 208 255
177 208 255
177 208 255
177 208 255
177 208 255
177 208 255
177 208 255
177 208 255
177 208 255
177 209 255
177 209 255
177 209 255
177 209 255
177 209 255
177 209 255
177 209 255
177 208 255
177 208 255
177 208 255
177 208 255
177 208 255
177 208 255
177 208 255
177 208 255
176 208 255
176 208 255
176 208 255
176 208 255
176 208 255
176 208 255
176 208 255
176 208 255
176 208 255
176 208 255
176 208 255
176 208 255
175 207 255
175 207 255
175 207 255
175 207 255
175 207 255
175 207 255
175 207 255
175 207 255
175 207 255
175 207 255
175 207 255
174 207 255
174 207 255
174 207 255
174 207 255
174 207 255
174 207 255
174 207 255
174 206 255
174 206 255
174 206 255
173 206 255
173 206 255
173 206 255
173 206 255
173 206 255
173 206 255
173 206 255
173 206 255
173 206 255
173 206 255
172 206 255
172 206 255
172 206 255
172 205 255
172 205 255
172 205 255
172 205 255
172 205 255
172 205 255
172 205 255
171 205 255
171 205 255
171 205 255
171 205 255
171 205 255
171 205 255
171 205 255
171 205 255
171 205 255
170 204 255
170 204 255
170 204 255
170 204 255
170 204 255
170 204 255
170 204 255
170 204 255
170 204 255
169 204 255
169 204 255
169 204 255
169 204 255
169 204 255
169 204 255
169 203 255
169 203 255
169 203 255
168 203 255
168 203 255
168 203 255
168 203 255
168 203 255
168 203 255
168 203 255
168 203 255
168 203 255
167 203 255
167 203 255
167 203 255
167 202 255
167 202 255
167 202 255
167 202 255
167 202 255
167 202 255
166 202 255
166 202 255
166 202 255
166 202 255
166 202 255
166 202 255
166 202 255
166 202 255
166 202 255
165 201 255
165 201 255
165 201 255
165 201 255
165 201 255
165 201 255
165 201 255
165 201 255
165 201 255
165 201 255
164 201 255
164 201 255
164 201 255
164 201 255
164 201 255
164 201 255
164 201 255
164 200 255
164 200 255
164 200 255
163 200 255
163 200 255
163 200 255
163 200 255
163 200 255
163 200 255
163 200 255
163 200 255
163 200 255
163 200 255
163 200 255
163 200 255
162 200 255
162 200 255
162 200 255
162 200 255
162 199 255
162 199 255
162 199 255
162 199 255
162 199 255
162 199 255
162 199 255
162 199 255
162 199 255
162 199 255
161 199 255
161 199 255
161 199 255
161 199 255
161 199 255
161 199 255
161 199 255
161 199 255
161 199 255
161 199 255
161 199 255
161 199 255
161 199 255
161 199 255
161 199 255
161 199 255
161 199 255
161 199 255
161 199 255
161 199 255
161 199 255
161 199 255
161 199 255
160 198 255
160 198 255
160 198 255
160 198 255
160 198 255
160 198 255
160 198 255
160 198 255
160 198 255
160 198 255
160 198 255
160 198 255
160 198 255
160 198 255
160 198 255
160 198 255
160 198 255
160 198 255
160 198 255
160 198 255
160 198 255
160 198 255
160 198 255
160 198 255
161 199 255
161 199 255
161 199 255
161 199 255
161 199 255
161 199 255
161 199 255
161 199 255
161 199 255
161 199 255
161 199 255
161 199 255
161 199 255
161 199 255
161 199 255
161 199 255
161 199 255
161 199 255
161 199 255
161 199 255
161 199 255
161 199 255
161 199 255
162 199 255
162 199 255
162 199 255
162 199 255
162 199 255
162 199 255
162 199 255
162 199 255
162 199 255
162 199 255
162 200 255
162 200 255
162 200 255
162 200 255
163 200 255
163 200 255
163 200 255
163 200 255
163 200 255
163 200 255
163 200 255
163 200 255
163 200 255
163 200 255
163 200 255
163 200 255
164 200 255
164 200 255
164 200 255
164 201 255
164 201 255
164 201 255
164 201 255
164 201 255
164 201 255
164 201 255
165 201 255
165 201 255
165 201 255
165 201 255
165 201 255
165 201 255
165 201 255
165 201 255
165 201 255
165 201 255
166 202 255
166 202 255
166 202 255
166 202 255
166 202 255
166 202 255
166 202 255
166 202 255
166 202 255
167 202 255
167 202 255
167 202 255
167 202 255
167 202 255
167 202 255
167 203 255
167 203 255
167 203 255
168 203 255
168 203 255
168 203 255
168 203 255
168 203 255
168 203 255
168 203 255
168 203 255
168 203 255
169 203 255
169 203 255
169 203 255
169 204 255
169 204 255
169 204 255
169 204 255
169 204 255
169 204 255
170 204 255
170 204 255
170 204 255
170 204 255
170 204 255
170 204 255
170 204 255
170 204 255
170 204 255
171 205 255
171 205 255
171 205 255
171 205 255
171 205 255
171 205 255
171 205 255
171 205 255
171 205 255
172 205 255
172 205 255
172 205 255
172 205 255
172 205 255
172 205 255
172 205 255
172 206 255
172 206 255
172 206 255
173 206 255
173 206 255
173 206 255
173 206 255
173 206 255
173 206 255
173 206 255
173 206 255
173 206 255
173 206 255
174 206 255
174 206 255
174 206 255
174 207 255
174 207 255
174 207 255
174 207 255
174 207 255
174 207 255
174 207 255
175 207 255
175 207 255
175 207 255
175 207 255
175 207 255
175 207 255
175 207 255
175 207 255
175 207 255
175 207 255
175 207 255
176 208 255
176 208 255
176 208 255
176 208 255
176 208 255
176 208 255
176 208 255
176 208 255
176 208 255
176 208 255
176 208 255
176 208 255
177 208 255
177 208 255
177 208 255
177 208 255
177 208 255
177 208 255
177 208 255
177 208 255
177 209 255
177 209 255
177 209 255
177 209 255
177 209 255
177 209 255
177 209 255
177 209 255
177 209 255
177 208 255
177 208 255
177 208 255
177 208 255
177 208 255
177 208 255
177 208 255
177 208 255
176 208 255
176 208 255
176 208 255
176 208 255
176 208 255
176 208 255
176 208 255
176 208 255
176 208 255
176 208 255
176 208 255
175 207 255
175 207 255
175 207 255
175 207 255
175 207 255
175 207 255
175 207 255
175 207 255
175 207 255
175 207 255
175 207 255
174 207 255
174 207 255
174 207 255
174 207 255
174 207 255
174 207 255
174 207 255
174 206 255
174 206 255
174 206 255
174 206 255
173 206 255
173 206 255
173 206 255
173 206 255
173 206 255
173 206 255
173 206 255
173 206 255
173 206 255
173 206 255
172 206 255
172 206 255
172 206 255
172 205 255
172 205 255
172 205 255
172 205 255
172 205 255
172 205 255
171 205 255
171 205 255
171 205 255
171 205 255
171 205 255
171 205 255
171 205 255
171 205 255
171 205 255
170 204 255
170 204 255
170 204 255
170 204 255
170 204 255
170 204 255
170 204 255
170 204 255
170 204 255
169 204 255
169 204 255
169 204 255
169 204 255
169 204 255
169 204 255
169 203 255
169 203 255
169 203 255
168 203 255
168 203 255
168 203 255
168 203 255
168 203 255
168 203 255
168 203 255
168 203 255
168 203 255
167 203 255
167 203 255
167 203 255
167 202 255
167 202 255
167 202 255
167 202 255
167 202 255
167 202 255
166 202 255
166 202 255
166 202 255
166 202 255
166 202 255
166 202 255
166 202 255
166 202 255
166 202 255
165 201 255
165 201 255
165 201 255
165 201 255
165 201 255
165 201 255
165 201 255
165 201 255
165 201 255
165 201 255
164 201 255
164 201 255
164 201 255
164 201 255
164 201 255
164 201 255
164 200 255
164 200 255
164 200 255
164 200 255
163 200 255
163 200 255
163 200 255
163 200 255
163 200 255
163 200 255
163 200 255
163 200 255
163 200 255
163 200 255
163 200 255
162 200 255
162 200 255
162 200 255
162 200 255
162 199 255
162 199 255
162 199 255
162 199 255
162 199 255
162 199 255
162 199 255
162 199 255
162 199 255
162 199 255
161 199 255
161 199 255
161 199 255
161 199 255
161 199 255
161 199 255
161 199 255
161 199 255
161 199 255
161 199 255
161 199 255
161 199 255
161 199 255
161 199 255
161 199 255
161 199 255
161 199 255
161 199 255
161 199 255
161 199 255
161 199 255
160 198 255
160 198 255
160 198 255
160 198 255
160 198 255
160 198 255
160 198 255
160 198 255
160 198 255
160 198 255
160 198 255
160 198 255
160 198 255
160 198 255
160 198 255
160 198 255
160 198 255
160 198 255
160 198 255
160 198 255
160 198 255
160 198 255
160 198 255
160 198 255
160 198 255
160 198 255
160 198 255
160 198 255
160 198 255
160 198 255
161 199 255
161 199 255
161 199 255
161 199 255
161 199 255
161 199 255
161 199 255
161 199 255
161 199 255
161 199 255
161 199 255
161 199 255
161 199 255
161 199 255
161 199 255
161 199 255
161 199 255
161 199 255
161 199 255
161 199 255
161 199 255
162 199 255
162 199 255
162 199 255
162 199 255
162 199 255
162 199 255
162 199 255
162 199 255
162 199 255
162 199 255
162 200 255
162 200 255
162 200 255
162 200 255
163 200 255
163 200 255
163 200 255
163 200 255
163 200 255
163 200 255
163 200 255
163 200 255
163 200 255
163 200 255
163 200 255
164 200 255
164 200 255
164 200 255
164 200 255
164 201 255
164 201 255
164 201 255
164 201 255
164 201 255
164 201 255
165 201 255
165 201 255
165 201 255
165 201 255
165 201 255
165 201 255
165 201 255
165 201 255
165 201 255
165 201 255
166 202 255
166 202 255
166 202 255
166 202 255
166 202 255
166 202 255
166 202 255
166 202 255
166 202 255
167 202 255
167 202 255
167 202 255
167 202 255
167 202 255
167 202 255
167 203 255
167 203 255
167 203 255
168 203 255
168 203 255
168 203 255
168 203 255
168 203 255
168 203 255
168 203 255
168 203 255
168 203 255
169 203 255
169 203 255
169 203 255
169 204 255
169 204 255
169 204 255
169 204 255
169 204 255
169 204 255
170 204 255
170 204 255
170 204 255
170 204 255
170 204 255
170 204 255
170 204 255
170 204 255
170 204 255
171 205 255
171 205 255
171 205 255
171 205 255
171 205 255
171 205 255
171 205 255
171 205 255
171 205 255
172 205 255
172 205 255
172 205 255
172 205 255
172 205 255
172 205 255
172 206 255
172 206 255
172 206 255
173 206 255
173 206 255
173 206 255
173 206 255
173 206 255
173 206 255
173 206 255
173 206 255
173 206 255
173 206 255
174 206 255
174 206 255
174 206 255
174 206 255
174 207 255
174 207 255
174 207 255
174 207 255
174 207 255
174 207 255
174 207 255
175 207 255
175 207 255
175 207 255
175 207 255
175 207 255
175 207 255
175 207 255
175 207 255
175 207 255
175 207 255
175 207 255
176 208 255
176 208 255
176 208 255
176 208 255
176 208 255
176 208 255
176 208 255
176 208 255
176 208 255
176 208 255
176 208 255
177 208 255
177 208 255
177 208 255
177 208 255
177 208 255
177 208 255
177 208 255
177 208 255
177 209 255
177 209 255
177 209 255
177 209 255
177 209 255
178 209 255
178 209 255
177 209 255
177 209 255
177 209 255
177 209 255
177 208 255
177 208 255
177 208 255
177 208 255
177 208 255
177 208 255
177 208 255
177 208 255
176 208 255
176 208 255
176 208 255
176 208 255
176 208 255
176 208 255
176 208 255
176 208 255
176 208 255
176 208 255
176 208 255
175 207 255
175 207 255
175 207 255
175 207 255
175 207 255
175 207 255
175 207 255
175 207 255
175 207 255
175 207 255
175 207 255
174 207 255
174 207 255
174 207 255
174 207 255
174 207 255
174 207 255
174 207 255
174 206 255
174 206 255
174 206 255
173 206 255
173 206 255
173 206 255
173 206 255
173 206 255
173 206 255
173 206 255
173 206 255
173 206 255
173 206 255
172 206 255
172 206 255
172 206 255
172 205 255
172 205 255
172 205 255
172 205 255
172 205 255
172 205 255
172 205 255
171 205 255
171 205 255
171 205 255
171 205 255
171 205 255
171 205 255
171 205 255
171 205 255
171 205 255
170 204 255
170 204 255
170 204 255
170 204 255
170 204 255
170 204 255
170 204 255
170 204 255
170 204 255
169 204 255
169 204 255
169 204 255
169 204 255
169 204 255
169 204 255
169 203 255
169 203 255
169 203 255
168 203 255
168 203 255
168 203 255
168 203 255
168 203 255
168 203 255
168 203 255
168 203 255
167 203 255
167 203 255
167 203 255
167 202 255
167 202 255
167 202 255
167 202 255
167 202 255
167 202 255
166 202 255
166 202 255
166 202 255
166 202 255
166 202 255
166 202 255
166 202 255
166 202 255
166 202 255
165 201 255
165 201 255
165 201 255
165 201 255
165 201 255
165 201 255
165 201 255
165 201 255
165 201 255
165 201 255
164 201 255
164 201 255
164 201 255
164 201 255
164 201 255
164 201 255
164 200 255
164 200 255
164 200 255
164 200 255
163 200 255
163 200 255
163 200 255
163 200 255
163 200 255
163 200 255
163 200 255
163 200 255
163 200 255
163 200 255
163 200 255
162 200 255
162 200 255
162 200 255
162 200 255
162 199 255
162 199 255
162 199 255
162 199 255
162 199 255
162 199 255
162 199 255
162 199 255
162 199 255
161 199 255
161 199 255
161 199 255
161 199 255
161 199 255
161 199 255
161 199 255
161 199 255
161 199 255
161 199 255
161 199 255
161 199 255
161 199 255
161 199 255
161 199 255
161 199 255
161 199 255
161 199 255
161 199 255
160 198 255
160 198 255
160 198 255
160 198 255
160 198 255
160 198 255
160 198 255
160 198 255
160 198 255
160 198 255
160 198 255
160 198 255
160 198 255
160 198 255
160 198 255
160 198 255
160 198 255
160 198 255
160 198 255
160 198 255
160 198 255
160 198 255
160 198 255
160 198 255
160 198 255
160 198 255
160 198 255
160 198 255
160 198 255
160 198 255
160 198 255
160 198 255
160 198 255
160 198 255
160 198 255
160 198 255
161 199 255
161 199 255
161 199 255
161 199 255
161 199 255
161 199 255
161 199 255
161 199 255
161 199 255
161 199 255
161 199 255
161 199 255
161 199 255
161 199 255
161 199 255
161 199 255
161 199 255
161 199 255
161 199 255
162 199 255
162 199 255
162 199 255
162 199 255
162 199 255
162 199 255
162 199 255
162 199 255
162 199 255
162 200 255
162 200 255
162 200 255
162 200 255
163 200 255
163 200 255
163 200 255
163 200 255
163 200 255
163 200 255
163 200 255
163 200 255
163 200 255
163 200 255
163 200 255
164 200 255
164 200 255
164 200 255
164 200 255
164 201 255
164 201 255
164 201 255
164 201 255
164 201 255
164 201 255
165 201 255
165 201 255
165 201 255
165 201 255
165 201 255
165 201 255
165 201 255
165 201 255
165 201 255
165 201 255
166 202 255
166 202 255
166 202 255
166 202 255
166 202 255
166 202 255
166 202 255
166 202 255
166 202 255
167 202 255
167 202 255
167 202 255
167 202 255
167 202 255
167 202 255
167 203 255
167 203 255
167 203 255
168 203 255
168 203 255
168 203 255
168 203 255
168 203 255
168 203 255
168 203 255
168 203 255
169 203 255
169 203 255
169 203 255
169 204 255
169 204 255
169 204 255
169 204 255
169 204 255
169 204 255
170 204 255
170 204 255
170 204 255
170 204 255
170 204 255
170 204 255
170 204 255
170 204 255
170 204 255
171 205 255
171 205 255
171 205 255
171 205 255
171 205 255
171 205 255
171 205 255
171 205 255
171 205 255
172 205 255
172 205 255
172 205 255
172 205 255
172 205 255
172 205 255
172 205 255
172 206 255
172 206 255
172 206 255
173 206 255
173 206 255
173 206 255
173 206 255
173 206 255
173 206 255
173 206 255
173 206 255
173 206 255
173 206 255
174 206 255
174 206 255
174 206 255
174 207 255
174 207 255
174 207 255
174 207 255
174 207 255
174 207 255
174 207 255
175 207 255
175 207 255
175 207 255
175 207 255
175 207 255
175 207 255
175 207 255
175 207 255
175 207 255
175 207 255
175 207 255
176 208 255
176 208 255
176 208 255
176 208 255
176 208 255
176 208 255
176 208 255
176 208 255
176 208 255
176 208 255
176 208 255
177 208 255
177 208 255
177 208 255
177 208 255
177 208 255
177 208 255
177 208 255
177 208 255
177 209 255
177 209 255
177 209 255
177 209 255
177 209 255
178 209 255
178 209 255
178 209 255
178 209 255
177 209 255
177 209 255
177 209 255
177 209 255
177 208 255
177 208 255
177 208 255
177 208 255
177 208 255
177 208 255
177 208 255
177 208 255
176 208 255
176 208 255
176 208 255
176 208 255
176 208 255
176 208 255
176 208 255
176 208 255
176 208 255
176 208 255
176 208 255
175 207 255
175 207 255
175 207 255
175 207 255
175 207 255
175 207 255
175 207 255
175 207 255
175 207 255
175 207 255
175 207 255
174 207 255
174 207 255
174 207 255
174 207 255
174 207 255
174 207 255
174 207 255
174 206 255
174 206 255
174 206 255
173 206 255
173 206 255
173 206 255
173 206 255
173 206 255
173 206 255
173 206 255
173 206 255
173 206 255
173 206 255
172 206 255
172 206 255
172 206 255
172 205 255
172 205 255
172 205 255
172 205 255
172 205 255
172 205 255
171 205 255
171 205 255
171 205 255
171 205 255
171 205 255
171 205 255
171 205 255
171 205 255
171 205 255
170 204 255
170 204 255
170 204 255
170 204 255
170 204 255
170 204 255
170 204 255
170 204 255
170 204 255
169 204 255
169 204 255
169 204 255
169 204 255
169 204 255
169 204 255
169 203 255
169 203 255
169 203 255
168 203 255
168 203 255
168 203 255
168 203 255
168 203 255
168 203 255
168 203 255
168 203 255
168 203 255
167 203 255
167 203 255
167 203 255
167 202 255
167 202 255
167 202 255
167 202 255
167 202 255
166 202 255
166 202 255
166 202 255
166 202 255
166 202 255
166 202 255
166 202 255
166 202 255
166 202 255
165 201 255
165 201 255
165 201 255
165 201 255
165 201 255
165 201 255
165 201 255
165 201 255
165 201 255
165 201 255
164 201 255
164 201 255
164 201 255
164 201 255
164 201 255
164 201 255
164 200 255
164 200 255
164 200 255
163 200 255
163 200 255
163 200 255
163 200 255
163 200 255
163 200 255
163 200 255
163 200 255
163 200 255
163 200 255
163 200 255
162 200 255
162 200 255
162 200 255
162 200 255
162 199 255
162 199 255
162 199 255
162 199 255
162 199 255
162 199 255
162 199 255
162 199 255
162 199 255
161 199 255
161 199 255
161 199 255
161 199 255
161 199 255
161 199 255
161 199 255
161 199 255
161 199 255
161 199 255
161 199 255
161 199 255
161 199 255
161 199 255
161 199 255
161 199 255
161 199 255
161 199 255
160 198 255
160 198 255
160 198 255
160 198 255
160 198 255
160 198 255
160 198 255
160 198 255
160 198 255
160 198 255
160 198 255
160 198 255
160 198 255
160 198 255
160 198 255
160 198 255
160 198 255
160 198 255
160 198 255
160 198 255
160 198 255
160 198 255
160 198 255
160 198 255
160 198 255
160 198 255
160 198 255
160 198 255
160 198 255
160 198 255
160 198 255
160 198 255
160 198 255
160 198 255
160 198 255
160 198 255
160 198 255
160 198 255
160 198 255
160 198 255
161 199 255
161 199 255
161 199 255
161 199 255
161 199 255
161 199 255
161 199 255
161 199 255
161 199 255
161 199 255
161 199 255
161 199 255
161 199 255
161 199 255
161 199 255
161 199 255
161 199 255
161 199 255
162 199 255
162 199 255
162 199 255
162 199 255
162 199 255
162 199 255
162 199 255
162 199 255
162 199 255
162 200 255
162 200 255
162 200 255
162 200 255
163 200 255
163 200 255
163 200 255
163 200 255
163 200 255
163 200 255
163 200 255
163 200 255
163 200 255
163 200 255
163 200 255
164 200 255
164 200 255
164 200 255
164 201 255
164 201 255
164 201 255
164 201 255
164 201 255
164 201 255
165 201 255
165 201 255
165 201 255
165 201 255
165 201 255
165 201 255
165 201 255
165 201 255
165 201 255
165 201 255
166 202 255
166 202 255
166 202 255
166 202 255
166 202 255
166 202 255
166 202 255
166 202 255
166 202 255
167 202 255
167 202 255
167 202 255
167 202 255
167 202 255
167 203 255
167 203 255
167 203 255
168 203 255
168 203 255
168 203 255
168 203 255
168 203 255
168 203 255
168 203 255
168 203 255
168 203 255
169 203 255
169 203 255
169 203 255
169 204 255
169 204 255
169 204 255
169 204 255
169 204 255
169 204 255
170 204 255
170 204 255
170 204 255
170 204 255
170 204 255
170 204 255
170 204 255
170 204 255
170 204 255
171 205 255
171 205 255
171 205 255
171 205 255
171 205 255
171 205 255
171 205 255
171 205 255
171 205 255
172 205 255
172 205 255
172 205 255
172 205 255
172 205 255
172 205 255
172 206 255
172 206 255
172 206 255
173 206 255
173 206 255
173 206 255
173 206 255
173 206 255
173 206 255
173 206 255
173 206 255
173 206 255
173 206 255
174 206 255
174 206 255
174 206 255
174 207 255
174 207 255
174 207 255
174 207 255
174 207 255
174 207 255
174 207 255
175 207 255
175 207 255
175 207 255
175 207 255
175 207 255
175 207 255
175 207 255
175 207 255
175 207 255
175 207 255
175 207 255
176 208 255
176 208 255
176 208 255
176 208 255
176 208 255
176 208 255
176 208 255
176 208 255
176 208 255
176 208 255
176 208 255
177 208 255
177 208 255
177 208 255
177 208 255
177 208 255
177 208 255
177 208 255
177 208 255
177 209 255
177 209 255
177 209 255
177 209 255
178 209 255
178 209 255
178 209 255
178 209 255
178 209 255
178 209 255
178 209 255
177 209 255
177 209 255
177 209 255
177 209 255
177 208 255
177 208 255
177 208 255
177 208 255
177 208 255
177 208 255
177 208 255
177 208 255
176 208 255
176 208 255
176 208 255
176 208 255
176 208 255
176 208 255
176 208 255
176 208 255
176 208 255
176 208 255
176 208 255
175 207 255
175 207 255
175 207 255
175 207 255
175 207 255
175 207 255
175 207 255
175 207 255
175 207 255
175 207 255
175 207 255
174 207 255
174 207 255
174 207 255
174 207 255
174 207 255
174 207 255
174 207 255
174 206 255
174 206 255
174 206 255
173 206 255
173 206 255
173 206 255
173 206 255
173 206 255
173 206 255
173 206 255
173 206 255
173 206 255
173 206 255
172 206 255
172 206 255
172 206 255
172 205 255
172 205 255
172 205 255
172 205 255
172 205 255
172 205 255
171 205 255
171 205 255
171 205 255
171 205 255
171 205 255
171 205 255
171 205 255
171 205 255
171 205 255
170 204 255
170 204 255
170 204 255
170 204 255
170 204 255
170 204 255
170 204 255
170 204 255
170 204 255
169 204 255
169 204 255
169 204 255
169 204 255
169 204 255
169 203 255
169 203 255
169 203 255
168 203 255
168 203 255
168 203 255
168 203 255
168 203 255
168 203 255
168 203 255
168 203 255
168 203 255
167 203 255
167 203 255
167 203 255
167 202 255
167 202 255
167 202 255
167 202 255
167 202 255
167 202 255
166 202 255
166 202 255
166 202 255
166 202 255
166 202 255
166 202 255
166 202 255
166 202 255
165 201 255
165 201 255
165 201 255
165 201 255
165 201 255
165 201 255
165 201 255
165 201 255
165 201 255
164 201 255
164 201 255
164 201 255
164 201 255
164 201 255
164 201 255
164 201 255
164 200 255
164 200 255
164 200 255
163 200 255
163 200 255
163 200 255
163 200 255
163 200 255
163 200 255
163 200 255
163 200 255
163 200 255
163 200 255
163 200 255
162 200 255
162 200 255
162 200 255
162 200 255
162 199 255
162 199 255
162 199 255
162 199 255
162 199 255
162 199 255
162 199 255
162 199 255
161 199 255
161 199 255
161 199 255
161 199 255
161 199 255
161 199 255
161 199 255
161 199 255
161 199 255
161 199 255
161 199 255
161 199 255
161 199 255
161 199 255
161 199 255
161 199 255
161 199 255
160 198 255
160 198 255
160 198 255
160 198 255
160 198 255
160 198 255
160 198 255
160 198 255
160 198 255
160 198 255
160 198 255
160 198 255
160 198 255
160 198 255
160 198 255
160 198 255
160 198 255
160 198 255
160 198 255
160 198 255
160 198 255
160 198 255
160 198 255
160 198 255
160 198 255
160 198 255
160 198 255
160 198 255
160 198 255
160 198 255
160 198 255
160 198 255
160 198 255
160 198 255
160 198 255
160 198 255
160 198 255
160 198 255
160 198 255
160 198 255
160 198 255
160 198 255
160 198 255
160 198 255
161 199 255
161 199 255
161 199 255
161 199 255
161 199 255
161 199 255
161 199 255
161 199 255
161 199 255
161 199 255
161 199 255
161 199 255
161 199 255
161 199 255
161 199 255
161 199 255
161 199 255
162 199 255
162 199 255
162 199 255
162 199 255
162 199 255
162 199 255
162 199 255
162 199 255
162 200 255
162 200 255
162 200 255
162 200 255
163 200 255
163 200 255
163 200 255
163 200 255
163 200 255
163 200 255
163 200 255
163 200 255
163 200 255
163 200 255
163 200 255
164 200 255
164 200 255
164 200 255
164 201 255
164 201 255
164 201 255
164 201 255
164 201 255
164 201 255
164 201 255
165 201 255
165 201 255
165 201 255
165 201 255
165 201 255
165 201 255
165 201 255
165 201 255
165 201 255
166 202 255
166 202 255
166 202 255
166 202 255
166 202 255
166 202 255
166 202 255
166 202 255
167 202 255
167 202 255
167 202 255
167 202 255
167 202 255
167 202 255
167 203 255
167 203 255
167 203 255
168 203 255
168 203 255
168 203 255
168 203 255
168 203 255
168 203 255
168 203 255
168 203 255
168 203 255
169 203 255
169 203 255
169 203 255
169 204 255
169 204 255
169 204 255
169 204 255
169 204 255
170 204 255
170 204 255
170 204 255
170 204 255
170 204 255
170 204 255
170 204 255
170 204 255
170 204 255
171 205 255
171 205 255
171 205 255
171 205 255
171 205 255
171 205 255
171 205 255
171 205 255
171 205 255
172 205 255
172 205 255
172 205 255
172 205 255
172 205 255
172 205 255
172 206 255
172 206 255
172 206 255
173 206 255
173 206 255
173 206 255
173 206 255
173 206 255
173 206 255
173 206 255
173 206 255
173 206 255
173 206 255
174 206 255
174 206 255
174 206 255
174 207 255
174 207 255
174 207 255
174 207 255
174 207 255
174 207 255
174 207 255
175 207 255
175 207 255
175 207 255
175 207 255
175 207 255
175 207 255
175 207 255
175 207 255
175 207 255
175 207 255
175 207 255
176 208 255
176 208 255
176 208 255
176 208 255
176 208 255
176 208 255
176 208 255
176 208 255
176 208 255
176 208 255
176 208 255
177 208 255
177 208 255
177 208 255
177 208 255
177 208 255
177 208 255
177 208 255
177 208 255
177 209 255
177 209 255
177 209 255
177 209 255
178 209 255
178 209 255
178 209 255
178 209 255
178 209 255
178 209 255
178 209 255
178 209 255
178 209 255
177 209 255
177 209 255
177 209 255
177 209 255
177 208 255
177 208 255
177 208 255
177 208 255
177 208 255
177 208 255
177 208 255
177 208 255
176 208 255
176 208 255
176 208 255
176 208 255
176 208 255
176 208 255
176 208 255
176 208 255
176 208 255
176 208 255
176 208 255
175 207 255
175 207 255
175 207 255
175 207 255
175 207 255
175 207 255
175 207 255
175 207 255
175 207 255
175 207 255
175 207 255
174 207 255
174 207 255
174 207 255
174 207 255
174 207 255
174 207 255
174 206 255
174 206 255
174 206 255
174 206 255
173 206 255
173 206 255
173 206 255
173 206 255
173 206 255
173 206 255
173 206 255
173 206 255
173 206 255
172 206 255
172 206 255
172 206 255
172 205 255
172 205 255
172 205 255
172 205 255
172 205 255
172 205 255
171 205 255
171 205 255
171 205 255
171 205 255
171 205 255
171 205 255
171 205 255
171 205 255
171 205 255
170 204 255
170 204 255
170 204 255
170 204 255
170 204 255
170 204 255
170 204 255
170 204 255
170 204 255
169 204 255
169 204 255
169 204 255
169 204 255
169 204 255
169 204 255
169 203 255
169 203 255
169 203 255
168 203 255
168 203 255
168 203 255
168 203 255
168 203 255
168 203 255
168 203 255
168 203 255
167 203 255
167 203 255
167 203 255
167 202 255
167 202 255
167 202 255
167 202 255
167 202 255
167 202 255
166 202 255
166 202 255
166 202 255
166 202 255
166 202 255
166 202 255
166 202 255
166 202 255
166 202 255
165 201 255
165 201 255
165 201 255
165 201 255
165 201 255
165 201 255
165 201 255
165 201 255
164 201 255
164 201 255
164 201 255
164 201 255
164 201 255
164 201 255
164 201 255
164 200 255
164 200 255
164 200 255
163 200 255
163 200 255
163 200 255
163 200 255
163 200 255
163 200 255
163 200 255
163 200 255
163 200 255
163 200 255
162 200 255
162 200 255
162 200 255
162 200 255
162 199 255
162 199 255
162 199 255
162 199 255
162 199 255
162 199 255
162 199 255
162 199 255
161 199 255
161 199 255
161 199 255
161 199 255
161 199 255
161 199 255
161 199 255
161 199 255
161 199 255
161 199 255
161 199 255
161 199 255
161 199 255
161 199 255
161 199 255
161 199 255
161 199 255
160 198 255
160 198 255
160 198 255
160 198 255
160 198 255
160 198 255
160 198 255
160 198 255
160 198 255
160 198 255
160 198 255
160 198 255
160 198 255
160 198 255
160 198 255
160 198 255
160 198 255
160 198 255
160 198 255
160 198 255
160 198 255
160 198 255
160 198 255
160 198 255
160 198 255
160 198 255
160 198 255
160 198 255
160 198 255
160 198 255
160 198 255
160 198 255
160 198 255
160 198 255
160 198 255
160 198 255
160 198 255
160 198 255
160 198 255
160 198 255
160 198 255
160 198 255
160 198 255
160 198 255
160 198 255
160 198 255
161 199 255
161 199 255
161 199 255
161 199 255
161 199 255
161 199 255
161 199 255
161 199 255
161 199 255
161 199 255
161 199 255
161 199 255
161 199 255
161 199 255
161 199 255
161 199 255
161 199 255
162 199 255
162 199 255
162 199 255
162 199 255
162 199 255
162 199 255
162 199 255
162 199 255
162 200 255
162 200 255
162 200 255
162 200 255
163 200 255
163 200 255
163 200 255
163 200 255
163 200 255
163 200 255
163 200 255
163 200 255
163 200 255
163 200 255
164 200 255
164 200 255
164 200 255
164 201 255
164 201 255
164 201 255
164 201 255
164 201 255
164 201 255
164 201 255
165 201 255
165 201 255
165 201 255
165 201 255
165 201 255
165 201 255
165 201 255
165 201 255
165 201 255
166 202 255
166 202 255
166 202 255
166 202 255
166 202 255
166 202 255
166 202 255
166 202 255
167 202 255
167 202 255
167 202 255
167 202 255
167 202 255
167 202 255
167 203 255
167 203 255
167 203 255
168 203 255
168 203 255
168 203 255
168 203 255
168 203 255
168 203 255
168 203 255
168 203 255
169 203 255
169 203 255
169 203 255
169 204 255
169 204 255
169 204 255
169 204 255
169 204 255
169 204 255
170 204 255
170 204 255
170 204 255
170 204 255
170 204 255
170 204 255
170 204 255
170 204 255
170 204 255
171 205 255
171 205 255
171 205 255
171 205 255
171 205 255
171 205 255
171 205 255
171 205 255
171 205 255
172 205 255
172 205 255
172 205 255
172 205 255
172 205 255
172 205 255
172 206 255
172 206 255
172 206 255
173 206 255
173 206 255
173 206 255
173 206 255
173 206 255
173 206 255
173 206 255
173 206 255
173 206 255
174 206 255
174 206 255
174 206 255
174 206 255
174 207 255
174 207 255
174 207 255
174 207 255
174 207 255
174 207 255
175 207 255
175 207 255
175 207 255
175 207 255
175 207 255
175 207 255
175 207 255
175 207 255
175 207 255
175 207 255
175 207 255
176 208 255
176 208 255
176 208 255
176 208 255
176 208 255
176 208 255
176 208 255
176 208 255
176 208 255
176 208 255
176 208 255
177 208 255
177 208 255
177 208 255
177 208 255
177 208 255
177 208 255
177 208 255
177 208 255
177 209 255
177 209 255
177 209 255
177 209 255
178 209 255
178 209 255
178 209 255
178 209 255
178 209 255
178 209 255
178 209 255
178 209 255
178 209 255
178 209 255
178 209 255
177 209 255
177 209 255
177 209 255
177 209 255
177 208 255
177 208 255
177 208 255
177 208 255
177 208 255
177 208 255
177 208 255
177 208 255
176 208 255
176 208 255
176 208 255
176 208 255
176 208 255
176 208 255
176 208 255
176 208 255
176 208 255
176 208 255
176 208 255
175 207 255
175 207 255
175 207 255
175 207 255
175 207 255
175 207 255
175 207 255
175 207 255
175 207 255
175 207 255
175 207 255
174 207 255
174 207 255
174 207 255
174 207 255
174 207 255
174 207 255
174 206 255
174 206 255
174 206 255
174 206 255
173 206 255
173 206 255
173 206 255
173 206 255
173 206 255
173 206 255
173 206 255
173 206 255
173 206 255
172 206 255
172 206 255
172 206 255
172 205 255
172 205 255
172 205 255
172 205 255
172 205 255
172 205 255
171 205 255
171 205 255
171 205 255
171 205 255
171 205 255
171 205 255
171 205 255
171 205 255
171 205 255
170 204 255
170 204 255
170 204 255
170 204 255
170 204 255
170 204 255
170 204 255
170 204 255
170 204 255
169 204 255
169 204 255
169 204 255
169 204 255
169 204 255
169 203 255
169 203 255
169 203 255
168 203 255
168 203 255
168 203 255
168 203 255
168 203 255
168 203 255
168 203 255
168 203 255
168 203 255
167 203 255
167 203 255
167 202 255
167 202 255
167 202 255
167 202 255
167 202 255
167 202 255
166 202 255
166 202 255
166 202 255
166 202 255
166 202 255
166 202 255
166 202 255
166 202 255
166 202 255
165 201 255
165 201 255
165 201 255
165 201 255
165 201 255
165 201 255
165 201 255
165 201 255
164 201 255
164 201 255
164 201 255
164 201 255
164 201 255
164 201 255
164 201 255
164 200 255
164 200 255
164 200 255
163 200 255
163 200 255
163 200 255
163 200 255
163 200 255
163 200 255
163 200 255
163 200 255
163 200 255
163 200 255
162 200 255
162 200 255
162 200 255
162 200 255
162 199 255
162 199 255
162 199 255
162 199 255
162 199 255
162 199 255
162 199 255
162 199 255
161 199 255
161 199 255
161 199 255
161 199 255
161 199 255
161 199 255
161 199 255
161 199 255
161 199 255
161 199 255
161 199 255
161 199 255
161 199 255
161 199 255
161 199 255
161 199 255
160 198 255
160 198 255
160 198 255
160 198 255
160 198 255
160 198 255
160 198 255
160 198 255
160 198 255
160 198 255
160 198 255
160 198 255
160 198 255
160 198 255
160 198 255
160 198 255
160 198 255
160 198 255
160 198 255
160 198 255
160 198 255
160 198 255
160 198 255
160 198 255
160 198 255
160 198 255
160 198 255
160 198 255
160 198 255
160 198 255
160 198 255
160 198 255
160 198 255
160 198 255
160 198 255
160 198 255
160 198 255
160 198 255
160 198 255
160 198 255
160 198 255
160 198 255
160 198 255
160 198 255
160 198 255
160 198 255
160 198 255
160 198 255
161 199 255
161 199 255
161 199 255
161 199 255
161 199 255
161 199 255
161 199 255
161 199 255
161 199 255
161 199 255
161 199 255
161 199 255
161 199 255
161 199 255
161 199 255
161 199 255
162 199 255
162 199 255
162 199 255
162 199 255
162 199 255
162 199 255
162 199 255
162 199 255
162 200 255
162 200 255
162 200 255
162 200 255
163 200 255
163 200 255
163 200 255
163 200 255
163 200 255
163 200 255
163 200 255
163 200 255
163 200 255
163 200 255
164 200 255
164 200 255
164 200 255
164 201 255
164 201 255
164 201 255
164 201 255
164 201 255
164 201 255
164 201 255
165 201 255
165 201 255
165 201 255
165 201 255
165 201 255
165 201 255
165 201 255
165 201 255
166 202 255
166 202 255
166 202 255
166 202 255
166 202 255
166 202 255
166 202 255
166 202 255
166 202 255
167 202 255
167 202 255
167 202 255
167 202 255
167 202 255
167 202 255
167 203 255
167 203 255
168 203 255
168 203 255
168 203 255
168 203 255
168 203 255
168 203 255
168 203 255
168 203 255
168 203 255
169 203 255
169 203 255
169 203 255
169 204 255
169 204 255
169 204 255
169 204 255
169 204 255
170 204 255
170 204 255
170 204 255
170 204 255
170 204 255
170 204 255
170 204 255
170 204 255
170 204 255
171 205 255
171 205 255
171 205 255
171 205 255
171 205 255
171 205 255
171 205 255
171 205 255
171 205 255
172 205 255
172 205 255
172 205 255
172 205 255
172 205 255
172 205 255
172 206 255
172 206 255
172 206 255
173 206 255
173 206 255
173 206 255
173 206 255
173 206 255
173 206 255
173 206 255
173 206 255
173 206 255
173 206 255
174 206 255
174 206 255
174 206 255
174 207 255
174 207 255
174 207 255
174 207 255
174 207 255
174 207 255
175 207 255
175 207 255
175 207 255
175 207 255
175 207 255
175 207 255
175 207 255
175 207 255
175 207 255
175 207 255
175 207 255
176 208 255
176 208 255
176 208 255
176 208 255
176 208 255
176 208 255
176 208 255
176 208 255
176 208 255
176 208 255
176 208 255
177 208 255
177 208 255
177 208 255
177 208 255
177 208 255
177 208 255
177 208 255
177 208 255
177 209 255
177 209 255
177 209 255
177 209 255
178 209 255
178 209 255
178 209 255
178 209 255
178 209 255
178 209 255
178 209 255
178 209 255
178 209 255
178 209 255
178 209 255
178 209 255
178 209 255
177 209 255
177 209 255
177 209 255
177 209 255
177 208 255
177 208 255
177 208 255
177 208 255
177 208 255
177 208 255
177 208 255
177 208 255
176 208 255
176 208 255
176 208 255
176 208 255
176 208 255
176 208 255
176 208 255
176 208 255
176 208 255
176 208 255
176 208 255
175 207 255
175 207 255
175 207 255
175 207 255
175 207 255
175 207 255
175 207 255
175 207 255
175 207 255
175 207 255
174 207 255
174 207 255
174 207 255
174 207 255
174 207 255
174 207 255
174 207 255
174 206 255
174 206 255
174 206 255
173 206 255
173 206 255
173 206 255
173 206 255
173 206 255
173 206 255
173 206 255
173 206 255
173 206 255
173 206 255
172 206 255
172 206 255
172 206 255
172 205 255
172 205 255
172 205 255
172 205 255
172 205 255
172 205 255
171 205 255
171 205 255
171 205 255
171 205 255
171 205 255
171 205 255
171 205 255
171 205 255
171 205 255
170 204 255
170 204 255
170 204 255
170 204 255
170 204 255
170 204 255
170 204 255
170 204 255
169 204 255
169 204 255
169 204 255
169 204 255
169 204 255
169 204 255
169 203 255
169 203 255
169 203 255
168 203 255
168 203 255
168 203 255
168 203 255
168 203 255
168 203 255
168 203 255
168 203 255
167 203 255
167 203 255
167 203 255
167 202 255
167 202 255
167 202 255
167 202 255
167 202 255
166 202 255
166 202 255
166 202 255
166 202 255
166 202 255
166 202 255
166 202 255
166 202 255
166 202 255
165 201 255
165 201 255
165 201 255
165 201 255
165 201 255
165 201 255
165 201 255
165 201 255
165 201 255
164 201 255
164 201 255
164 201 255
164 201 255
164 201 255
164 201 255
164 200 255
164 200 255
164 200 255
163 200 255
163 200 255
163 200 255
163 200 255
163 200 255
163 200 255
163 200 255
163 200 255
163 200 255
163 200 255
162 200 255
162 200 255
162 200 255
162 199 255
162 199 255
162 199 255
162 199 255
162 199 255
162 199 255
162 199 255
162 199 255
161 199 255
161 199 255
161 199 255
161 199 255
161 199 255
161 199 255
161 199 255
161 199 255
161 199 255
161 199 255
161 199 255
161 199 255
161 199 255
161 199 255
161 199 255
161 199 255
160 198 255
160 198 255
160 198 255
160 198 255
160 198 255
160 198 255
160 198 255
160 198 255
160 198 255
160 198 255
160 198 255
160 198 255
160 198 255
160 198 255
160 198 255
160 198 255
160 198 255
160 198 255
160 198 255
160 198 255
160 198 255
160 198 255
160 198 255
160 198 255
160 198 255
160 198 255
160 198 255
160 198 255
160 198 255
160 198 255
160 198 255
160 198 255
160 198 255
160 198 255
160 198 255
160 198 255
160 198 255
160 198 255
160 198 255
160 198 255
160 198 255
160 198 255
160 198 255
160 198 255
160 198 255
160 198 255
160 198 255
160 198 255
160 198 255
160 198 255
161 199 255
161 199 255
161 199 255
161 199 255
161 199 255
161 199 255
161 199 255
161 199 255
161 199 255
161 199 255
161 199 255
161 199 255
161 199 255
161 199 255
161 199 255
161 199 255
162 199 255
162 199 255
162 199 255
162 199 255
162 199 255
162 199 255
162 199 255
162 200 255
162 200 255
162 200 255
162 200 255
163 200 255
163 200 255
163 200 255
163 200 255
163 200 255
163 200 255
163 200 255
163 200 255
163 200 255
163 200 255
164 200 255
164 200 255
164 200 255
164 201 255
164 201 255
164 201 255
164 201 255
164 201 255
164 201 255
165 201 255
165 201 255
165 201 255
165 201 255
165 201 255
165 201 255
165 201 255
165 201 255
165 201 255
166 202 255
166 202 255
166 202 255
166 202 255
166 202 255
166 202 255
166 202 255
166 202 255
166 202 255
167 202 255
167 202 255
167 202 255
167 202 255
167 202 255
167 203 255
167 203 255
167 203 255
168 203 255
168 203 255
168 203 255
168 203 255
168 203 255
168 203 255
168 203 255
168 203 255
169 203 255
169 203 255
169 203 255
169 204 255
169 204 255
169 204 255
169 204 255
169 204 255
169 204 255
170 204 255
170 204 255
170 204 255
170 204 255
170 204 255
170 204 255
170 204 255
170 204 255
171 205 255
171 205 255
171 205 255
171 205 255
171 205 255
171 205 255
171 205 255
171 205 255
171 205 255
172 205 255
172 205 255
172 205 255
172 205 255
172 205 255
172 205 255
172 206 255
172 206 255
172 206 255
173 206 255
173 206 255
173 206 255
173 206 255
173 206 255
173 206 255
173 206 255
173 206 255
173 206 255
173 206 255
174 206 255
174 206 255
174 206 255
174 207 255
174 207 255
174 207 255
174 207 255
174 207 255
174 207 255
174 207 255
175 207 255
175 207 255
175 207 255
175 207 255
175 207 255
175 207 255
175 207 255
175 207 255
175 207 255
175 207 255
176 208 255
176 208 255
176 208 255
176 208 255
176 208 255
176 208 255
176 208 255
176 208 255
176 208 255
176 208 255
176 208 255
177 208 255
177 208 255
177 208 255
177 208 255
177 208 255
177 208 255
177 208 255
177 208 255
177 209 255
177 209 255
177 209 255
177 209 255
178 209 255
178 209 255
178 209 255
178 209 255
178 209 255
178 209 255
178 209 255
178 209 255
178 209 255
178 209 255
178 209 255
178 209 255
178 209 255
178 209 255
178 209 255
177 209 255
177 209 255
177 209 255
177 209 255
177 208 255
177 208 255
177 208 255
177 208 255
177 208 255
177 208 255
177 208 255
177 208 255
176 208 255
176 208 255
176 208 255
176 208 255
176 208 255
176 208 255
176 208 255
176 208 255
176 208 255
176 208 255
176 208 255
175 207 255
175 207 255
175 207 255
175 207 255
175 207 255
175 207 255
175 207 255
175 207 255
175 207 255
175 207 255
174 207 255
174 207 255
174 207 255
174 207 255
174 207 255
174 207 255
174 207 255
174 206 255
174 206 255
174 206 255
173 206 255
173 206 255
173 206 255
173 206 255
173 206 255
173 206 255
173 206 255
173 206 255
173 206 255
173 206 255
172 206 255
172 206 255
172 205 255
172 205 255
172 205 255
172 205 255
172 205 255
172 205 255
171 205 255
171 205 255
171 205 255
171 205 255
171 205 255
171 205 255
171 205 255
171 205 255
171 205 255
170 204 255
170 204 255
170 204 255
170 204 255
170 204 255
170 204 255
170 204 255
170 204 255
170 204 255
169 204 255
169 204 255
169 204 255
169 204 255
169 204 255
169 203 255
169 203 255
169 203 255
168 203 255
168 203 255
168 203 255
168 203 255
168 203 255
168 203 255
168 203 255
168 203 255
167 203 255
167 203 255
167 203 255
167 202 255
167 202 255
167 202 255
167 202 255
167 202 255
167 202 255
166 202 255
166 202 255
166 202 255
166 202 255
166 202 255
166 202 255
166 202 255
166 202 255
165 201 255
165 201 255
165 201 255
165 201 255
165 201 255
165 201 255
165 201 255
165 201 255
165 201 255
164 201 255
164 201 255
164 201 255
164 201 255
164 201 255
164 201 255
164 200 255
164 200 255
164 200 255
163 200 255
163 200 255
163 200 255
163 200 255
163 200 255
163 200 255
163 200 255
163 200 255
163 200 255
163 200 255
162 200 255
162 200 255
162 200 255
162 199 255
162 199 255
162 199 255
162 199 255
162 199 255
162 199 255
162 199 255
162 199 255
161 199 255
161 199 255
161 199 255
161 199 255
161 199 255
161 199 255
161 199 255
161 199 255
161 199 255
161 199 255
161 199 255
161 199 255
161 199 255
161 199 255
161 199 255
160 198 255
160 198 255
160 198 255
160 198 255
160 198 255
160 198 255
160 198 255
160 198 255
160 198 255
160 198 255
160 198 255
160 198 255
160 198 255
160 198 255
160 198 255
160 198 255
160 198 255
160 198 255
160 198 255
160 198 255
160 198 255
160 198 255
160 198 255
160 198 255
160 198 255
160 198 255
160 198 255
160 198 255
160 198 255
160 198 255
160 198 255
160 198 255
160 198 255
160 198 255
160 198 255
160 198 255
160 198 255
160 198 255
160 198 255
160 198 255
160 198 255
160 198 255
160 198 255
160 198 255
160 198 255
160 198 255
160 198 255
160 198 255
160 198 255
160 198 255
160 198 255
160 198 255
161 199 255
161 199 255
161 199 255
161 199 255
161 199 255
161 199 255
161 199 255
161 199 255
161 199 255
161 199 255
161 199 255
161 199 255
161 199 255
161 199 255
161 199 255
162 199 255
162 199 255
162 199 255
162 199 255
162 199 255
162 199 255
162 199 255
162 199 255
162 200 255
162 200 255
162 200 255
163 200 255
163 200 255
163 200 255
163 200 255
163 200 255
163 200 255
163 200 255
163 200 255
163 200 255
163 200 255
164 200 255
164 200 255
164 200 255
164 201 255
164 201 255
164 201 255
164 201 255
164 201 255
164 201 255
165 201 255
165 201 255
165 201 255
165 201 255
165 201 255
165 201 255
165 201 255
165 201 255
165 201 255
166 202 255
166 202 255
166 202 255
166 202 255
166 202 255
166 202 255
166 202 255
166 202 255
167 202 255
167 202 255
167 202 255
167 202 255
167 202 255
167 202 255
167 203 255
167 203 255
167 203 255
168 203 255
168 203 255
168 203 255
168 203 255
168 203 255
168 203 255
168 203 255
168 203 255
169 203 255
169 203 255
169 203 255
169 204 255
169 204 255
169 204 255
169 204 255
169 204 255
170 204 255
170 204 255
170 204 255
170 204 255
170 204 255
170 204 255
170 204 255
170 204 255
170 204 255
171 205 255
171 205 255
171 205 255
171 205 255
171 205 255
171 205 255
171 205 255
171 205 255
171 205 255
172 205 255
172 205 255
172 205 255
172 205 255
172 205 255
172 206 255
172 206 255
172 206 255
172 206 255
173 206 255
173 206 255
173 206 255
173 206 255
173 206 255
173 206 255
173 206 255
173 206 255
173 206 255
174 206 255
174 206 255
174 206 255
174 207 255
174 207 255
174 207 255
174 207 255
174 207 255
174 207 255
174 207 255
175 207 255
175 207 255
175 207 255
175 207 255
175 207 255
175 207 255
175 207 255
175 207 255
175 207 255
175 207 255
176 208 255
176 208 255
176 208 255
176 208 255
176 208 255
176 208 255
176 208 255
176 208 255
176 208 255
176 208 255
176 208 255
177 208 255
177 208 255
177 208 255
177 208 255
177 208 255
177 208 255
177 208 255
177 208 255
177 209 255
177 209 255
177 209 255
177 209 255
178 209 255
178 209 255
178 209 255
178 209 255
178 209 255
178 209 255
178 209 255
178 209 255
178 209 255
178 209 255
178 209 255
178 209 255
178 209 255
178 209 255
178 209 255
178 209 255
178 209 255
177 209 255
177 209 255
177 209 255
177 209 255
177 208 255
177 208 255
177 208 255
177 208 255
177 208 255
177 208 255
177 208 255
177 208 255
176 208 255
176 208 255
176 208 255
176 208 255
176 208 255
176 208 255
176 208 255
176 208 255
176 208 255
176 208 255
176 208 255
175 207 255
175 207 255
175 207 255
175 207 255
175 207 255
175 207 255
175 207 255
175 207 255
175 207 255
175 207 255
174 207 255
174 207 255
174 207 255
174 207 255
174 207 255
174 207 255
174 207 255
174 206 255
174 206 255
174 206 255
173 206 255
173 206 255
173 206 255
173 206 255
173 206 255
173 206 255
173 206 255
173 206 255
173 206 255
172 206 255
172 206 255
172 206 255
172 205 255
172 205 255
172 205 255
172 205 255
172 205 255
172 205 255
171 205 255
171 205 255
171 205 255
171 205 255
171 205 255
171 205 255
171 205 255
171 205 255
171 205 255
170 204 255
170 204 255
170 204 255
170 204 255
170 204 255
170 204 255
170 204 255
170 204 255
169 204 255
169 204 255
169 204 255
169 204 255
169 204 255
169 204 255
169 203 255
169 203 255
168 203 255
168 203 255
168 203 255
168 203 255
168 203 255
168 203 255
168 203 255
168 203 255
168 203 255
167 203 255
167 203 255
167 202 255
167 202 255
167 202 255
167 202 255
167 202 255
167 202 255
166 202 255
166 202 255
166 202 255
166 202 255
166 202 255
166 202 255
166 202 255
166 202 255
165 201 255
165 201 255
165 201 255
165 201 255
165 201 255
165 201 255
165 201 255
165 201 255
165 201 255
164 201 255
164 201 255
164 201 255
164 201 255
164 201 255
164 201 255
164 200 255
164 200 255
164 200 255
163 200 255
163 200 255
163 200 255
163 200 255
163 200 255
163 200 255
163 200 255
163 200 255
163 200 255
163 200 255
162 200 255
162 200 255
162 200 255
162 199 255
162 199 255
162 199 255
162 199 255
162 199 255
162 199 255
162 199 255
162 199 255
161 199 255
161 199 255
161 199 255
161 199 255
161 199 255
161 199 255
161 199 255
161 199 255
161 199 255
161 199 255
161 199 255
161 199 255
161 199 255
161 199 255
160 198 255
160 198 255
160 198 255
160 198 255
160 198 255
160 198 255
160 198 255
160 198 255
160 198 255
160 198 255
160 198 255
160 198 255
160 198 255
160 198 255
160 198 255
160 198 255
160 198 255
160 198 255
160 198 255
160 198 255
160 198 255
160 198 255
160 198 255
160 198 255
160 198 255
160 198 255
160 198 255
160 198 255
160 198 255
160 198 255
160 198 255
160 198 255
160 198 255
160 198 255
160 198 255
160 198 255
160 198 255
160 198 255
160 198 255
160 198 255
160 198 255
160 198 255
160 198 255
160 198 255
160 198 255
160 198 255
160 198 255
160 198 255
160 198 255
160 198 255
160 198 255
160 198 255
160 198 255
160 198 255
161 199 255
161 199 255
161 199 255
161 199 255
161 199 255
161 199 255
161 199 255
161 199 255
161 199 255
161 199 255
161 199 255
161 199 255
161 199 255
161 199 255
162 199 255
162 199 255
162 199 255
162 199 255
162 199 255
162 199 255
162 199 255
162 199 255
162 200 255
162 200 255
162 200 255
163 200 255
163 200 255
163 200 255
163 200 255
163 200 255
163 200 255
163 200 255
163 200 255
163 200 255
163 200 255
164 200 255
164 200 255
164 200 255
164 201 255
164 201 255
164 201 255
164 201 255
164 201 255
164 201 255
165 201 255
165 201 255
165 201 255
165 201 255
165 201 255
165 201 255
165 201 255
165 201 255
165 201 255
166 202 255
166 202 255
166 202 255
166 202 255
166 202 255
166 202 255
166 202 255
166 202 255
167 202 255
167 202 255
167 202 255
167 202 255
167 202 255
167 202 255
167 203 255
167 203 255
168 203 255
168 203 255
168 203 255
168 203 255
168 203 255
168 203 255
168 203 255
168 203 255
168 203 255
169 203 255
169 203 255
169 204 255
169 204 255
169 204 255
169 204 255
169 204 255
169 204 255
170 204 255
170 204 255
170 204 255
170 204 255
170 204 255
170 204 255
170 204 255
170 204 255
171 205 255
171 205 255
171 205 255
171 205 255
171 205 255
171 205 255
171 205 255
171 205 255
171 205 255
172 205 255
172 205 255
172 205 255
172 205 255
172 205 255
172 205 255
172 206 255
172 206 255
172 206 255
173 206 255
173 206 255
173 206 255
173 206 255
173 206 255
173 206 255
173 206 255
173 206 255
173 206 255
174 206 255
174 206 255
174 206 255
174 207 255
174 207 255
174 207 255
174 207 255
174 207 255
174 207 255
174 207 255
175 207 255
175 207 255
175 207 255
175 207 255
175 207 255
175 207 255
175 207 255
175 207 255
175 207 255
175 207 255
176 208 255
176 208 255
176 208 255
176 208 255
176 208 255
176 208 255
176 208 255
176 208 255
176 208 255
176 208 255
176 208 255
177 208 255
177 208 255
177 208 255
177 208 255
177 208 255
177 208 255
177 208 255
177 208 255
177 209 255
177 209 255
177 209 255
177 209 255
178 209 255
178 209 255
178 209 255
178 209 255
178 209 255
178 209 255
178 209 255
178 209 255
178 209 255
178 209 255
178 209 255
178 209 255
178 209 255
178 209 255
178 209 255
178 209 255
178 209 255
178 209 255
178 209 255
178 209 255
177 209 255
177 209 255
177 209 255
177 209 255
177 208 255
177 208 255
177 208 255
177 208 255
177 208 255
177 208 255
177 208 255
176 208 255
176 208 255
176 208 255
176 208 255
176 208 255
176 208 255
176 208 255
176 208 255
176 208 255
176 208 255
176 208 255
175 207 255
175 207 255
175 207 255
175 207 255
175 207 255
175 207 255
175 207 255
175 207 255
175 207 255
175 207 255
174 207 255
174 207 255
174 207 255
174 207 255
174 207 255
174 207 255
174 207 255
174 206 255
174 206 255
174 206 255
173 206 255
173 206 255
173 206 255
173 206 255
173 206 255
173 206 255
173 206 255
173 206 255
173 206 255
172 206 255
172 206 255
172 206 255
172 205 255
172 205 255
172 205 255
172 205 255
172 205 255
172 205 255
171 205 255
171 205 255
171 205 255
171 205 255
171 205 255
171 205 255
171 205 255
171 205 255
170 204 255
170 204 255
170 204 255
170 204 255
170 204 255
170 204 255
170 204 255
170 204 255
170 204 255
169 204 255
169 204 255
169 204 255
169 204 255
169 204 255
169 203 255
169 203 255
169 203 255
168 203 255
168 203 255
168 203 255
168 203 255
168 203 255
168 203 255
168 203 255
168 203 255
167 203 255
167 203 255
167 203 255
167 202 255
167 202 255
167 202 255
167 202 255
167 202 255
166 202 255
166 202 255
166 202 255
166 202 255
166 202 255
166 202 255
166 202 255
166 202 255
166 202 255
165 201 255
165 201 255
165 201 255
165 201 255
165 201 255
165 201 255
165 201 255
165 201 255
164 201 255
164 201 255
164 201 255
164 201 255
164 201 255
164 201 255
164 200 255
164 200 255
164 200 255
163 200 255
163 200 255
163 200 255
163 200 255
163 200 255
163 200 255
163 200 255
163 200 255
163 200 255
163 200 255
162 200 255
162 200 255
162 200 255
162 199 255
162 199 255
162 199 255
162 199 255
162 199 255
162 199 255
162 199 255
162 199 255
161 199 255
161 199 255
161 199 255
161 199 255
161 199 255
161 199 255
161 199 255
161 199 255
161 199 255
161 199 255
161 199 255
161 199 255
161 199 255
160 198 255
160 198 255
160 198 255
160 198 255
160 198 255
160 198 255
160 198 255
160 198 255
160 198 255
160 198 255
160 198 255
160 198 255
160 198 255
160 198 255
160 198 255
160 198 255
160 198 255
160 198 255
160 198 255
160 198 255
160 198 255
160 198 255
160 198 255
160 198 255
160 198 255
160 198 255
160 198 255
160 198 255
160 198 255
160 198 255
160 198 255
160 198 255
160 198 255
160 198 255
160 198 255
160 198 255
160 198 255
160 198 255
160 198 255
160 198 255
160 198 255
160 198 255
160 198 255
160 198 255
160 198 255
160 198 255
160 198 255
160 198 255
160 198 255
160 198 255
160 198 255
160 198 255
160 198 255
160 198 255
160 198 255
160 198 255
161 199 255
161 199 255
161 199 255
161 199 255
161 199 255
161 199 255
161 199 255
161 199 255
161 199 255
161 199 255
161 199 255
161 199 255
161 199 255
161 199 255
162 199 255
162 199 255
162 199 255
162 199 255
162 199 255
162 199 255
162 199 255
162 200 255
162 200 255
162 200 255
162 200 255
163 200 255
163 200 255
163 200 255
163 200 255
163 200 255
163 200 255
163 200 255
163 200 255
163 200 255
164 200 255
164 200 255
164 200 255
164 201 255
164 201 255
164 201 255
164 201 255
164 201 255
164 201 255
165 201 255
165 201 255
165 201 255
165 201 255
165 201 255
165 201 255
165 201 255
165 201 255
166 202 255
166 202 255
166 202 255
166 202 255
166 202 255
166 202 255
166 202 255
166 202 255
166 202 255
167 202 255
167 202 255
167 202 255
167 202 255
167 202 255
167 203 255
167 203 255
167 203 255
168 203 255
168 203 255
168 203 255
168 203 255
168 203 255
168 203 255
168 203 255
168 203 255
169 203 255
169 203 255
169 203 255
169 204 255
169 204 255
169 204 255
169 204 255
169 204 255
170 204 255
170 204 255
170 204 255
170 204 255
170 204 255
170 204 255
170 204 255
170 204 255
171 205 255
171 205 255
171 205 255
171 205 255
171 205 255
171 205 255
171 205 255
171 205 255
171 205 255
172 205 255
172 205 255
172 205 255
172 205 255
172 205 255
172 205 255
172 206 255
172 206 255
172 206 255
173 206 255
173 206 255
173 206 255
173 206 255
173 206 255
173 206 255
173 206 255
173 206 255
173 206 255
174 206 255
174 206 255
174 206 255
174 207 255
174 207 255
174 207 255
174 207 255
174 207 255
174 207 255
174 207 255
175 207 255
175 207 255
175 207 255
175 207 255
175 207 255
175 207 255
175 207 255
175 207 255
175 207 255
175 207 255
176 208 255
176 208 255
176 208 255
176 208 255
176 208 255
176 208 255
176 208 255
176 208 255
176 208 255
176 208 255
176 208 255
177 208 255
177 208 255
177 208 255
177 208 255
177 208 255
177 208 255
177 208 255
177 209 255
177 209 255
177 209 255
177 209 255
178 209 255
178 209 255
178 209 255
178 209 255
178 209 255
178 209 255
178 209 255
178 209 255
178 209 255
178 209 255
178 209 255
178 209 255
178 209 255
178 209 255
178 209 255
178 209 255
178 209 255
178 209 255
178 209 255
178 209 255
178 209 255
178 209 255
178 209 255
177 209 255
177 209 255
177 209 255
177 209 255
177 208 255
177 208 255
177 208 255
177 208 255
177 208 255
177 208 255
177 208 255
176 208 255
176 208 255
176 208 255
176 208 255
176 208 255
176 208 255
176 208 255
176 208 255
176 208 255
176 208 255
176 208 255
175 207 255
175 207 255
175 207 255
175 207 255
175 207 255
175 207 255
175 207 255
175 207 255
175 207 255
175 207 255
174 207 255
174 207 255
174 207 255
174 207 255
174 207 255
174 207 255
174 207 255
174 206 255
174 206 255
174 206 255
173 206 255
173 206 255
173 206 255
173 206 255
173 206 255
173 206 255
173 206 255
173 206 255
173 206 255
172 206 255
172 206 255
172 206 255
172 205 255
172 205 255
172 205 255
172 205 255
172 205 255
172 205 255
171 205 255
171 205 255
171 205 255
171 205 255
171 205 255
171 205 255
171 205 255
171 205 255
170 204 255
170 204 255
170 204 255
170 204 255
170 204 255
170 204 255
170 204 255
170 204 255
169 204 255
169 204 255
169 204 255
169 204 255
169 204 255
169 204 255
169 203 255
169 203 255
169 203 255
168 203 255
168 203 255
168 203 255
168 203 255
168 203 255
168 203 255
168 203 255
168 203 255
167 203 255
167 203 255
167 202 255
167 202 255
167 202 255
167 202 255
167 202 255
167 202 255
166 202 255
166 202 255
166 202 255
166 202 255
166 202 255
166 202 255
166 202 255
166 202 255
165 201 255
165 201 255
165 201 255
165 201 255
165 201 255
165 201 255
165 201 255
165 201 255
164 201 255
164 201 255
164 201 255
164 201 255
164 201 255
164 201 255
164 200 255
164 200 255
164 200 255
163 200 255
163 200 255
163 200 255
163 200 255
163 200 255
163 200 255
163 200 255
163 200 255
163 200 255
163 200 255
162 200 255
162 200 255
162 200 255
162 199 255
162 199 255
162 199 255
162 199 255
162 199 255
162 199 255
162 199 255
161 199 255
161 199 255
161 199 255
161 199 255
161 199 255
161 199 255
161 199 255
161 199 255
161 199 255
161 199 255
161 199 255
161 199 255
161 199 255
161 199 255
160 198 255
160 198 255
160 198 255
160 198 255
160 198 255
160 198 255
160 198 255
160 198 255
160 198 255
160 198 255
160 198 255
160 198 255
160 198 255
160 198 255
160 198 255
160 198 255
160 198 255
160 198 255
160 198 255
160 198 255
160 198 255
160 198 255
160 198 255
160 198 255
160 198 255
160 198 255
160 198 255
160 198 255
160 198 255
160 198 255
160 198 255
160 198 255
160 198 255
160 198 255
160 198 255
160 198 255
160 198 255
160 198 255
160 198 255
160 198 255
160 198 255
160 198 255
160 198 255
160 198 255
160 198 255
160 198 255
160 198 255
160 198 255
160 198 255
160 198 255
160 198 255
160 198 255
160 198 255
160 198 255
160 198 255
160 198 255
161 199 255
161 199 255
161 199 255
161 199 255
161 199 255
161 199 255
161 199 255
161 199 255
161 199 255
161 199 255
161 199 255
161 199 255
161 199 255
161 199 255
162 199 255
162 199 255
162 199 255
162 199 255
162 199 255
162 199 255
162 199 255
162 200 255
162 200 255
162 200 255
163 200 255
163 200 255
163 200 255
163 200 255
163 200 255
163 200 255
163 200 255
163 200 255
163 200 255
163 200 255
164 200 255
164 200 255
164 200 255
164 201 255
164 201 255
164 201 255
164 201 255
164 201 255
164 201 255
165 201 255
165 201 255
165 201 255
165 201 255
165 201 255
165 201 255
165 201 255
165 201 255
166 202 255
166 202 255
166 202 255
166 202 255
166 202 255
166 202 255
166 202 255
166 202 255
167 202 255
167 202 255
167 202 255
167 202 255
167 202 255
167 202 255
167 203 255
167 203 255
168 203 255
168 203 255
168 203 255
168 203 255
168 203 255
168 203 255
168 203 255
168 203 255
169 203 255
169 203 255
169 203 255
169 204 255
169 204 255
169 204 255
169 204 255
169 204 255
169 204 255
170 204 255
170 204 255
170 204 255
170 204 255
170 204 255
170 204 255
170 204 255
170 204 255
171 205 255
171 205 255
171 205 255
171 205 255
171 205 255
171 205 255
171 205 255
171 205 255
172 205 255
172 205 255
172 205 255
172 205 255
172 205 255
172 205 255
172 206 255
172 206 255
172 206 255
173 206 255
173 206 255
173 206 255
173 206 255
173 206 255
173 206 255
173 206 255
173 206 255
173 206 255
174 206 255
174 206 255
174 206 255
174 207 255
174 207 255
174 207 255
174 207 255
174 207 255
174 207 255
174 207 255
175 207 255
175 207 255
175 207 255
175 207 255
175 207 255
175 207 255
175 207 255
175 207 255
175 207 255
175 207 255
176 208 255
176 208 255
176 208 255
176 208 255
176 208 255
176 208 255
176 208 255
176 208 255
176 208 255
176 208 255
176 208 255
177 208 255
177 208 255
177 208 255
177 208 255
177 208 255
177 208 255
177 208 255
177 209 255
177 209 255
177 209 255
177 209 255
178 209 255
178 209 255
178 209 255
178 209 255
178 209 255
178 209 255
178 209 255
178 209 255
178 209 255
178 209 255
178 209 255
178 209 255
179 209 255
178 209 255
178 209 255
178 209 255
178 209 255
178 209 255
178 209 255
178 209 255
178 209 255
178 209 255
178 209 255
178 209 255
178 209 255
177 209 255
177 209 255
177 209 255
177 209 255
177 208 255
177 208 255
177 208 255
177 208 255
177 208 255
177 208 255
177 208 255
177 208 255
176 208 255
176 208 255
176 208 255
176 208 255
176 208 255
176 208 255
176 208 255
176 208 255
176 208 255
176 208 255
175 207 255
175 207 255
175 207 255
175 207 255
175 207 255
175 207 255
175 207 255
175 207 255
175 207 255
175 207 255
174 207 255
174 207 255
174 207 255
174 207 255
174 207 255
174 207 255
174 207 255
174 206 255
174 206 255
174 206 255
173 206 255
173 206 255
173 206 255
173 206 255
173 206 255
173 206 255
173 206 255
173 206 255
173 206 255
172 206 255
172 206 255
172 206 255
172 205 255
172 205 255
172 205 255
172 205 255
172 205 255
172 205 255
171 205 255
171 205 255
171 205 255
171 205 255
171 205 255
171 205 255
171 205 255
171 205 255
170 204 255
170 204 255
170 204 255
170 204 255
170 204 255
170 204 255
170 204 255
170 204 255
169 204 255
169 204 255
169 204 255
169 204 255
169 204 255
169 204 255
169 203 255
169 203 255
168 203 255
168 203 255
168 203 255
168 203 255
168 203 255
168 203 255
168 203 255
168 203 255
167 203 255
167 203 255
167 203 255
167 202 255
167 202 255
167 202 255
167 202 255
167 202 255
166 202 255
166 202 255
166 202 255
166 202 255
166 202 255
166 202 255
166 202 255
166 202 255
165 201 255
165 201 255
165 201 255
165 201 255
165 201 255
165 201 255
165 201 255
165 201 255
164 201 255
164 201 255
164 201 255
164 201 255
164 201 255
164 201 255
164 200 255
164 200 255
164 200 255
163 200 255
163 200 255
163 200 255
163 200 255
163 200 255
163 200 255
163 200 255
163 200 255
163 200 255
163 200 255
162 200 255
162 200 255
162 200 255
162 199 255
162 199 255
162 199 255
162 199 255
162 199 255
162 199 255
162 199 255
161 199 255
161 199 255
161 199 255
161 199 255
161 199 255
161 199 255
161 199 255
161 199 255
161 199 255
161 199 255
161 199 255
161 199 255
161 199 255
161 199 255
160 198 255
160 198 255
160 198 255
160 198 255
160 198 255
160 198 255
160 198 255
160 198 255
160 198 255
160 198 255
160 198 255
160 198 255
160 198 255
160 198 255
160 198 255
160 198 255
160 198 255
160 198 255
160 198 255
160 198 255
160 198 255
160 198 255
160 198 255
160 198 255
160 198 255
160 198 255
160 198 255
160 198 255
160 198 255
160 198 255
160 198 255
160 198 255
160 198 255
160 198 255
160 198 255
160 198 255
160 198 255
160 198 255
160 198 255
160 198 255
160 198 255
160 198 255
160 198 255
160 198 255
160 198 255
160 198 255
160 198 255
160 198 255
160 198 255
160 198 255
160 198 255
160 198 255
160 198 255
160 198 255
160 198 255
160 198 255
161 199 255
161 199 255
161 199 255
161 199 255
161 199 255
161 199 255
161 199 255
161 199 255
161 199 255
161 199 255
161 199 255
161 199 255
161 199 255
161 199 255
162 199 255
162 199 255
162 199 255
162 199 255
162 199 255
162 199 255
162 199 255
162 200 255
162 200 255
162 200 255
163 200 255
163 200 255
163 200 255
163 200 255
163 200 255
163 200 255
163 200 255
163 200 255
163 200 255
163 200 255
164 200 255
164 200 255
164 200 255
164 201 255
164 201 255
164 201 255
164 201 255
164 201 255
165 201 255
165 201 255
165 201 255
165 201 255
165 201 255
165 201 255
165 201 255
165 201 255
165 201 255
166 202 255
166 202 255
166 202 255
166 202 255
166 202 255
166 202 255
166 202 255
166 202 255
167 202 255
167 202 255
167 202 255
167 202 255
167 202 255
167 203 255
167 203 255
167 203 255
168 203 255
168 203 255
168 203 255
168 203 255
168 203 255
168 203 255
168 203 255
168 203 255
169 203 255
169 203 255
169 204 255
169 204 255
169 204 255
169 204 255
169 204 255
169 204 255
170 204 255
170 204 255
170 204 255
170 204 255
170 204 255
170 204 255
170 204 255
170 204 255
171 205 255
171 205 255
171 205 255
171 205 255
171 205 255
171 205 255
171 205 255
171 205 255
172 205 255
172 205 255
172 205 255
172 205 255
172 205 255
172 205 255
172 206 255
172 206 255
172 206 255
173 206 255
173 206 255
173 206 255
173 206 255
173 206 255
173 206 255
173 206 255
173 206 255
173 206 255
174 206 255
174 206 255
174 206 255
174 207 255
174 207 255
174 207 255
174 207 255
174 207 255
174 207 255
174 207 255
175 207 255
175 207 255
175 207 255
175 207 255
175 207 255
175 207 255
175 207 255
175 207 255
175 207 255
175 207 255
176 208 255
176 208 255
176 208 255
176 208 255
176 208 255
176 208 255
176 208 255
176 208 255
176 208 255
176 208 255
177 208 255
177 208 255
177 208 255
177 208 255
177 208 255
177 208 255
177 208 255
177 208 255
177 209 255
177 209 255
177 209 255
177 209 255
178 209 255
178 209 255
178 209 255
178 209 255
178 209 255
178 209 255
178 209 255
178 209 255
178 209 255
178 209 255
178 209 255
178 209 255
179 209 255
179 209 255
179 209 255
178 209 255
178 209 255
178 209 255
178 209 255
178 209 255
178 209 255
178 209 255
178 209 255
178 209 255
178 209 255
178 209 255
178 209 255
178 209 255
177 209 255
177 209 255
177 209 255
177 209 255
177 208 255
177 208 255
177 208 255
177 208 255
177 208 255
177 208 255
177 208 255
176 208 255
176 208 255
176 208 255
176 208 255
176 208 255
176 208 255
176 208 255
176 208 255
176 208 255
176 208 255
175 207 255
175 207 255
175 207 255
175 207 255
175 207 255
175 207 255
175 207 255
175 207 255
175 207 255
175 207 255
174 207 255
174 207 255
174 207 255
174 207 255
174 207 255
174 207 255
174 207 255
174 206 255
174 206 255
174 206 255
173 206 255
173 206 255
173 206 255
173 206 255
173 206 255
173 206 255
173 206 255
173 206 255
173 206 255
172 206 255
172 206 255
172 206 255
172 205 255
172 205 255
172 205 255
172 205 255
172 205 255
171 205 255
171 205 255
171 205 255
171 205 255
171 205 255
171 205 255
171 205 255
171 205 255
171 205 255
170 204 255
170 204 255
170 204 255
170 204 255
170 204 255
170 204 255
170 204 255
170 204 255
169 204 255
169 204 255
169 204 255
169 204 255
169 204 255
169 203 255
169 203 255
169 203 255
168 203 255
168 203 255
168 203 255
168 203 255
168 203 255
168 203 255
168 203 255
168 203 255
167 203 255
167 203 255
167 202 255
167 202 255
167 202 255
167 202 255
167 202 255
167 202 255
166 202 255
166 202 255
166 202 255
166 202 255
166 202 255
166 202 255
166 202 255
166 202 255
165 201 255
165 201 255
165 201 255
165 201 255
165 201 255
165 201 255
165 201 255
165 201 255
164 201 255
164 201 255
164 201 255
164 201 255
164 201 255
164 201 255
164 200 255
164 200 255
163 200 255
163 200 255
163 200 255
163 200 255
163 200 255
163 200 255
163 200 255
163 200 255
163 200 255
163 200 255
162 200 255
162 200 255
162 200 255
162 199 255
162 199 255
162 199 255
162 199 255
162 199 255
162 199 255
162 199 255
161 199 255
161 199 255
161 199 255
161 199 255
161 199 255
161 199 255
161 199 255
161 199 255
161 199 255
161 199 255
161 199 255
161 199 255
161 199 255
160 198 255
160 198 255
160 198 255
160 198 255
160 198 255
160 198 255
160 198 255
160 198 255
160 198 255
160 198 255
160 198 255
160 198 255
160 198 255
160 198 255
160 198 255
160 198 255
160 198 255
160 198 255
160 198 255
160 198 255
160 198 255
160 198 255
160 198 255
160 198 255
160 198 255
160 198 255
160 198 255
160 198 255
160 198 255
160 198 255
160 198 255
160 198 255
160 198 255
160 198 255
160 198 255
160 198 255
160 198 255
160 198 255
160 198 255
160 198 255
160 198 255
160 198 255
160 198 255
160 198 255
160 198 255
160 198 255
160 198 255
160 198 255
160 198 255
160 198 255
160 198 255
160 198 255
160 198 255
160 198 255
160 198 255
160 198 255
160 198 255
160 198 255
161 199 255
161 199 255
161 199 255
161 199 255
161 199 255
161 199 255
161 199 255
161 199 255
161 199 255
161 199 255
161 199 255
161 199 255
161 199 255
162 199 255
162 199 255
162 199 255
162 199 255
162 199 255
162 199 255
162 199 255
162 200 255
162 200 255
162 200 255
163 200 255
163 200 255
163 200 255
163 200 255
163 200 255
163 200 255
163 200 255
163 200 255
163 200 255
163 200 255
164 200 255
164 200 255
164 201 255
164 201 255
164 201 255
164 201 255
164 201 255
164 201 255
165 201 255
165 201 255
165 201 255
165 201 255
165 201 255
165 201 255
165 201 255
165 201 255
166 202 255
166 202 255
166 202 255
166 202 255
166 202 255
166 202 255
166 202 255
166 202 255
167 202 255
167 202 255
167 202 255
167 202 255
167 202 255
167 202 255
167 203 255
167 203 255
168 203 255
168 203 255
168 203 255
168 203 255
168 203 255
168 203 255
168 203 255
168 203 255
169 203 255
169 203 255
169 203 255
169 204 255
169 204 255
169 204 255
169 204 255
169 204 255
170 204 255
170 204 255
170 204 255
170 204 255
170 204 255
170 204 255
170 204 255
170 204 255
171 205 255
171 205 255
171 205 255
171 205 255
171 205 255
171 205 255
171 205 255
171 205 255
171 205 255
172 205 255
172 205 255
172 205 255
172 205 255
172 205 255
172 206 255
172 206 255
172 206 255
173 206 255
173 206 255
173 206 255
173 206 255
173 206 255
173 206 255
173 206 255
173 206 255
173 206 255
174 206 255
174 206 255
174 206 255
174 207 255
174 207 255
174 207 255
174 207 255
174 207 255
174 207 255
174 207 255
175 207 255
175 207 255
175 207 255
175 207 255
175 207 255
175 207 255
175 207 255
175 207 255
175 207 255
175 207 255
176 208 255
176 208 255
176 208 255
176 208 255
176 208 255
176 208 255
176 208 255
176 208 255
176 208 255
176 208 255
177 208 255
177 208 255
177 208 255
177 208 255
177 208 255
177 208 255
177 208 255
177 208 255
177 209 255
177 209 255
177 209 255
178 209 255
178 209 255
178 209 255
178 209 255
178 209 255
178 209 255
178 209 255
178 209 255
178 209 255
178 209 255
178 209 255
178 209 255
178 209 255
179 209 255
179 209 255
179 209 255
179 209 255
179 209 255
179 209 255
178 209 255
178 209 255
178 209 255
178 209 255
178 209 255
178 209 255
178 209 255
178 209 255
178 209 255
178 209 255
178 209 255
178 209 255
177 209 255
177 209 255
177 209 255
177 209 255
177 208 255
177 208 255
177 208 255
177 208 255
177 208 255
177 208 255
177 208 255
176 208 255
176 208 255
176 208 255
176 208 255
176 208 255
176 208 255
176 208 255
176 208 255
176 208 255
176 208 255
176 208 255
175 207 255
175 207 255
175 207 255
175 207 255
175 207 255
175 207 255
175 207 255
175 207 255
175 207 255
175 207 255
174 207 255
174 207 255
174 207 255
174 207 255
174 207 255
174 207 255
174 206 255
174 206 255
174 206 255
173 206 255
173 206 255
173 206 255
173 206 255
173 206 255
173 206 255
173 206 255
173 206 255
173 206 255
172 206 255
172 206 255
172 206 255
172 205 255
172 205 255
172 205 255
172 205 255
172 205 255
171 205 255
171 205 255
171 205 255
171 205 255
171 205 255
171 205 255
171 205 255
171 205 255
170 204 255
170 204 255
170 204 255
170 204 255
170 204 255
170 204 255
170 204 255
170 204 255
170 204 255
169 204 255
169 204 255
169 204 255
169 204 255
169 204 255
169 203 255
169 203 255
168 203 255
168 203 255
168 203 255
168 203 255
168 203 255
168 203 255
168 203 255
168 203 255
167 203 255
167 203 255
167 203 255
167 202 255
167 202 255
167 202 255
167 202 255
167 202 255
166 202 255
166 202 255
166 202 255
166 202 255
166 202 255
166 202 255
166 202 255
166 202 255
165 201 255
165 201 255
165 201 255
165 201 255
165 201 255
165 201 255
165 201 255
165 201 255
164 201 255
164 201 255
164 201 255
164 201 255
164 201 255
164 201 255
164 200 255
164 200 255
164 200 255
163 200 255
163 200 255
163 200 255
163 200 255
163 200 255
163 200 255
163 200 255
163 200 255
163 200 255
162 200 255
162 200 255
162 200 255
162 199 255
162 199 255
162 199 255
162 199 255
162 199 255
162 199 255
162 199 255
161 199 255
161 199 255
161 199 255
161 199 255
161 199 255
161 199 255
161 199 255
161 199 255
161 199 255
161 199 255
161 199 255
161 199 255
161 199 255
160 198 255
160 198 255
160 198 255
160 198 255
160 198 255
160 198 255
160 198 255
160 198 255
160 198 255
160 198 255
160 198 255
160 198 255
160 198 255
160 198 255
160 198 255
160 198 255
160 198 255
160 198 255
160 198 255
160 198 255
160 198 255
160 198 255
160 198 255
160 198 255
160 198 255
160 198 255
160 198 255
160 198 255
160 198 255
160 198 255
160 198 255
160 198 255
160 198 255
160 198 255
160 198 255
160 198 255
160 198 255
160 198 255
160 198 255
160 198 255
160 198 255
160 198 255
160 198 255
160 198 255
160 198 255
160 198 255
160 198 255
160 198 255
160 198 255
160 198 255
160 198 255
160 198 255
160 198 255
160 198 255
160 198 255
160 198 255
160 198 255
160 198 255
161 199 255
161 199 255
161 199 255
161 199 255
161 199 255
161 199 255
161 199 255
161 199 255
161 199 255
161 199 255
161 199 255
161 199 255
161 199 255
162 199 255
162 199 255
162 199 255
162 199 255
162 199 255
162 199 255
162 199 255
162 200 255
162 200 255
162 200 255
163 200 255
163 200 255
163 200 255
163 200 255
163 200 255
163 200 255
163 200 255
163 200 255
163 200 255
164 200 255
164 200 255
164 200 255
164 201 255
164 201 255
164 201 255
164 201 255
164 201 255
164 201 255
165 201 255
165 201 255
165 201 255
165 201 255
165 201 255
165 201 255
165 201 255
165 201 255
166 202 255
166 202 255
166 202 255
166 202 255
166 202 255
166 202 255
166 202 255
166 202 255
167 202 255
167 202 255
167 202 255
167 202 255
167 202 255
167 203 255
167 203 255
167 203 255
168 203 255
168 203 255
168 203 255
168 203 255
168 203 255
168 203 255
168 203 255
169 203 255
169 203 255
169 203 255
169 204 255
169 204 255
169 204 255
169 204 255
169 204 255
170 204 255
170 204 255
170 204 255
170 204 255
170 204 255
170 204 255
170 204 255
170 204 255
171 205 255
171 205 255
171 205 255
171 205 255
171 205 255
171 205 255
171 205 255
171 205 255
171 205 255
172 205 255
172 205 255
172 205 255
172 205 255
172 205 255
172 206 255
172 206 255
172 206 255
173 206 255
173 206 255
173 206 255
173 206 255
173 206 255
173 206 255
173 206 255
173 206 255
173 206 255
174 206 255
174 206 255
174 206 255
174 207 255
174 207 255
174 207 255
174 207 255
174 207 255
174 207 255
174 207 255
175 207 255
175 207 255
175 207 255
175 207 255
175 207 255
175 207 255
175 207 255
175 207 255
175 207 255
176 208 255
176 208 255
176 208 255
176 208 255
176 208 255
176 208 255
176 208 255
176 208 255
176 208 255
176 208 255
176 208 255
177 208 255
177 208 255
177 208 255
177 208 255
177 208 255
177 208 255
177 208 255
177 209 255
177 209 255
177 209 255
177 209 255
178 209 255
178 209 255
178 209 255
178 209 255
178 209 255
178 209 255
178 209 255
178 209 255
178 209 255
178 209 255
178 209 255
178 209 255
179 209 255
179 209 255
179 209 255
179 209 255
179 210 255
179 209 255
179 209 255
179 209 255
179 209 255
178 209 255
178 209 255
178 209 255
178 209 255
178 209 255
178 209 255
178 209 255
178 209 255
178 209 255
178 209 255
178 209 255
178 209 255
177 209 255
177 209 255
177 209 255
177 209 255
177 208 255
177 208 255
177 208 255
177 208 255
177 208 255
177 208 255
177 208 255
176 208 255
176 208 255
176 208 255
176 208 255
176 208 255
176 208 255
176 208 255
176 208 255
176 208 255
176 208 255
176 208 255
175 207 255
175 207 255
175 207 255
175 207 255
175 207 255
175 207 255
175 207 255
175 207 255
175 207 255
175 207 255
174 207 255
174 207 255
174 207 255
174 207 255
174 207 255
174 207 255
174 206 255
174 206 255
174 206 255
173 206 255
173 206 255
173 206 255
173 206 255
173 206 255
173 206 255
173 206 255
173 206 255
173 206 255
172 206 255
172 206 255
172 206 255
172 205 255
172 205 255
172 205 255
172 205 255
172 205 255
171 205 255
171 205 255
171 205 255
171 205 255
171 205 255
171 205 255
171 205 255
171 205 255
170 204 255
170 204 255
170 204 255
170 204 255
170 204 255
170 204 255
170 204 255
170 204 255
169 204 255
169 204 255
169 204 255
169 204 255
169 204 255
169 204 255
169 203 255
169 203 255
168 203 255
168 203 255
168 203 255
168 203 255
168 203 255
168 203 255
168 203 255
168 203 255
167 203 255
167 203 255
167 203 255
167 202 255
167 202 255
167 202 255
167 202 255
167 202 255
166 202 255
166 202 255
166 202 255
166 202 255
166 202 255
166 202 255
166 202 255
166 202 255
165 201 255
165 201 255
165 201 255
165 201 255
165 201 255
165 201 255
165 201 255
165 201 255
164 201 255
164 201 255
164 201 255
164 201 255
164 201 255
164 200 255
164 200 255
164 200 255
163 200 255
163 200 255
163 200 255
163 200 255
163 200 255
163 200 255
163 200 255
163 200 255
163 200 255
162 200 255
162 200 255
162 200 255
162 199 255
162 199 255
162 199 255
162 199 255
162 199 255
162 199 255
162 199 255
161 199 255
161 199 255
161 199 255
161 199 255
161 199 255
161 199 255
161 199 255
161 199 255
161 199 255
161 199 255
161 199 255
161 199 255
161 199 255
160 198 255
160 198 255
160 198 255
160 198 255
160 198 255
160 198 255
160 198 255
160 198 255
160 198 255
160 198 255
160 198 255
160 198 255
160 198 255
160 198 255
160 198 255
160 198 255
160 198 255
160 198 255
160 198 255
160 198 255
160 198 255
160 198 255
160 198 255
160 198 255
160 198 255
160 198 255
160 198 255
160 198 255
160 198 255
160 198 255
160 198 255
160 198 255
160 198 255
160 198 255
160 198 255
160 198 255
160 198 255
160 198 255
160 198 255
160 198 255
160 198 255
160 198 255
160 198 255
160 198 255
160 198 255
160 198 255
160 198 255
160 198 255
160 198 255
160 198 255
160 198 255
160 198 255
160 198 255
160 198 255
160 198 255
160 198 255
160 198 255
160 198 255
161 199 255
161 199 255
161 199 255
161 199 255
161 199 255
161 199 255
161 199 255
161 199 255
161 199 255
161 199 255
161 199 255
161 199 255
161 199 255
162 199 255
162 199 255
162 199 255
162 199 255
162 199 255
162 199 255
162 199 255
162 200 255
162 200 255
162 200 255
163 200 255
163 200 255
163 200 255
163 200 255
163 200 255
163 200 255
163 200 255
163 200 255
163 200 255
164 200 255
164 200 255
164 200 255
164 201 255
164 201 255
164 201 255
164 201 255
164 201 255
165 201 255
165 201 255
165 201 255
165 201 255
165 201 255
165 201 255
165 201 255
165 201 255
166 202 255
166 202 255
166 202 255
166 202 255
166 202 255
166 202 255
166 202 255
166 202 255
167 202 255
167 202 255
167 202 255
167 202 255
167 202 255
167 203 255
167 203 255
167 203 255
168 203 255
168 203 255
168 203 255
168 203 255
168 203 255
168 203 255
168 203 255
168 203 255
169 203 255
169 203 255
169 204 255
169 204 255
169 204 255
169 204 255
169 204 255
169 204 255
170 204 255
170 204 255
170 204 255
170 204 255
170 204 255
170 204 255
170 204 255
170 204 255
171 205 255
171 205 255
171 205 255
171 205 255
171 205 255
171 205 255
171 205 255
171 205 255
172 205 255
172 205 255
172 205 255
172 205 255
172 205 255
172 206 255
172 206 255
172 206 255
173 206 255
173 206 255
173 206 255
173 206 255
173 206 255
173 206 255
173 206 255
173 206 255
173 206 255
174 206 255
174 206 255
174 206 255
174 207 255
174 207 255
174 207 255
174 207 255
174 207 255
174 207 255
175 207 255
175 207 255
175 207 255
175 207 255
175 207 255
175 207 255
175 207 255
175 207 255
175 207 255
175 207 255
176 208 255
176 208 255
176 208 255
176 208 255
176 208 255
176 208 255
176 208 255
176 208 255
176 208 255
176 208 255
176 208 255
177 208 255
177 208 255
177 208 255
177 208 255
177 208 255
177 208 255
177 208 255
177 209 255
177 209 255
177 209 255
177 209 255
178 209 255
178 209 255
178 209 255
178 209 255
178 209 255
178 209 255
178 209 255
178 209 255
178 209 255
178 209 255
178 209 255
178 209 255
179 209 255
179 209 255
179 209 255
179 209 255
179 210 255
179 210 255
179 210 255
179 209 255
179 209 255
179 209 255
179 209 255
179 209 255
178 209 255
178 209 255
178 209 255
178 209 255
178 209 255
178 209 255
178 209 255
178 209 255
178 209 255
178 209 255
178 209 255
178 209 255
177 209 255
177 209 255
177 209 255
177 208 255
177 208 255
177 208 255
177 208 255
177 208 255
177 208 255
177 208 255
177 208 255
176 208 255
176 208 255
176 208 255
176 208 255
176 208 255
176 208 255
176 208 255
176 208 255
176 208 255
176 208 255
175 207 255
175 207 255
175 207 255
175 207 255
175 207 255
175 207 255
175 207 255
175 207 255
175 207 255
175 207 255
174 207 255
174 207 255
174 207 255
174 207 255
174 207 255
174 207 255
174 206 255
174 206 255
174 206 255
173 206 255
173 206 255
173 206 255
173 206 255
173 206 255
173 206 255
173 206 255
173 206 255
173 206 255
172 206 255
172 206 255
172 205 255
172 205 255
172 205 255
172 205 255
172 205 255
172 205 255
171 205 255
171 205 255
171 205 255
171 205 255
171 205 255
171 205 255
171 205 255
171 205 255
170 204 255
170 204 255
170 204 255
170 204 255
170 204 255
170 204 255
170 204 255
170 204 255
169 204 255
169 204 255
169 204 255
169 204 255
169 204 255
169 203 255
169 203 255
169 203 255
168 203 255
168 203 255
168 203 255
168 203 255
168 203 255
168 203 255
168 203 255
168 203 255
167 203 255
167 203 255
167 202 255
167 202 255
167 202 255
167 202 255
167 202 255
166 202 255
166 202 255
166 202 255
166 202 255
166 202 255
166 202 255
166 202 255
166 202 255
165 201 255
165 201 255
165 201 255
165 201 255
165 201 255
165 201 255
165 201 255
165 201 255
164 201 255
164 201 255
164 201 255
164 201 255
164 201 255
164 201 255
164 200 255
164 200 255
164 200 255
163 200 255
163 200 255
163 200 255
163 200 255
163 200 255
163 200 255
163 200 255
163 200 255
163 200 255
162 200 255
162 200 255
162 200 255
162 199 255
162 199 255
162 199 255
162 199 255
162 199 255
162 199 255
162 199 255
161 199 255
161 199 255
161 199 255
161 199 255
161 199 255
161 199 255
161 199 255
161 199 255
161 199 255
161 199 255
161 199 255
161 199 255
160 198 255
160 198 255
160 198 255
160 198 255
160 198 255
160 198 255
160 198 255
160 198 255
160 198 255
160 198 255
160 198 255
160 198 255
160 198 255
160 198 255
160 198 255
160 198 255
160 198 255
160 198 255
160 198 255
160 198 255
160 198 255
160 198 255
160 198 255
160 198 255
160 198 255
160 198 255
160 198 255
160 198 255
160 198 255
160 198 255
160 198 255
160 198 255
160 198 255
160 198 255
160 198 255
160 198 255
160 198 255
160 198 255
160 198 255
160 198 255
160 198 255
160 198 255
160 198 255
160 198 255
160 198 255
160 198 255
160 198 255
160 198 255
160 198 255
160 198 255
160 198 255
160 198 255
160 198 255
160 198 255
160 198 255
160 198 255
160 198 255
160 198 255
161 199 255
161 199 255
161 199 255
161 199 255
161 199 255
161 199 255
161 199 255
161 199 255
161 199 255
161 199 255
161 199 255
161 199 255
162 199 255
162 199 255
162 199 255
162 199 255
162 199 255
162 199 255
162 199 255
162 200 255
162 200 255
162 200 255
163 200 255
163 200 255
163 200 255
163 200 255
163 200 255
163 200 255
163 200 255
163 200 255
163 200 255
164 200 255
164 200 255
164 200 255
164 201 255
164 201 255
164 201 255
164 201 255
164 201 255
164 201 255
165 201 255
165 201 255
165 201 255
165 201 255
165 201 255
165 201 255
165 201 255
165 201 255
166 202 255
166 202 255
166 202 255
166 202 255
166 202 255
166 202 255
166 202 255
166 202 255
167 202 255
167 202 255
167 202 255
167 202 255
167 202 255
167 203 255
167 203 255
168 203 255
168 203 255
168 203 255
168 203 255
168 203 255
168 203 255
168 203 255
168 203 255
169 203 255
169 203 255
169 203 255
169 204 255
169 204 255
169 204 255
169 204 255
169 204 255
170 204 255
170 204 255
170 204 255
170 204 255
170 204 255
170 204 255
170 204 255
170 204 255
171 205 255
171 205 255
171 205 255
171 205 255
171 205 255
171 205 255
171 205 255
171 205 255
172 205 255
172 205 255
172 205 255
172 205 255
172 205 255
172 206 255
172 206 255
172 206 255
173 206 255
173 206 255
173 206 255
173 206 255
173 206 255
173 206 255
173 206 255
173 206 255
173 206 255
174 206 255
174 206 255
174 206 255
174 207 255
174 207 255
174 207 255
174 207 255
174 207 255
174 207 255
175 207 255
175 207 255
175 207 255
175 207 255
175 207 255
175 207 255
175 207 255
175 207 255
175 207 255
175 207 255
176 208 255
176 208 255
176 208 255
176 208 255
176 208 255
176 208 255
176 208 255
176 208 255
176 208 255
176 208 255
177 208 255
177 208 255
177 208 255
177 208 255
177 208 255
177 208 255
177 208 255
177 208 255
177 209 255
177 209 255
177 209 255
178 209 255
178 209 255
178 209 255
178 209 255
178 209 255
178 209 255
178 209 255
178 209 255
178 209 255
178 209 255
178 209 255
178 209 255
179 209 255
179 209 255
179 209 255
179 209 255
179 209 255
179 210 255
179 210 255
179 210 255
179 210 255
179 210 255
179 210 255
179 209 255
179 209 255
179 209 255
179 209 255
178 209 255
178 209 255
178 209 255
178 209 255
178 209 255
178 209 255
178 209 255
178 209 255
178 209 255
178 209 255
178 209 255
178 209 255
177 209 255
177 209 255
177 209 255
177 209 255
177 208 255
177 208 255
177 208 255
177 208 255
177 208 255
177 208 255
177 208 255
176 208 255
176 208 255
176 208 255
176 208 255
176 208 255
176 208 255
176 208 255
176 208 255
176 208 255
176 208 255
175 207 255
175 207 255
175 207 255
175 207 255
175 207 255
175 207 255
175 207 255
175 207 255
175 207 255
175 207 255
174 207 255
174 207 255
174 207 255
174 207 255
174 207 255
174 207 255
174 206 255
174 206 255
174 206 255
173 206 255
173 206 255
173 206 255
173 206 255
173 206 255
173 206 255
173 206 255
173 206 255
173 206 255
172 206 255
172 206 255
172 205 255
172 205 255
172 205 255
172 205 255
172 205 255
172 205 255
171 205 255
171 205 255
171 205 255
171 205 255
171 205 255
171 205 255
171 205 255
171 205 255
170 204 255
170 204 255
170 204 255
170 204 255
170 204 255
170 204 255
170 204 255
170 204 255
169 204 255
169 204 255
169 204 255
169 204 255
169 204 255
169 203 255
169 203 255
169 203 255
168 203 255
168 203 255
168 203 255
168 203 255
168 203 255
168 203 255
168 203 255
167 203 255
167 203 255
167 203 255
167 202 255
167 202 255
167 202 255
167 202 255
167 202 255
166 202 255
166 202 255
166 202 255
166 202 255
166 202 255
166 202 255
166 202 255
166 202 255
165 201 255
165 201 255
165 201 255
165 201 255
165 201 255
165 201 255
165 201 255
165 201 255
164 201 255
164 201 255
164 201 255
164 201 255
164 201 255
164 200 255
164 200 255
164 200 255
163 200 255
163 200 255
163 200 255
163 200 255
163 200 255
163 200 255
163 200 255
163 200 255
163 200 255
162 200 255
162 200 255
162 200 255
162 199 255
162 199 255
162 199 255
162 199 255
162 199 255
162 199 255
162 199 255
161 199 255
161 199 255
161 199 255
161 199 255
161 199 255
161 199 255
161 199 255
161 199 255
161 199 255
161 199 255
161 199 255
161 199 255
160 198 255
160 198 255
160 198 255
160 198 255
160 198 255
160 198 255
160 198 255
160 198 255
160 198 255
160 198 255
160 198 255
160 198 255
160 198 255
160 198 255
160 198 255
160 198 255
160 198 255
160 198 255
160 198 255
160 198 255
160 198 255
160 198 255
160 198 255
160 198 255
160 198 255
160 198 255
160 198 255
160 198 255
160 198 255
160 198 255
160 198 255
160 198 255
160 198 255
160 198 255
160 198 255
160 198 255
160 198 255
160 198 255
160 198 255
160 198 255
160 198 255
160 198 255
160 198 255
160 198 255
160 198 255
160 198 255
160 198 255
160 198 255
160 198 255
160 198 255
160 198 255
160 198 255
160 198 255
160 198 255
160 198 255
160 198 255
160 198 255
160 198 255
161 199 255
161 199 255
161 199 255
161 199 255
161 199 255
161 199 255
161 199 255
161 199 255
161 199 255
161 199 255
161 199 255
161 199 255
162 199 255
162 199 255
162 199 255
162 199 255
162 199 255
162 199 255
162 199 255
162 200 255
162 200 255
162 200 255
163 200 255
163 200 255
163 200 255
163 200 255
163 200 255
163 200 255
163 200 255
163 200 255
163 200 255
164 200 255
164 200 255
164 200 255
164 201 255
164 201 255
164 201 255
164 201 255
164 201 255
165 201 255
165 201 255
165 201 255
165 201 255
165 201 255
165 201 255
165 201 255
165 201 255
166 202 255
166 202 255
166 202 255
166 202 255
166 202 255
166 202 255
166 202 255
166 202 255
167 202 255
167 202 255
167 202 255
167 202 255
167 202 255
167 203 255
167 203 255
167 203 255
168 203 255
168 203 255
168 203 255
168 203 255
168 203 255
168 203 255
168 203 255
169 203 255
169 203 255
169 203 255
169 204 255
169 204 255
169 204 255
169 204 255
169 204 255
170 204 255
170 204 255
170 204 255
170 204 255
170 204 255
170 204 255
170 204 255
170 204 255
171 205 255
171 205 255
171 205 255
171 205 255
171 205 255
171 205 255
171 205 255
171 205 255
172 205 255
172 205 255
172 205 255
172 205 255
172 205 255
172 205 255
172 206 255
172 206 255
173 206 255
173 206 255
173 206 255
173 206 255
173 206 255
173 206 255
173 206 255
173 206 255
173 206 255
174 206 255
174 206 255
174 206 255
174 207 255
174 207 255
174 207 255
174 207 255
174 207 255
174 207 255
175 207 255
175 207 255
175 207 255
175 207 255
175 207 255
175 207 255
175 207 255
175 207 255
175 207 255
175 207 255
176 208 255
176 208 255
176 208 255
176 208 255
176 208 255
176 208 255
176 208 255
176 208 255
176 208 255
176 208 255
177 208 255
177 208 255
177 208 255
177 208 255
177 208 255
177 208 255
177 208 255
177 209 255
177 209 255
177 209 255
177 209 255
178 209 255
178 209 255
178 209 255
178 209 255
178 209 255
178 209 255
178 209 255
178 209 255
178 209 255
178 209 255
178 209 255
178 209 255
179 209 255
179 209 255
179 209 255
179 209 255
179 210 255
179 210 255
179 210 255
179 210 255
179 210 255
179 210 255
179 210 255
179 210 255
179 210 255
179 209 255
179 209 255
179 209 255
179 209 255
179 209 255
178 209 255
178 209 255
178 209 255
178 209 255
178 209 255
178 209 255
178 209 255
178 209 255
178 209 255
178 209 255
178 209 255
177 209 255
177 209 255
177 209 255
177 209 255
177 208 255
177 208 255
177 208 255
177 208 255
177 208 255
177 208 255
177 208 255
176 208 255
176 208 255
176 208 255
176 208 255
176 208 255
176 208 255
176 208 255
176 208 255
176 208 255
176 208 255
176 208 255
175 207 255
175 207 255
175 207 255
175 207 255
175 207 255
175 207 255
175 207 255
175 207 255
175 207 255
174 207 255
174 207 255
174 207 255
174 207 255
174 207 255
174 207 255
174 206 255
174 206 255
174 206 255
173 206 255
173 206 255
173 206 255
173 206 255
173 206 255
173 206 255
173 206 255
173 206 255
173 206 255
172 206 255
172 206 255
172 206 255
172 205 255
172 205 255
172 205 255
172 205 255
172 205 255
171 205 255
171 205 255
171 205 255
171 205 255
171 205 255
171 205 255
171 205 255
171 205 255
170 204 255
170 204 255
170 204 255
170 204 255
170 204 255
170 204 255
170 204 255
170 204 255
169 204 255
169 204 255
169 204 255
169 204 255
169 204 255
169 203 255
169 203 255
169 203 255
168 203 255
168 203 255
168 203 255
168 203 255
168 203 255
168 203 255
168 203 255
167 203 255
167 203 255
167 203 255
167 202 255
167 202 255
167 202 255
167 202 255
167 202 255
166 202 255
166 202 255
166 202 255
166 202 255
166 202 255
166 202 255
166 202 255
165 201 255
165 201 255
165 201 255
165 201 255
165 201 255
165 201 255
165 201 255
165 201 255
164 201 255
164 201 255
164 201 255
164 201 255
164 201 255
164 201 255
164 200 255
164 200 255
164 200 255
163 200 255
163 200 255
163 200 255
163 200 255
163 200 255
163 200 255
163 200 255
163 200 255
162 200 255
162 200 255
162 200 255
162 200 255
162 199 255
162 199 255
162 199 255
162 199 255
162 199 255
162 199 255
161 199 255
161 199 255
161 199 255
161 199 255
161 199 255
161 199 255
161 199 255
161 199 255
161 199 255
161 199 255
161 199 255
161 199 255
161 199 255
160 198 255
160 198 255
160 198 255
160 198 255
160 198 255
160 198 255
160 198 255
160 198 255
160 198 255
160 198 255
160 198 255
160 198 255
160 198 255
160 198 255
160 198 255
160 198 255
160 198 255
160 198 255
160 198 255
160 198 255
160 198 255
160 198 255
160 198 255
160 198 255
160 198 255
160 198 255
160 198 255
160 198 255
160 198 255
160 198 255
160 198 255
160 198 255
160 198 255
160 198 255
160 198 255
160 198 255
160 198 255
160 198 255
160 198 255
160 198 255
160 198 255
160 198 255
160 198 255
160 198 255
160 198 255
160 198 255
160 198 255
160 198 255
160 198 255
160 198 255
160 198 255
160 198 255
160 198 255
160 198 255
160 198 255
160 198 255
161 199 255
161 199 255
161 199 255
161 199 255
161 199 255
161 199 255
161 199 255
161 199 255
161 199 255
161 199 255
161 199 255
161 199 255
161 199 255
162 199 255
162 199 255
162 199 255
162 199 255
162 199 255
162 199 255
162 200 255
162 200 255
162 200 255
162 200 255
163 200 255
163 200 255
163 200 255
163 200 255
163 200 255
163 200 255
163 200 255
163 200 255
163 200 255
164 200 255
164 200 255
164 201 255
164 201 255
164 201 255
164 201 255
164 201 255
164 201 255
165 201 255
165 201 255
165 201 255
165 201 255
165 201 255
165 201 255
165 201 255
165 201 255
166 202 255
166 202 255
166 202 255
166 202 255
166 202 255
166 202 255
166 202 255
167 202 255
167 202 255
167 202 255
167 202 255
167 202 255
167 203 255
167 203 255
167 203 255
168 203 255
168 203 255
168 203 255
168 203 255
168 203 255
168 203 255
168 203 255
168 203 255
169 203 255
169 203 255
169 204 255
169 204 255
169 204 255
169 204 255
169 204 255
170 204 255
170 204 255
170 204 255
170 204 255
170 204 255
170 204 255
170 204 255
170 204 255
171 205 255
171 205 255
171 205 255
171 205 255
171 205 255
171 205 255
171 205 255
171 205 255
172 205 255
172 205 255
172 205 255
172 205 255
172 205 255
172 206 255
172 206 255
172 206 255
173 206 255
173 206 255
173 206 255
173 206 255
173 206 255
173 206 255
173 206 255
173 206 255
173 206 255
174 206 255
174 206 255
174 206 255
174 207 255
174 207 255
174 207 255
174 207 255
174 207 255
174 207 255
175 207 255
175 207 255
175 207 255
175 207 255
175 207 255
175 207 255
175 207 255
175 207 255
175 207 255
176 208 255
176 208 255
176 208 255
176 208 255
176 208 255
176 208 255
176 208 255
176 208 255
176 208 255
176 208 255
176 208 255
177 208 255
177 208 255
177 208 255
177 208 255
177 208 255
177 208 255
177 208 255
177 209 255
177 209 255
177 209 255
177 209 255
178 209 255
178 209 255
178 209 255
178 209 255
178 209 255
178 209 255
178 209 255
178 209 255
178 209 255
178 209 255
178 209 255
179 209 255
179 209 255
179 209 255
179 209 255
179 209 255
179 210 255
179 210 255
179 210 255
179 210 255
179 210 255
179 210 255
179 210 255
179 210 255
179 210 255
179 210 255
179 210 255
179 210 255
179 209 255
179 209 255
179 209 255
179 209 255
178 209 255
178 209 255
178 209 255
178 209 255
178 209 255
178 209 255
178 209 255
178 209 255
178 209 255
178 209 255
178 209 255
178 209 255
177 209 255
177 209 255
177 209 255
177 209 255
177 208 255
177 208 255
177 208 255
177 208 255
177 208 255
177 208 255
177 208 255
176 208 255
176 208 255
176 208 255
176 208 255
176 208 255
176 208 255
176 208 255
176 208 255
176 208 255
176 208 255
175 207 255
175 207 255
175 207 255
175 207 255
175 207 255
175 207 255
175 207 255
175 207 255
175 207 255
174 207 255
174 207 255
174 207 255
174 207 255
174 207 255
174 207 255
174 206 255
174 206 255
174 206 255
173 206 255
173 206 255
173 206 255
173 206 255
173 206 255
173 206 255
173 206 255
173 206 255
173 206 255
172 206 255
172 206 255
172 206 255
172 205 255
172 205 255
172 205 255
172 205 255
172 205 255
171 205 255
171 205 255
171 205 255
171 205 255
171 205 255
171 205 255
171 205 255
171 205 255
170 204 255
170 204 255
170 204 255
170 204 255
170 204 255
170 204 255
170 204 255
170 204 255
169 204 255
169 204 255
169 204 255
169 204 255
169 204 255
169 203 255
169 203 255
168 203 255
168 203 255
168 203 255
168 203 255
168 203 255
168 203 255
168 203 255
168 203 255
167 203 255
167 203 255
167 202 255
167 202 255
167 202 255
167 202 255
167 202 255
166 202 255
166 202 255
166 202 255
166 202 255
166 202 255
166 202 255
166 202 255
166 202 255
165 201 255
165 201 255
165 201 255
165 201 255
165 201 255
165 201 255
165 201 255
165 201 255
164 201 255
164 201 255
164 201 255
164 201 255
164 201 255
164 200 255
164 200 255
164 200 255
163 200 255
163 200 255
163 200 255
163 200 255
163 200 255
163 200 255
163 200 255
163 200 255
163 200 255
162 200 255
162 200 255
162 200 255
162 199 255
162 199 255
162 199 255
162 199 255
162 199 255
162 199 255
162 199 255
161 199 255
161 199 255
161 199 255
161 199 255
161 199 255
161 199 255
161 199 255
161 199 255
161 199 255
161 199 255
161 199 255
161 199 255
160 198 255
160 198 255
160 198 255
160 198 255
160 198 255
160 198 255
160 198 255
160 198 255
160 198 255
160 198 255
160 198 255
160 198 255
160 198 255
160 198 255
160 198 255
160 198 255
160 198 255
160 198 255
160 198 255
160 198 255
160 198 255
160 198 255
160 198 255
160 198 255
160 198 255
160 198 255
160 198 255
160 198 255
160 198 255
160 198 255
160 198 255
160 198 255
160 198 255
160 198 255
160 198 255
160 198 255
160 198 255
160 198 255
160 198 255
160 198 255
160 198 255
160 198 255
160 198 255
160 198 255
160 198 255
160 198 255
160 198 255
160 198 255
160 198 255
160 198 255
160 198 255
160 198 255
160 198 255
160 198 255
160 198 255
160 198 255
161 199 255
161 199 255
161 199 255
161 199 255
161 199 255
161 199 255
161 199 255
161 199 255
161 199 255
161 199 255
161 199 255
161 199 255
162 199 255
162 199 255
162 199 255
162 199 255
162 199 255
162 199 255
162 199 255
162 200 255
162 200 255
162 200 255
163 200 255
163 200 255
163 200 255
163 200 255
163 200 255
163 200 255
163 200 255
163 200 255
163 200 255
164 200 255
164 200 255
164 200 255
164 201 255
164 201 255
164 201 255
164 201 255
164 201 255
165 201 255
165 201 255
165 201 255
165 201 255
165 201 255
165 201 255
165 201 255
165 201 255
166 202 255
166 202 255
166 202 255
166 202 255
166 202 255
166 202 255
166 202 255
166 202 255
167 202 255
167 202 255
167 202 255
167 202 255
167 202 255
167 203 255
167 203 255
168 203 255
168 203 255
168 203 255
168 203 255
168 203 255
168 203 255
168 203 255
168 203 255
169 203 255
169 203 255
169 204 255
169 204 255
169 204 255
169 204 255
169 204 255
170 204 255
170 204 255
170 204 255
170 204 255
170 204 255
170 204 255
170 204 255
170 204 255
171 205 255
171 205 255
171 205 255
171 205 255
171 205 255
171 205 255
171 205 255
171 205 255
172 205 255
172 205 255
172 205 255
172 205 255
172 205 255
172 206 255
172 206 255
172 206 255
173 206 255
173 206 255
173 206 255
173 206 255
173 206 255
173 206 255
173 206 255
173 206 255
173 206 255
174 206 255
174 206 255
174 206 255
174 207 255
174 207 255
174 207 255
174 207 255
174 207 255
174 207 255
175 207 255
175 207 255
175 207 255
175 207 255
175 207 255
175 207 255
175 207 255
175 207 255
175 207 255
176 208 255
176 208 255
176 208 255
176 208 255
176 208 255
176 208 255
176 208 255
176 208 255
176 208 255
176 208 255
177 208 255
177 208 255
177 208 255
177 208 255
177 208 255
177 208 255
177 208 255
177 209 255
177 209 255
177 209 255
177 209 255
178 209 255
178 209 255
178 209 255
178 209 255
178 209 255
178 209 255
178 209 255
178 209 255
178 209 255
178 209 255
178 209 255
178 209 255
179 209 255
179 209 255
179 209 255
179 209 255
179 210 255
179 210 255
179 210 255
179 210 255
179 210 255
179 210 255
179 210 255
179 210 255
179 210 255
179 210 255
179 210 255
179 210 255
179 210 255
179 210 255
179 210 255
179 210 255
179 209 255
179 209 255
179 209 255
179 209 255
178 209 255
178 209 255
178 209 255
178 209 255
178 209 255
178 209 255
178 209 255
178 209 255
178 209 255
178 209 255
178 209 255
177 209 255
177 209 255
177 209 255
177 209 255
177 208 255
177 208 255
177 208 255
177 208 255
177 208 255
177 208 255
177 208 255
176 208 255
176 208 255
176 208 255
176 208 255
176 208 255
176 208 255
176 208 255
176 208 255
176 208 255
176 208 255
175 207 255
175 207 255
175 207 255
175 207 255
175 207 255
175 207 255
175 207 255
175 207 255
175 207 255
175 207 255
174 207 255
174 207 255
174 207 255
174 207 255
174 207 255
174 207 255
174 206 255
174 206 255
174 206 255
173 206 255
173 206 255
173 206 255
173 206 255
173 206 255
173 206 255
173 206 255
173 206 255
172 206 255
172 206 255
172 206 255
172 205 255
172 205 255
172 205 255
172 205 255
172 205 255
171 205 255
171 205 255
171 205 255
171 205 255
171 205 255
171 205 255
171 205 255
171 205 255
170 204 255
170 204 255
170 204 255
170 204 255
170 204 255
170 204 255
170 204 255
170 204 255
169 204 255
169 204 255
169 204 255
169 204 255
169 204 255
169 203 255
169 203 255
168 203 255
168 203 255
168 203 255
168 203 255
168 203 255
168 203 255
168 203 255
168 203 255
167 203 255
167 203 255
167 202 255
167 202 255
167 202 255
167 202 255
167 202 255
166 202 255
166 202 255
166 202 255
166 202 255
166 202 255
166 202 255
166 202 255
166 202 255
165 201 255
165 201 255
165 201 255
165 201 255
165 201 255
165 201 255
165 201 255
165 201 255
164 201 255
164 201 255
164 201 255
164 201 255
164 201 255
164 200 255
164 200 255
164 200 255
163 200 255
163 200 255
163 200 255
163 200 255
163 200 255
163 200 255
163 200 255
163 200 255
163 200 255
162 200 255
162 200 255
162 200 255
162 199 255
162 199 255
162 199 255
162 199 255
162 199 255
162 199 255
161 199 255
161 199 255
161 199 255
161 199 255
161 199 255
161 199 255
161 199 255
161 199 255
161 199 255
161 199 255
161 199 255
161 199 255
161 199 255
160 198 255
160 198 255
160 198 255
160 198 255
160 198 255
160 198 255
160 198 255
160 198 255
160 198 255
160 198 255
160 198 255
160 198 255
160 198 255
160 198 255
160 198 255
160 198 255
160 198 255
160 198 255
160 198 255
160 198 255
160 198 255
160 198 255
160 198 255
160 198 255
160 198 255
160 198 255
160 198 255
160 198 255
160 198 255
160 198 255
160 198 255
160 198 255
160 198 255
160 198 255
160 198 255
160 198 255
160 198 255
160 198 255
160 198 255
160 198 255
160 198 255
160 198 255
160 198 255
160 198 255
160 198 255
160 198 255
160 198 255
160 198 255
160 198 255
160 198 255
160 198 255
160 198 255
160 198 255
160 198 255
161 199 255
161 199 255
161 199 255
161 199 255
161 199 255
161 199 255
161 199 255
161 199 255
161 199 255
161 199 255
161 199 255
161 199 255
161 199 255
162 199 255
162 199 255
162 199 255
162 199 255
162 199 255
162 199 255
162 200 255
162 200 255
162 200 255
163 200 255
163 200 255
163 200 255
163 200 255
163 200 255
163 200 255
163 200 255
163 200 255
163 200 255
164 200 255
164 200 255
164 200 255
164 201 255
164 201 255
164 201 255
164 201 255
164 201 255
165 201 255
165 201 255
165 201 255
165 201 255
165 201 255
165 201 255
165 201 255
165 201 255
166 202 255
166 202 255
166 202 255
166 202 255
166 202 255
166 202 255
166 202 255
166 202 255
167 202 255
167 202 255
167 202 255
167 202 255
167 202 255
167 203 255
167 203 255
168 203 255
168 203 255
168 203 255
168 203 255
168 203 255
168 203 255
168 203 255
168 203 255
169 203 255
169 203 255
169 204 255
169 204 255
169 204 255
169 204 255
169 204 255
170 204 255
170 204 255
170 204 255
170 204 255
170 204 255
170 204 255
170 204 255
170 204 255
171 205 255
171 205 255
171 205 255
171 205 255
171 205 255
171 205 255
171 205 255
171 205 255
172 205 255
172 205 255
172 205 255
172 205 255
172 205 255
172 206 255
172 206 255
172 206 255
173 206 255
173 206 255
173 206 255
173 206 255
173 206 255
173 206 255
173 206 255
173 206 255
173 206 255
174 206 255
174 206 255
174 206 255
174 207 255
174 207 255
174 207 255
174 207 255
174 207 255
175 207 255
175 207 255
175 207 255
175 207 255
175 207 255
175 207 255
175 207 255
175 207 255
175 207 255
175 207 255
176 208 255
176 208 255
176 208 255
176 208 255
176 208 255
176 208 255
176 208 255
176 208 255
176 208 255
176 208 255
177 208 255
177 208 255
177 208 255
177 208 255
177 208 255
177 208 255
177 208 255
177 209 255
177 209 255
177 209 255
177 209 255
178 209 255
178 209 255
178 209 255
178 209 255
178 209 255
178 209 255
178 209 255
178 209 255
178 209 255
178 209 255
178 209 255
179 209 255
179 209 255
179 209 255
179 209 255
179 210 255
179 210 255
179 210 255
179 210 255
179 210 255
179 210 255
179 210 255
179 210 255
179 210 255
180 210 255
180 210 255
179 210 255
179 210 255
179 210 255
179 210 255
179 210 255
179 210 255
179 210 255
179 210 255
179 209 255
179 209 255
179 209 255
179 209 255
178 209 255
178 209 255
178 209 255
178 209 255
178 209 255
178 209 255
178 209 255
178 209 255
178 209 255
178 209 255
178 209 255
178 209 255
177 209 255
177 209 255
177 209 255
177 209 255
177 208 255
177 208 255
177 208 255
177 208 255
177 208 255
177 208 255
177 208 255
176 208 255
176 208 255
176 208 255
176 208 255
176 208 255
176 208 255
176 208 255
176 208 255
176 208 255
176 208 255
175 207 255
175 207 255
175 207 255
175 207 255
175 207 255
175 207 255
175 207 255
175 207 255
175 207 255
174 207 255
174 207 255
174 207 255
174 207 255
174 207 255
174 207 255
174 206 255
174 206 255
174 206 255
173 206 255
173 206 255
173 206 255
173 206 255
173 206 255
173 206 255
173 206 255
173 206 255
172 206 255
172 206 255
172 206 255
172 205 255
172 205 255
172 205 255
172 205 255
172 205 255
171 205 255
171 205 255
171 205 255
171 205 255
171 205 255
171 205 255
171 205 255
171 205 255
170 204 255
170 204 255
170 204 255
170 204 255
170 204 255
170 204 255
170 204 255
170 204 255
169 204 255
169 204 255
169 204 255
169 204 255
169 204 255
169 203 255
169 203 255
168 203 255
168 203 255
168 203 255
168 203 255
168 203 255
168 203 255
168 203 255
168 203 255
167 203 255
167 203 255
167 202 255
167 202 255
167 202 255
167 202 255
167 202 255
166 202 255
166 202 255
166 202 255
166 202 255
166 202 255
166 202 255
166 202 255
166 202 255
165 201 255
165 201 255
165 201 255
165 201 255
165 201 255
165 201 255
165 201 255
164 201 255
164 201 255
164 201 255
164 201 255
164 201 255
164 201 255
164 200 255
164 200 255
163 200 255
163 200 255
163 200 255
163 200 255
163 200 255
163 200 255
163 200 255
163 200 255
163 200 255
162 200 255
162 200 255
162 200 255
162 199 255
162 199 255
162 199 255
162 199 255
162 199 255
162 199 255
162 199 255
161 199 255
161 199 255
161 199 255
161 199 255
161 199 255
161 199 255
161 199 255
161 199 255
161 199 255
161 199 255
161 199 255
161 199 255
160 198 255
160 198 255
160 198 255
160 198 255
160 198 255
160 198 255
160 198 255
160 198 255
160 198 255
160 198 255
160 198 255
160 198 255
160 198 255
160 198 255
160 198 255
160 198 255
160 198 255
160 198 255
160 198 255
160 198 255
160 198 255
160 198 255
160 198 255
160 198 255
160 198 255
160 198 255
160 198 255
160 198 255
160 198 255
160 198 255
160 198 255
160 198 255
160 198 255
160 198 255
160 198 255
160 198 255
160 198 255
160 198 255
160 198 255
160 198 255
160 198 255
160 198 255
160 198 255
160 198 255
160 198 255
160 198 255
160 198 255
160 198 255
160 198 255
160 198 255
160 198 255
160 198 255
160 198 255
161 199 255
161 199 255
161 199 255
161 199 255
161 199 255
161 199 255
161 199 255
161 199 255
161 199 255
161 199 255
161 199 255
161 199 255
161 199 255
162 199 255
162 199 255
162 199 255
162 199 255
162 199 255
162 199 255
162 199 255
162 200 255
162 200 255
162 200 255
163 200 255
163 200 255
163 200 255
163 200 255
163 200 255
163 200 255
163 200 255
163 200 255
163 200 255
164 200 255
164 200 255
164 201 255
164 201 255
164 201 255
164 201 255
164 201 255
164 201 255
165 201 255
165 201 255
165 201 255
165 201 255
165 201 255
165 201 255
165 201 255
166 202 255
166 202 255
166 202 255
166 202 255
166 202 255
166 202 255
166 202 255
166 202 255
167 202 255
167 202 255
167 202 255
167 202 255
167 202 255
167 203 255
167 203 255
168 203 255
168 203 255
168 203 255
168 203 255
168 203 255
168 203 255
168 203 255
168 203 255
169 203 255
169 203 255
169 204 255
169 204 255
169 204 255
169 204 255
169 204 255
170 204 255
170 204 255
170 204 255
170 204 255
170 204 255
170 204 255
170 204 255
170 204 255
171 205 255
171 205 255
171 205 255
171 205 255
171 205 255
171 205 255
171 205 255
171 205 255
172 205 255
172 205 255
172 205 255
172 205 255
172 205 255
172 206 255
172 206 255
172 206 255
173 206 255
173 206 255
173 206 255
173 206 255
173 206 255
173 206 255
173 206 255
173 206 255
174 206 255
174 206 255
174 206 255
174 207 255
174 207 255
174 207 255
174 207 255
174 207 255
174 207 255
175 207 255
175 207 255
175 207 255
175 207 255
175 207 255
175 207 255
175 207 255
175 207 255
175 207 255
176 208 255
176 208 255
176 208 255
176 208 255
176 208 255
176 208 255
176 208 255
176 208 255
176 208 255
176 208 255
177 208 255
177 208 255
177 208 255
177 208 255
177 208 255
177 208 255
177 208 255
177 209 255
177 209 255
177 209 255
177 209 255
178 209 255
178 209 255
178 209 255
178 209 255
178 209 255
178 209 255
178 209 255
178 209 255
178 209 255
178 209 255
178 209 255
178 209 255
179 209 255
179 209 255
179 209 255
179 209 255
179 210 255
179 210 255
179 210 255
179 210 255
179 210 255
179 210 255
179 210 255
179 210 255
180 210 255
180 210 255
180 210 255
180 210 255
180 210 255
180 210 255
179 210 255
179 210 255
179 210 255
179 210 255
179 210 255
179 210 255
179 210 255
179 210 255
179 209 255
179 209 255
179 209 255
179 209 255
178 209 255
178 209 255
178 209 255
178 209 255
178 209 255
178 209 255
178 209 255
178 209 255
178 209 255
178 209 255
178 209 255
178 209 255
177 209 255
177 209 255
177 209 255
177 208 255
177 208 255
177 208 255
177 208 255
177 208 255
177 208 255
177 208 255
176 208 255
176 208 255
176 208 255
176 208 255
176 208 255
176 208 255
176 208 255
176 208 255
176 208 255
176 208 255
175 207 255
175 207 255
175 207 255
175 207 255
175 207 255
175 207 255
175 207 255
175 207 255
175 207 255
174 207 255
174 207 255
174 207 255
174 207 255
174 207 255
174 207 255
174 206 255
174 206 255
174 206 255
173 206 255
173 206 255
173 206 255
173 206 255
173 206 255
173 206 255
173 206 255
173 206 255
172 206 255
172 206 255
172 206 255
172 205 255
172 205 255
172 205 255
172 205 255
172 205 255
171 205 255
171 205 255
171 205 255
171 205 255
171 205 255
171 205 255
171 205 255
171 205 255
170 204 255
170 204 255
170 204 255
170 204 255
170 204 255
170 204 255
170 204 255
170 204 255
169 204 255
169 204 255
169 204 255
169 204 255
169 204 255
169 203 255
169 203 255
168 203 255
168 203 255
168 203 255
168 203 255
168 203 255
168 203 255
168 203 255
168 203 255
167 203 255
167 203 255
167 202 255
167 202 255
167 202 255
167 202 255
167 202 255
166 202 255
166 202 255
166 202 255
166 202 255
166 202 255
166 202 255
166 202 255
165 201 255
165 201 255
165 201 255
165 201 255
165 201 255
165 201 255
165 201 255
165 201 255
164 201 255
164 201 255
164 201 255
164 201 255
164 201 255
164 200 255
164 200 255
164 200 255
163 200 255
163 200 255
163 200 255
163 200 255
163 200 255
163 200 255
163 200 255
163 200 255
163 200 255
162 200 255
162 200 255
162 200 255
162 199 255
162 199 255
162 199 255
162 199 255
162 199 255
162 199 255
162 199 255
161 199 255
161 199 255
161 199 255
161 199 255
161 199 255
161 199 255
161 199 255
161 199 255
161 199 255
161 199 255
161 199 255
161 199 255
160 198 255
160 198 255
160 198 255
160 198 255
160 198 255
160 198 255
160 198 255
160 198 255
160 198 255
160 198 255
160 198 255
160 198 255
160 198 255
160 198 255
160 198 255
160 198 255
160 198 255
160 198 255
160 198 255
160 198 255
160 198 255
160 198 255
160 198 255
160 198 255
160 198 255
160 198 255
160 198 255
160 198 255
160 198 255
160 198 255
160 198 255
160 198 255
160 198 255
160 198 255
160 198 255
160 198 255
160 198 255
160 198 255
160 198 255
160 198 255
160 198 255
160 198 255
160 198 255
160 198 255
160 198 255
160 198 255
160 198 255
160 198 255
160 198 255
160 198 255
160 198 255
160 198 255
161 199 255
161 199 255
161 199 255
161 199 255
161 199 255
161 199 255
161 199 255
161 199 255
161 199 255
161 199 255
161 199 255
161 199 255
162 199 255
162 199 255
162 199 255
162 199 255
162 199 255
162 199 255
162 199 255
162 200 255
162 200 255
162 200 255
163 200 255
163 200 255
163 200 255
163 200 255
163 200 255
163 200 255
163 200 255
163 200 255
163 200 255
164 200 255
164 200 255
164 200 255
164 201 255
164 201 255
164 201 255
164 201 255
164 201 255
165 201 255
165 201 255
165 201 255
165 201 255
165 201 255
165 201 255
165 201 255
166 202 255
166 202 255
166 202 255
166 202 255
166 202 255
166 202 255
166 202 255
166 202 255
167 202 255
167 202 255
167 202 255
167 202 255
167 202 255
167 203 255
167 203 255
168 203 255
168 203 255
168 203 255
168 203 255
168 203 255
168 203 255
168 203 255
168 203 255
169 203 255
169 203 255
169 204 255
169 204 255
169 204 255
169 204 255
169 204 255
170 204 255
170 204 255
170 204 255
170 204 255
170 204 255
170 204 255
170 204 255
170 204 255
171 205 255
171 205 255
171 205 255
171 205 255
171 205 255
171 205 255
171 205 255
171 205 255
172 205 255
172 205 255
172 205 255
172 205 255
172 205 255
172 206 255
172 206 255
172 206 255
173 206 255
173 206 255
173 206 255
173 206 255
173 206 255
173 206 255
173 206 255
173 206 255
174 206 255
174 206 255
174 206 255
174 207 255
174 207 255
174 207 255
174 207 255
174 207 255
174 207 255
175 207 255
175 207 255
175 207 255
175 207 255
175 207 255
175 207 255
175 207 255
175 207 255
175 207 255
176 208 255
176 208 255
176 208 255
176 208 255
176 208 255
176 208 255
176 208 255
176 208 255
176 208 255
176 208 255
177 208 255
177 208 255
177 208 255
177 208 255
177 208 255
177 208 255
177 208 255
177 209 255
177 209 255
177 209 255
178 209 255
178 209 255
178 209 255
178 209 255
178 209 255
178 209 255
178 209 255
178 209 255
178 209 255
178 209 255
178 209 255
178 209 255
179 209 255
179 209 255
179 209 255
179 209 255
179 210 255
179 210 255
179 210 255
179 210 255
179 210 255
179 210 255
179 210 255
179 210 255
180 210 255
180 210 255
180 210 255
180 210 255
180 210 255
180 210 255
180 210 255
180 210 255
180 210 255
179 210 255
179 210 255
179 210 255
179 210 255
179 210 255
179 210 255
179 210 255
179 210 255
179 210 255
179 209 255
179 209 255
179 209 255
179 209 255
178 209 255
178 209 255
178 209 255
178 209 255
178 209 255
178 209 255
178 209 255
178 209 255
178 209 255
178 209 255
178 209 255
177 209 255
177 209 255
177 209 255
177 209 255
177 208 255
177 208 255
177 208 255
177 208 255
177 208 255
177 208 255
177 208 255
176 208 255
176 208 255
176 208 255
176 208 255
176 208 255
176 208 255
176 208 255
176 208 255
176 208 255
175 207 255
175 207 255
175 207 255
175 207 255
175 207 255
175 207 255
175 207 255
175 207 255
175 207 255
175 207 255
174 207 255
174 207 255
174 207 255
174 207 255
174 207 255
174 206 255
174 206 255
174 206 255
173 206 255
173 206 255
173 206 255
173 206 255
173 206 255
173 206 255
173 206 255
173 206 255
173 206 255
172 206 255
172 206 255
172 205 255
172 205 255
172 205 255
172 205 255
172 205 255
172 205 255
171 205 255
171 205 255
171 205 255
171 205 255
171 205 255
171 205 255
171 205 255
170 204 255
170 204 255
170 204 255
170 204 255
170 204 255
170 204 255
170 204 255
170 204 255
169 204 255
169 204 255
169 204 255
169 204 255
169 204 255
169 203 255
169 203 255
168 203 255
168 203 255
168 203 255
168 203 255
168 203 255
168 203 255
168 203 255
168 203 255
167 203 255
167 203 255
167 202 255
167 202 255
167 202 255
167 202 255
167 202 255
166 202 255
166 202 255
166 202 255
166 202 255
166 202 255
166 202 255
166 202 255
165 201 255
165 201 255
165 201 255
165 201 255
165 201 255
165 201 255
165 201 255
165 201 255
164 201 255
164 201 255
164 201 255
164 201 255
164 201 255
164 200 255
164 200 255
164 200 255
163 200 255
163 200 255
163 200 255
163 200 255
163 200 255
163 200 255
163 200 255
163 200 255
163 200 255
162 200 255
162 200 255
162 200 255
162 199 255
162 199 255
162 199 255
162 199 255
162 199 255
162 199 255
162 199 255
161 199 255
161 199 255
161 199 255
161 199 255
161 199 255
161 199 255
161 199 255
161 199 255
161 199 255
161 199 255
161 199 255
161 199 255
160 198 255
160 198 255
160 198 255
160 198 255
160 198 255
160 198 255
160 198 255
160 198 255
160 198 255
160 198 255
160 198 255
160 198 255
160 198 255
160 198 255
160 198 255
160 198 255
160 198 255
160 198 255
160 198 255
160 198 255
160 198 255
160 198 255
160 198 255
160 198 255
160 198 255
160 198 255
160 198 255
160 198 255
160 198 255
160 198 255
160 198 255
160 198 255
160 198 255
160 198 255
160 198 255
160 198 255
160 198 255
160 198 255
160 198 255
160 198 255
160 198 255
160 198 255
160 198 255
160 198 255
160 198 255
160 198 255
160 198 255
160 198 255
160 198 255
160 198 255
161 199 255
161 199 255
161 199 255
161 199 255
161 199 255
161 199 255
161 199 255
161 199 255
161 199 255
161 199 255
161 199 255
161 199 255
162 199 255
162 199 255
162 199 255
162 199 255
162 199 255
162 199 255
162 199 255
162 200 255
162 200 255
162 200 255
163 200 255
163 200 255
163 200 255
163 200 255
163 200 255
163 200 255
163 200 255
163 200 255
163 200 255
164 200 255
164 200 255
164 200 255
164 201 255
164 201 255
164 201 255
164 201 255
164 201 255
165 201 255
165 201 255
165 201 255
165 201 255
165 201 255
165 201 255
165 201 255
165 201 255
166 202 255
166 202 255
166 202 255
166 202 255
166 202 255
166 202 255
166 202 255
167 202 255
167 202 255
167 202 255
167 202 255
167 202 255
167 203 255
167 203 255
168 203 255
168 203 255
168 203 255
168 203 255
168 203 255
168 203 255
168 203 255
168 203 255
169 203 255
169 203 255
169 204 255
169 204 255
169 204 255
169 204 255
169 204 255
170 204 255
170 204 255
170 204 255
170 204 255
170 204 255
170 204 255
170 204 255
170 204 255
171 205 255
171 205 255
171 205 255
171 205 255
171 205 255
171 205 255
171 205 255
172 205 255
172 205 255
172 205 255
172 205 255
172 205 255
172 205 255
172 206 255
172 206 255
173 206 255
173 206 255
173 206 255
173 206 255
173 206 255
173 206 255
173 206 255
173 206 255
173 206 255
174 206 255
174 206 255
174 206 255
174 207 255
174 207 255
174 207 255
174 207 255
174 207 255
175 207 255
175 207 255
175 207 255
175 207 255
175 207 255
175 207 255
175 207 255
175 207 255
175 207 255
175 207 255
176 208 255
176 208 255
176 208 255
176 208 255
176 208 255
176 208 255
176 208 255
176 208 255
176 208 255
177 208 255
177 208 255
177 208 255
177 208 255
177 208 255
177 208 255
177 208 255
177 209 255
177 209 255
177 209 255
177 209 255
178 209 255
178 209 255
178 209 255
178 209 255
178 209 255
178 209 255
178 209 255
178 209 255
178 209 255
178 209 255
178 209 255
179 209 255
179 209 255
179 209 255
179 209 255
179 210 255
179 210 255
179 210 255
179 210 255
179 210 255
179 210 255
179 210 255
179 210 255
179 210 255
180 210 255
180 210 255
180 210 255
180 210 255
180 210 255
180 210 255
180 210 255
180 210 255
180 210 255
180 210 255
180 210 255
180 210 255
179 210 255
179 210 255
179 210 255
179 210 255
179 210 255
179 210 255
179 210 255
179 210 255
179 210 255
179 209 255
179 209 255
179 209 255
178 209 255
178 209 255
178 209 255
178 209 255
178 209 255
178 209 255
178 209 255
178 209 255
178 209 255
178 209 255
178 209 255
178 209 255
177 209 255
177 209 255
177 209 255
177 208 255
177 208 255
177 208 255
177 208 255
177 208 255
177 208 255
177 208 255
176 208 255
176 208 255
176 208 255
176 208 255
176 208 255
176 208 255
176 208 255
176 208 255
176 208 255
176 208 255
175 207 255
175 207 255
175 207 255
175 207 255
175 207 255
175 207 255
175 207 255
175 207 255
175 207 255
174 207 255
174 207 255
174 207 255
174 207 255
174 207 255
174 207 255
174 206 255
174 206 255
174 206 255
173 206 255
173 206 255
173 206 255
173 206 255
173 206 255
173 206 255
173 206 255
173 206 255
172 206 255
172 206 255
172 206 255
172 205 255
172 205 255
172 205 255
172 205 255
172 205 255
171 205 255
171 205 255
171 205 255
171 205 255
171 205 255
171 205 255
171 205 255
170 204 255
170 204 255
170 204 255
170 204 255
170 204 255
170 204 255
170 204 255
170 204 255
169 204 255
169 204 255
169 204 255
169 204 255
169 204 255
169 203 255
169 203 255
168 203 255
168 203 255
168 203 255
168 203 255
168 203 255
168 203 255
168 203 255
168 203 255
167 203 255
167 203 255
167 202 255
167 202 255
167 202 255
167 202 255
167 202 255
166 202 255
166 202 255
166 202 255
166 202 255
166 202 255
166 202 255
166 202 255
165 201 255
165 201 255
165 201 255
165 201 255
165 201 255
165 201 255
165 201 255
165 201 255
164 201 255
164 201 255
164 201 255
164 201 255
164 201 255
164 200 255
164 200 255
164 200 255
163 200 255
163 200 255
163 200 255
163 200 255
163 200 255
163 200 255
163 200 255
163 200 255
163 200 255
162 200 255
162 200 255
162 200 255
162 199 255
162 199 255
162 199 255
162 199 255
162 199 255
162 199 255
162 199 255
161 199 255
161 199 255
161 199 255
161 199 255
161 199 255
161 199 255
161 199 255
161 199 255
161 199 255
161 199 255
161 199 255
161 199 255
160 198 255
160 198 255
160 198 255
160 198 255
160 198 255
160 198 255
160 198 255
160 198 255
160 198 255
160 198 255
160 198 255
160 198 255
160 198 255
160 198 255
160 198 255
160 198 255
160 198 255
160 198 255
160 198 255
160 198 255
160 198 255
160 198 255
160 198 255
160 198 255
160 198 255
160 198 255
160 198 255
160 198 255
160 198 255
160 198 255
160 198 255
160 198 255
160 198 255
160 198 255
160 198 255
160 198 255
160 198 255
160 198 255
160 198 255
160 198 255
160 198 255
160 198 255
160 198 255
160 198 255
160 198 255
160 198 255
160 198 255
160 198 255
161 199 255
161 199 255
161 199 255
161 199 255
161 199 255
161 199 255
161 199 255
161 199 255
161 199 255
161 199 255
161 199 255
161 199 255
162 199 255
162 199 255
162 199 255
162 199 255
162 199 255
162 199 255
162 199 255
162 200 255
162 200 255
162 200 255
163 200 255
163 200 255
163 200 255
163 200 255
163 200 255
163 200 255
163 200 255
163 200 255
163 200 255
164 200 255
164 200 255
164 200 255
164 201 255
164 201 255
164 201 255
164 201 255
164 201 255
165 201 255
165 201 255
165 201 255
165 201 255
165 201 255
165 201 255
165 201 255
165 201 255
166 202 255
166 202 255
166 202 255
166 202 255
166 202 255
166 202 255
166 202 255
167 202 255
167 202 255
167 202 255
167 202 255
167 202 255
167 203 255
167 203 255
168 203 255
168 203 255
168 203 255
168 203 255
168 203 255
168 203 255
168 203 255
168 203 255
169 203 255
169 203 255
169 204 255
169 204 255
169 204 255
169 204 255
169 204 255
170 204 255
170 204 255
170 204 255
170 204 255
170 204 255
170 204 255
170 204 255
170 204 255
171 205 255
171 205 255
171 205 255
171 205 255
171 205 255
171 205 255
171 205 255
172 205 255
172 205 255
172 205 255
172 205 255
172 205 255
172 206 255
172 206 255
172 206 255
173 206 255
173 206 255
173 206 255
173 206 255
173 206 255
173 206 255
173 206 255
173 206 255
174 206 255
174 206 255
174 206 255
174 207 255
174 207 255
174 207 255
174 207 255
174 207 255
174 207 255
175 207 255
175 207 255
175 207 255
175 207 255
175 207 255
175 207 255
175 207 255
175 207 255
175 207 255
176 208 255
176 208 255
176 208 255
176 208 255
176 208 255
176 208 255
176 208 255
176 208 255
176 208 255
176 208 255
177 208 255
177 208 255
177 208 255
177 208 255
177 208 255
177 208 255
177 208 255
177 209 255
177 209 255
177 209 255
178 209 255
178 209 255
178 209 255
178 209 255
178 209 255
178 209 255
178 209 255
178 209 255
178 209 255
178 209 255
178 209 255
179 209 255
179 209 255
179 209 255
179 209 255
179 210 255
179 210 255
179 210 255
179 210 255
179 210 255
179 210 255
179 210 255
179 210 255
179 210 255
180 210 255
180 210 255
180 210 255
180 210 255
180 210 255
180 210 255
180 210 255
180 210 255
180 210 255
180 210 255
180 210 255
180 210 255
180 210 255
180 210 255
180 210 255
180 210 255
179 210 255
179 210 255
179 210 255
179 210 255
179 210 255
179 210 255
179 210 255
179 210 255
179 209 255
179 209 255
179 209 255
179 209 255
178 209 255
178 209 255
178 209 255
178 209 255
178 209 255
178 209 255
178 209 255
178 209 255
178 209 255
178 209 255
178 209 255
177 209 255
177 209 255
177 209 255
177 209 255
177 208 255
177 208 255
177 208 255
177 208 255
177 208 255
177 208 255
177 208 255
176 208 255
176 208 255
176 208 255
176 208 255
176 208 255
176 208 255
176 208 255
176 208 255
176 208 255
175 207 255
175 207 255
175 207 255
175 207 255
175 207 255
175 207 255
175 207 255
175 207 255
175 207 255
175 207 255
174 207 255
174 207 255
174 207 255
174 207 255
174 207 255
174 206 255
174 206 255
174 206 255
173 206 255
173 206 255
173 206 255
173 206 255
173 206 255
173 206 255
173 206 255
173 206 255
172 206 255
172 206 255
172 206 255
172 205 255
172 205 255
172 205 255
172 205 255
172 205 255
171 205 255
171 205 255
171 205 255
171 205 255
171 205 255
171 205 255
171 205 255
171 205 255
170 204 255
170 204 255
170 204 255
170 204 255
170 204 255
170 204 255
170 204 255
169 204 255
169 204 255
169 204 255
169 204 255
169 204 255
169 203 255
169 203 255
168 203 255
168 203 255
168 203 255
168 203 255
168 203 255
168 203 255
168 203 255
168 203 255
167 203 255
167 203 255
167 202 255
167 202 255
167 202 255
167 202 255
167 202 255
166 202 255
166 202 255
166 202 255
166 202 255
166 202 255
166 202 255
166 202 255
165 201 255
165 201 255
165 201 255
165 201 255
165 201 255
165 201 255
165 201 255
165 201 255
164 201 255
164 201 255
164 201 255
164 201 255
164 201 255
164 200 255
164 200 255
164 200 255
163 200 255
163 200 255
163 200 255
163 200 255
163 200 255
163 200 255
163 200 255
163 200 255
163 200 255
162 200 255
162 200 255
162 200 255
162 199 255
162 199 255
162 199 255
162 199 255
162 199 255
162 199 255
162 199 255
161 199 255
161 199 255
161 199 255
161 199 255
161 199 255
161 199 255
161 199 255
161 199 255
161 199 255
161 199 255
161 199 255
161 199 255
161 199 255
160 198 255
160 198 255
160 198 255
160 198 255
160 198 255
160 198 255
160 198 255
160 198 255
160 198 255
160 198 255
160 198 255
160 198 255
160 198 255
160 198 255
160 198 255
160 198 255
160 198 255
160 198 255
160 198 255
160 198 255
160 198 255
160 198 255
160 198 255
160 198 255
160 198 255
160 198 255
160 198 255
160 198 255
160 198 255
160 198 255
160 198 255
160 198 255
160 198 255
160 198 255
160 198 255
160 198 255
160 198 255
160 198 255
160 198 255
160 198 255
160 198 255
160 198 255
160 198 255
160 198 255
161 199 255
161 199 255
161 199 255
161 199 255
161 199 255
161 199 255
161 199 255
161 199 255
161 199 255
161 199 255
161 199 255
161 199 255
161 199 255
162 199 255
162 199 255
162 199 255
162 199 255
162 199 255
162 199 255
162 199 255
162 200 255
162 200 255
162 200 255
163 200 255
163 200 255
163 200 255
163 200 255
163 200 255
163 200 255
163 200 255
163 200 255
163 200 255
164 200 255
164 200 255
164 200 255
164 201 255
164 201 255
164 201 255
164 201 255
164 201 255
165 201 255
165 201 255
165 201 255
165 201 255
165 201 255
165 201 255
165 201 255
165 201 255
166 202 255
166 202 255
166 202 255
166 202 255
166 202 255
166 202 255
166 202 255
167 202 255
167 202 255
167 202 255
167 202 255
167 202 255
167 203 255
167 203 255
168 203 255
168 203 255
168 203 255
168 203 255
168 203 255
168 203 255
168 203 255
168 203 255
169 203 255
169 203 255
169 204 255
169 204 255
169 204 255
169 204 255
169 204 255
170 204 255
170 204 255
170 204 255
170 204 255
170 204 255
170 204 255
170 204 255
171 205 255
171 205 255
171 205 255
171 205 255
171 205 255
171 205 255
171 205 255
171 205 255
172 205 255
172 205 255
172 205 255
172 205 255
172 205 255
172 206 255
172 206 255
172 206 255
173 206 255
173 206 255
173 206 255
173 206 255
173 206 255
173 206 255
173 206 255
173 206 255
174 206 255
174 206 255
174 206 255
174 207 255
174 207 255
174 207 255
174 207 255
174 207 255
174 207 255
175 207 255
175 207 255
175 207 255
175 207 255
175 207 255
175 207 255
175 207 255
175 207 255
175 207 255
176 208 255
176 208 255
176 208 255
176 208 255
176 208 255
176 208 255
176 208 255
176 208 255
176 208 255
177 208 255
177 208 255
177 208 255
177 208 255
177 208 255
177 208 255
177 208 255
177 209 255
177 209 255
177 209 255
178 209 255
178 209 255
178 209 255
178 209 255
178 209 255
178 209 255
178 209 255
178 209 255
178 209 255
178 209 255
178 209 255
178 209 255
179 209 255
179 209 255
179 209 255
179 209 255
179 210 255
179 210 255
179 210 255
179 210 255
179 210 255
179 210 255
179 210 255
179 210 255
180 210 255
180 210 255
180 210 255
180 210 255
180 210 255
180 210 255
180 210 255
180 210 255
180 210 255
180 210 255
180 210 255
180 210 255
180 210 255
180 210 255
180 210 255
180 210 255
180 210 255
180 210 255
180 210 255
180 210 255
179 210 255
179 210 255
179 210 255
179 210 255
179 210 255
179 210 255
179 210 255
179 210 255
179 209 255
179 209 255
179 209 255
179 209 255
178 209 255
178 209 255
178 209 255
178 209 255
178 209 255
178 209 255
178 209 255
178 209 255
178 209 255
178 209 255
178 209 255
177 209 255
177 209 255
177 209 255
177 209 255
177 208 255
177 208 255
177 208 255
177 208 255
177 208 255
177 208 255
176 208 255
176 208 255
176 208 255
176 208 255
176 208 255
176 208 255
176 208 255
176 208 255
176 208 255
176 208 255
175 207 255
175 207 255
175 207 255
175 207 255
175 207 255
175 207 255
175 207 255
175 207 255
175 207 255
174 207 255
174 207 255
174 207 255
174 207 255
174 207 255
174 207 255
174 206 255
174 206 255
173 206 255
173 206 255
173 206 255
173 206 255
173 206 255
173 206 255
173 206 255
173 206 255
173 206 255
172 206 255
172 206 255
172 205 255
172 205 255
172 205 255
172 205 255
172 205 255
171 205 255
171 205 255
171 205 255
171 205 255
171 205 255
171 205 255
171 205 255
171 205 255
170 204 255
170 204 255
170 204 255
170 204 255
170 204 255
170 204 255
170 204 255
169 204 255
169 204 255
169 204 255
169 204 255
169 204 255
169 203 255
169 203 255
169 203 255
168 203 255
168 203 255
168 203 255
168 203 255
168 203 255
168 203 255
168 203 255
167 203 255
167 203 255
167 202 255
167 202 255
167 202 255
167 202 255
167 202 255
166 202 255
166 202 255
166 202 255
166 202 255
166 202 255
166 202 255
166 202 255
165 201 255
165 201 255
165 201 255
165 201 255
165 201 255
165 201 255
165 201 255
165 201 255
164 201 255
164 201 255
164 201 255
164 201 255
164 201 255
164 200 255
164 200 255
164 200 255
163 200 255
163 200 255
163 200 255
163 200 255
163 200 255
163 200 255
163 200 255
163 200 255
163 200 255
162 200 255
162 200 255
162 200 255
162 199 255
162 199 255
162 199 255
162 199 255
162 199 255
162 199 255
162 199 255
161 199 255
161 199 255
161 199 255
161 199 255
161 199 255
161 199 255
161 199 255
161 199 255
161 199 255
161 199 255
161 199 255
161 199 255
161 199 255
160 198 255
160 198 255
160 198 255
160 198 255
160 198 255
160 198 255
160 198 255
160 198 255
160 198 255
160 198 255
160 198 255
160 198 255
160 198 255
160 198 255
160 198 255
160 198 255
160 198 255
160 198 255
160 198 255
160 198 255
160 198 255
160 198 255
160 198 255
160 198 255
160 198 255
160 198 255
160 198 255
160 198 255
160 198 255
160 198 255
160 198 255
160 198 255
160 198 255
160 198 255
160 198 255
160 198 255
160 198 255
160 198 255
160 198 255
160 198 255
160 198 255
160 198 255
161 199 255
161 199 255
161 199 255
161 199 255
161 199 255
161 199 255
161 199 255
161 199 255
161 199 255
161 199 255
161 199 255
161 199 255
161 199 255
162 199 255
162 199 255
162 199 255
162 199 255
162 199 255
162 199 255
162 199 255
162 200 255
162 200 255
162 200 255
163 200 255
163 200 255
163 200 255
163 200 255
163 200 255
163 200 255
163 200 255
163 200 255
163 200 255
164 200 255
164 200 255
164 200 255
164 201 255
164 201 255
164 201 255
164 201 255
164 201 255
165 201 255
165 201 255
165 201 255
165 201 255
165 201 255
165 201 255
165 201 255
165 201 255
166 202 255
166 202 255
166 202 255
166 202 255
166 202 255
166 202 255
166 202 255
167 202 255
167 202 255
167 202 255
167 202 255
167 202 255
167 203 255
167 203 255
168 203 255
168 203 255
168 203 255
168 203 255
168 203 255
168 203 255
168 203 255
169 203 255
169 203 255
169 203 255
169 204 255
169 204 255
169 204 255
169 204 255
169 204 255
170 204 255
170 204 255
170 204 255
170 204 255
170 204 255
170 204 255
170 204 255
171 205 255
171 205 255
171 205 255
171 205 255
171 205 255
171 205 255
171 205 255
171 205 255
172 205 255
172 205 255
172 205 255
172 205 255
172 205 255
172 206 255
172 206 255
173 206 255
173 206 255
173 206 255
173 206 255
173 206 255
173 206 255
173 206 255
173 206 255
174 206 255
174 206 255
174 206 255
174 207 255
174 207 255
174 207 255
174 207 255
174 207 255
174 207 255
175 207 255
175 207 255
175 207 255
175 207 255
175 207 255
175 207 255
175 207 255
175 207 255
175 207 255
176 208 255
176 208 255
176 208 255
176 208 255
176 208 255
176 208 255
176 208 255
176 208 255
176 208 255
176 208 255
177 208 255
177 208 255
177 208 255
177 208 255
177 208 255
177 208 255
177 209 255
177 209 255
177 209 255
177 209 255
178 209 255
178 209 255
178 209 255
178 209 255
178 209 255
178 209 255
178 209 255
178 209 255
178 209 255
178 209 255
178 209 255
179 209 255
179 209 255
179 209 255
179 209 255
179 210 255
179 210 255
179 210 255
179 210 255
179 210 255
179 210 255
179 210 255
179 210 255
180 210 255
180 210 255
180 210 255
180 210 255
180 210 255
180 210 255
180 210 255
180 210 255
180 210 255
180 210 255
180 210 255
180 210 255
180 210 255
180 210 255
180 210 255
180 210 255
180 210 255
180 210 255
180 210 255
180 210 255
180 210 255
180 210 255
180 210 255
180 210 255
179 210 255
179 210 255
179 210 255
179 210 255
179 210 255
179 210 255
179 210 255
179 210 255
179 209 255
179 209 255
179 209 255
179 209 255
178 209 255
178 209 255
178 209 255
178 209 255
178 209 255
178 209 255
178 209 255
178 209 255
178 209 255
178 209 255
178 209 255
177 209 255
177 209 255
177 209 255
177 208 255
177 208 255
177 208 255
177 208 255
177 208 255
177 208 255
177 208 255
176 208 255
176 208 255
176 208 255
176 208 255
176 208 255
176 208 255
176 208 255
176 208 255
176 208 255
176 208 255
175 207 255
175 207 255
175 207 255
175 207 255
175 207 255
175 207 255
175 207 255
175 207 255
175 207 255
174 207 255
174 207 255
174 207 255
174 207 255
174 207 255
174 206 255
174 206 255
174 206 255
173 206 255
173 206 255
173 206 255
173 206 255
173 206 255
173 206 255
173 206 255
173 206 255
172 206 255
172 206 255
172 206 255
172 205 255
172 205 255
172 205 255
172 205 255
172 205 255
171 205 255
171 205 255
171 205 255
171 205 255
171 205 255
171 205 255
171 205 255
170 204 255
170 204 255
170 204 255
170 204 255
170 204 255
170 204 255
170 204 255
170 204 255
169 204 255
169 204 255
169 204 255
169 204 255
169 203 255
169 203 255
169 203 255
168 203 255
168 203 255
168 203 255
168 203 255
168 203 255
168 203 255
168 203 255
167 203 255
167 203 255
167 202 255
167 202 255
167 202 255
167 202 255
167 202 255
166 202 255
166 202 255
166 202 255
166 202 255
166 202 255
166 202 255
166 202 255
165 201 255
165 201 255
165 201 255
165 201 255
165 201 255
165 201 255
165 201 255
165 201 255
164 201 255
164 201 255
164 201 255
164 201 255
164 201 255
164 200 255
164 200 255
164 200 255
163 200 255
163 200 255
163 200 255
163 200 255
163 200 255
163 200 255
163 200 255
163 200 255
163 200 255
162 200 255
162 200 255
162 200 255
162 199 255
162 199 255
162 199 255
162 199 255
162 199 255
162 199 255
162 199 255
161 199 255
161 199 255
161 199 255
161 199 255
161 199 255
161 199 255
161 199 255
161 199 255
161 199 255
161 199 255
161 199 255
161 199 255
161 199 255
161 199 255
160 198 255
160 198 255
160 198 255
160 198 255
160 198 255
160 198 255
160 198 255
160 198 255
160 198 255
160 198 255
160 198 255
160 198 255
160 198 255
160 198 255
160 198 255
160 198 255
160 198 255
160 198 255
160 198 255
160 198 255
160 198 255
160 198 255
160 198 255
160 198 255
160 198 255
160 198 255
160 198 255
160 198 255
160 198 255
160 198 255
160 198 255
160 198 255
160 198 255
160 198 255
160 198 255
160 198 255
160 198 255
160 198 255
161 199 255
161 199 255
161 199 255
161 199 255
161 199 255
161 199 255
161 199 255
161 199 255
161 199 255
161 199 255
161 199 255
161 199 255
161 199 255
161 199 255
162 199 255
162 199 255
162 199 255
162 199 255
162 199 255
162 199 255
162 199 255
162 200 255
162 200 255
162 200 255
163 200 255
163 200 255
163 200 255
163 200 255
163 200 255
163 200 255
163 200 255
163 200 255
163 200 255
164 200 255
164 200 255
164 200 255
164 201 255
164 201 255
164 201 255
164 201 255
164 201 255
165 201 255
165 201 255
165 201 255
165 201 255
165 201 255
165 201 255
165 201 255
165 201 255
166 202 255
166 202 255
166 202 255
166 202 255
166 202 255
166 202 255
166 202 255
167 202 255
167 202 255
167 202 255
167 202 255
167 202 255
167 203 255
167 203 255
168 203 255
168 203 255
168 203 255
168 203 255
168 203 255
168 203 255
168 203 255
169 203 255
169 203 255
169 203 255
169 204 255
169 204 255
169 204 255
169 204 255
170 204 255
170 204 255
170 204 255
170 204 255
170 204 255
170 204 255
170 204 255
170 204 255
171 205 255
171 205 255
171 205 255
171 205 255
171 205 255
171 205 255
171 205 255
172 205 255
172 205 255
172 205 255
172 205 255
172 205 255
172 206 255
172 206 255
172 206 255
173 206 255
173 206 255
173 206 255
173 206 255
173 206 255
173 206 255
173 206 255
173 206 255
174 206 255
174 206 255
174 206 255
174 207 255
174 207 255
174 207 255
174 207 255
174 207 255
174 207 255
175 207 255
175 207 255
175 207 255
175 207 255
175 207 255
175 207 255
175 207 255
175 207 255
175 207 255
176 208 255
176 208 255
176 208 255
176 208 255
176 208 255
176 208 255
176 208 255
176 208 255
176 208 255
177 208 255
177 208 255
177 208 255
177 208 255
177 208 255
177 208 255
177 208 255
177 209 255
177 209 255
177 209 255
178 209 255
178 209 255
178 209 255
178 209 255
178 209 255
178 209 255
178 209 255
178 209 255
178 209 255
178 209 255
178 209 255
179 209 255
179 209 255
179 209 255
179 209 255
179 210 255
179 210 255
179 210 255
179 210 255
179 210 255
179 210 255
179 210 255
179 210 255
180 210 255
180 210 255
180 210 255
180 210 255
180 210 255
180 210 255
180 210 255
180 210 255
180 210 255
180 210 255
180 210 255
180 210 255
180 210 255
181 211 255
181 211 255
180 210 255
180 210 255
180 210 255
180 210 255
180 210 255
180 210 255
180 210 255
180 210 255
180 210 255
180 210 255
180 210 255
180 210 255
180 210 255
179 210 255
179 210 255
179 210 255
179 210 255
179 210 255
179 210 255
179 210 255
179 210 255
179 209 255
179 209 255
179 209 255
179 209 255
178 209 255
178 209 255
178 209 255
178 209 255
178 209 255
178 209 255
178 209 255
178 209 255
178 209 255
178 209 255
178 209 255
177 209 255
177 209 255
177 209 255
177 208 255
177 208 255
177 208 255
177 208 255
177 208 255
177 208 255
177 208 255
176 208 255
176 208 255
176 208 255
176 208 255
176 208 255
176 208 255
176 208 255
176 208 255
176 208 255
175 207 255
175 207 255
175 207 255
175 207 255
175 207 255
175 207 255
175 207 255
175 207 255
175 207 255
174 207 255
174 207 255
174 207 255
174 207 255
174 207 255
174 207 255
174 206 255
174 206 255
173 206 255
173 206 255
173 206 255
173 206 255
173 206 255
173 206 255
173 206 255
173 206 255
172 206 255
172 206 255
172 206 255
172 205 255
172 205 255
172 205 255
172 205 255
172 205 255
171 205 255
171 205 255
171 205 255
171 205 255
171 205 255
171 205 255
171 205 255
171 205 255
170 204 255
170 204 255
170 204 255
170 204 255
170 204 255
170 204 255
170 204 255
169 204 255
169 204 255
169 204 255
169 204 255
169 204 255
169 203 255
169 203 255
168 203 255
168 203 255
168 203 255
168 203 255
168 203 255
168 203 255
168 203 255
167 203 255
167 203 255
167 203 255
167 202 255
167 202 255
167 202 255
167 202 255
166 202 255
166 202 255
166 202 255
166 202 255
166 202 255
166 202 255
166 202 255
166 202 255
165 201 255
165 201 255
165 201 255
165 201 255
165 201 255
165 201 255
165 201 255
164 201 255
164 201 255
164 201 255
164 201 255
164 201 255
164 201 255
164 200 255
164 200 255
163 200 255
163 200 255
163 200 255
163 200 255
163 200 255
163 200 255
163 200 255
163 200 255
163 200 255
162 200 255
162 200 255
162 200 255
162 199 255
162 199 255
162 199 255
162 199 255
162 199 255
162 199 255
162 199 255
162 199 255
161 199 255
161 199 255
161 199 255
161 199 255
161 199 255
161 199 255
161 199 255
161 199 255
161 199 255
161 199 255
161 199 255
161 199 255
161 199 255
161 199 255
160 198 255
160 198 255
160 198 255
160 198 255
160 198 255
160 198 255
160 198 255
160 198 255
160 198 255
160 198 255
160 198 255
160 198 255
160 198 255
160 198 255
160 198 255
160 198 255
160 198 255
160 198 255
160 198 255
160 198 255
160 198 255
160 198 255
160 198 255
160 198 255
160 198 255
160 198 255
160 198 255
160 198 255
160 198 255
160 198 255
160 198 255
160 198 255
160 198 255
161 199 255
161 199 255
161 199 255
161 199 255
161 199 255
161 199 255
161 199 255
161 199 255
161 199 255
161 199 255
161 199 255
161 199 255
161 199 255
161 199 255
161 199 255
162 199 255
162 199 255
162 199 255
162 199 255
162 199 255
162 199 255
162 199 255
162 199 255
162 200 255
162 200 255
162 200 255
163 200 255
163 200 255
163 200 255
163 200 255
163 200 255
163 200 255
163 200 255
163 200 255
163 200 255
164 200 255
164 200 255
164 201 255
164 201 255
164 201 255
164 201 255
164 201 255
164 201 255
165 201 255
165 201 255
165 201 255
165 201 255
165 201 255
165 201 255
165 201 255
166 202 255
166 202 255
166 202 255
166 202 255
166 202 255
166 202 255
166 202 255
166 202 255
167 202 255
167 202 255
167 202 255
167 202 255
167 203 255
167 203 255
167 203 255
168 203 255
168 203 255
168 203 255
168 203 255
168 203 255
168 203 255
168 203 255
169 203 255
169 203 255
169 204 255
169 204 255
169 204 255
169 204 255
169 204 255
170 204 255
170 204 255
170 204 255
170 204 255
170 204 255
170 204 255
170 204 255
171 205 255
171 205 255
171 205 255
171 205 255
171 205 255
171 205 255
171 205 255
171 205 255
172 205 255
172 205 255
172 205 255
172 205 255
172 205 255
172 206 255
172 206 255
172 206 255
173 206 255
173 206 255
173 206 255
173 206 255
173 206 255
173 206 255
173 206 255
173 206 255
174 206 255
174 206 255
174 207 255
174 207 255
174 207 255
174 207 255
174 207 255
174 207 255
175 207 255
175 207 255
175 207 255
175 207 255
175 207 255
175 207 255
175 207 255
175 207 255
175 207 255
176 208 255
176 208 255
176 208 255
176 208 255
176 208 255
176 208 255
176 208 255
176 208 255
176 208 255
177 208 255
177 208 255
177 208 255
177 208 255
177 208 255
177 208 255
177 208 255
177 209 255
177 209 255
177 209 255
178 209 255
178 209 255
178 209 255
178 209 255
178 209 255
178 209 255
178 209 255
178 209 255
178 209 255
178 209 255
178 209 255
179 209 255
179 209 255
179 209 255
179 209 255
179 210 255
179 210 255
179 210 255
179 210 255
179 210 255
179 210 255
179 210 255
179 210 255
180 210 255
180 210 255
180 210 255
180 210 255
180 210 255
180 210 255
180 210 255
180 210 255
180 210 255
180 210 255
180 210 255
180 210 255
180 210 255
181 211 255
181 211 255
181 211 255
181 211 255
181 211 255
181 211 255
180 210 255
180 210 255
180 210 255
180 210 255
180 210 255
180 210 255
180 210 255
180 210 255
180 210 255
180 210 255
180 210 255
180 210 255
180 210 255
179 210 255
179 210 255
179 210 255
179 210 255
179 210 255
179 210 255
179 210 255
179 210 255
179 209 255
179 209 255
179 209 255
179 209 255
178 209 255
178 209 255
178 209 255
178 209 255
178 209 255
178 209 255
178 209 255
178 209 255
178 209 255
178 209 255
178 209 255
177 209 255
177 209 255
177 209 255
177 208 255
177 208 255
177 208 255
177 208 255
177 208 255
177 208 255
176 208 255
176 208 255
176 208 255
176 208 255
176 208 255
176 208 255
176 208 255
176 208 255
176 208 255
176 208 255
175 207 255
175 207 255
175 207 255
175 207 255
175 207 255
175 207 255
175 207 255
175 207 255
175 207 255
174 207 255
174 207 255
174 207 255
174 207 255
174 207 255
174 206 255
174 206 255
174 206 255
173 206 255
173 206 255
173 206 255
173 206 255
173 206 255
173 206 255
173 206 255
173 206 255
172 206 255
172 206 255
172 205 255
172 205 255
172 205 255
172 205 255
172 205 255
171 205 255
171 205 255
171 205 255
171 205 255
171 205 255
171 205 255
171 205 255
171 205 255
170 204 255
170 204 255
170 204 255
170 204 255
170 204 255
170 204 255
170 204 255
169 204 255
169 204 255
169 204 255
169 204 255
169 204 255
169 203 255
169 203 255
168 203 255
168 203 255
168 203 255
168 203 255
168 203 255
168 203 255
168 203 255
168 203 255
167 203 255
167 203 255
167 202 255
167 202 255
167 202 255
167 202 255
167 202 255
166 202 255
166 202 255
166 202 255
166 202 255
166 202 255
166 202 255
166 202 255
165 201 255
165 201 255
165 201 255
165 201 255
165 201 255
165 201 255
165 201 255
164 201 255
164 201 255
164 201 255
164 201 255
164 201 255
164 201 255
164 200 255
164 200 255
164 200 255
163 200 255
163 200 255
163 200 255
163 200 255
163 200 255
163 200 255
163 200 255
163 200 255
163 200 255
162 200 255
162 200 255
162 200 255
162 199 255
162 199 255
162 199 255
162 199 255
162 199 255
162 199 255
162 199 255
161 199 255
161 199 255
161 199 255
161 199 255
161 199 255
161 199 255
161 199 255
161 199 255
161 199 255
161 199 255
161 199 255
161 199 255
161 199 255
161 199 255
161 199 255
161 199 255
161 199 255
160 198 255
160 198 255
160 198 255
160 198 255
160 198 255
160 198 255
160 198 255
160 198 255
160 198 255
160 198 255
160 198 255
160 198 255
160 198 255
160 198 255
160 198 255
160 198 255
160 198 255
160 198 255
160 198 255
160 198 255
160 198 255
160 198 255
160 198 255
160 198 255
160 198 255
160 198 255
161 199 255
161 199 255
161 199 255
161 199 255
161 199 255
161 199 255
161 199 255
161 199 255
161 199 255
161 199 255
161 199 255
161 199 255
161 199 255
161 199 255
161 199 255
161 199 255
161 199 255
162 199 255
162 199 255
162 199 255
162 199 255
162 199 255
162 199 255
162 199 255
162 200 255
162 200 255
162 200 255
163 200 255
163 200 255
163 200 255
163 200 255
163 200 255
163 200 255
163 200 255
163 200 255
163 200 255
164 200 255
164 200 255
164 200 255
164 201 255
164 201 255
164 201 255
164 201 255
164 201 255
165 201 255
165 201 255
165 201 255
165 201 255
165 201 255
165 201 255
165 201 255
165 201 255
166 202 255
166 202 255
166 202 255
166 202 255
166 202 255
166 202 255
166 202 255
167 202 255
167 202 255
167 202 255
167 202 255
167 202 255
167 203 255
167 203 255
168 203 255
168 203 255
168 203 255
168 203 255
168 203 255
168 203 255
168 203 255
168 203 255
169 203 255
169 203 255
169 204 255
169 204 255
169 204 255
169 204 255
169 204 255
170 204 255
170 204 255
170 204 255
170 204 255
170 204 255
170 204 255
170 204 255
171 205 255
171 205 255
171 205 255
171 205 255
171 205 255
171 205 255
171 205 255
171 205 255
172 205 255
172 205 255
172 205 255
172 205 255
172 206 255
172 206 255
172 206 255
173 206 255
173 206 255
173 206 255
173 206 255
173 206 255
173 206 255
173 206 255
173 206 255
174 206 255
174 206 255
174 206 255
174 207 255
174 207 255
174 207 255
174 207 255
174 207 255
175 207 255
175 207 255
175 207 255
175 207 255
175 207 255
175 207 255
175 207 255
175 207 255
175 207 255
176 208 255
176 208 255
176 208 255
176 208 255
176 208 255
176 208 255
176 208 255
176 208 255
176 208 255
176 208 255
177 208 255
177 208 255
177 208 255
177 208 255
177 208 255
177 208 255
177 209 255
177 209 255
177 209 255
178 209 255
178 209 255
178 209 255
178 209 255
178 209 255
178 209 255
178 209 255
178 209 255
178 209 255
178 209 255
178 209 255
179 209 255
179 209 255
179 209 255
179 209 255
179 210 255
179 210 255
179 210 255
179 210 255
179 210 255
179 210 255
179 210 255
179 210 255
180 210 255
180 210 255
180 210 255
180 210 255
180 210 255
180 210 255
180 210 255
180 210 255
180 210 255
180 210 255
180 210 255
180 210 255
180 210 255
181 211 255
181 211 255
181 211 255
181 211 255
181 211 255
181 211 255
181 211 255
181 211 255
181 211 255
181 211 255
180 210 255
180 210 255
180 210 255
180 210 255
180 210 255
180 210 255
180 210 255
180 210 255
180 210 255
180 210 255
180 210 255
180 210 255
180 210 255
179 210 255
179 210 255
179 210 255
179 210 255
179 210 255
179 210 255
179 210 255
179 210 255
179 209 255
179 209 255
179 209 255
179 209 255
178 209 255
178 209 255
178 209 255
178 209 255
178 209 255
178 209 255
178 209 255
178 209 255
178 209 255
178 209 255
177 209 255
177 209 255
177 209 255
177 209 255
177 208 255
177 208 255
177 208 255
177 208 255
177 208 255
177 208 255
176 208 255
176 208 255
176 208 255
176 208 255
176 208 255
176 208 255
176 208 255
176 208 255
176 208 255
176 208 255
175 207 255
175 207 255
175 207 255
175 207 255
175 207 255
175 207 255
175 207 255
175 207 255
174 207 255
174 207 255
174 207 255
174 207 255
174 207 255
174 207 255
174 206 255
174 206 255
173 206 255
173 206 255
173 206 255
173 206 255
173 206 255
173 206 255
173 206 255
173 206 255
172 206 255
172 206 255
172 206 255
172 205 255
172 205 255
172 205 255
172 205 255
172 205 255
171 205 255
171 205 255
171 205 255
171 205 255
171 205 255
171 205 255
171 205 255
170 204 255
170 204 255
170 204 255
170 204 255
170 204 255
170 204 255
170 204 255
170 204 255
169 204 255
169 204 255
169 204 255
169 204 255
169 203 255
169 203 255
169 203 255
168 203 255
168 203 255
168 203 255
168 203 255
168 203 255
168 203 255
168 203 255
167 203 255
167 203 255
167 202 255
167 202 255
167 202 255
167 202 255
167 202 255
166 202 255
166 202 255
166 202 255
166 202 255
166 202 255
166 202 255
166 202 255
165 201 255
165 201 255
165 201 255
165 201 255
165 201 255
165 201 255
165 201 255
165 201 255
164 201 255
164 201 255
164 201 255
164 201 255
164 201 255
164 200 255
164 200 255
164 200 255
163 200 255
163 200 255
163 200 255
163 200 255
163 200 255
163 200 255
163 200 255
163 200 255
163 200 255
162 200 255
162 200 255
162 200 255
162 200 255
162 199 255
162 199 255
162 199 255
162 199 255
162 199 255
162 199 255
162 199 255
161 199 255
161 199 255
161 199 255
161 199 255
161 199 255
161 199 255
161 199 255
161 199 255
161 199 255
161 199 255
161 199 255
161 199 255
161 199 255
161 199 255
161 199 255
161 199 255
161 199 255
161 199 255
161 199 255
160 198 255
160 198 255
160 198 255
160 198 255
160 198 255
160 198 255
160 198 255
160 198 255
160 198 255
160 198 255
160 198 255
160 198 255
160 198 255
160 198 255
160 198 255
160 198 255
160 198 255
160 198 255
161 199 255
161 199 255
161 199 255
161 199 255
161 199 255
161 199 255
161 199 255
161 199 255
161 199 255
161 199 255
161 199 255
161 199 255
161 199 255
161 199 255
161 199 255
161 199 255
161 199 255
161 199 255
161 199 255
162 199 255
162 199 255
162 199 255
162 199 255
162 199 255
162 199 255
162 199 255
162 200 255
162 200 255
162 200 255
162 200 255
163 200 255
163 200 255
163 200 255
163 200 255
163 200 255
163 200 255
163 200 255
163 200 255
163 200 255
164 200 255
164 200 255
164 200 255
164 201 255
164 201 255
164 201 255
164 201 255
164 201 255
165 201 255
165 201 255
165 201 255
165 201 255
165 201 255
165 201 255
165 201 255
165 201 255
166 202 255
166 202 255
166 202 255
166 202 255
166 202 255
166 202 255
166 202 255
167 202 255
167 202 255
167 202 255
167 202 255
167 202 255
167 203 255
167 203 255
168 203 255
168 203 255
168 203 255
168 203 255
168 203 255
168 203 255
168 203 255
169 203 255
169 203 255
169 203 255
169 204 255
169 204 255
169 204 255
169 204 255
170 204 255
170 204 255
170 204 255
170 204 255
170 204 255
170 204 255
170 204 255
171 205 255
171 205 255
171 205 255
171 205 255
171 205 255
171 205 255
171 205 255
171 205 255
172 205 255
172 205 255
172 205 255
172 205 255
172 205 255
172 206 255
172 206 255
172 206 255
173 206 255
173 206 255
173 206 255
173 206 255
173 206 255
173 206 255
173 206 255
174 206 255
174 206 255
174 206 255
174 207 255
174 207 255
174 207 255
174 207 255
174 207 255
174 207 255
175 207 255
175 207 255
175 207 255
175 207 255
175 207 255
175 207 255
175 207 255
175 207 255
175 207 255
176 208 255
176 208 255
176 208 255
176 208 255
176 208 255
176 208 255
176 208 255
176 208 255
176 208 255
177 208 255
177 208 255
177 208 255
177 208 255
177 208 255
177 208 255
177 209 255
177 209 255
177 209 255
177 209 255
178 209 255
178 209 255
178 209 255
178 209 255
178 209 255
178 209 255
178 209 255
178 209 255
178 209 255
178 209 255
179 209 255
179 209 255
179 209 255
179 209 255
179 210 255
179 210 255
179 210 255
179 210 255
179 210 255
179 210 255
179 210 255
179 210 255
180 210 255
180 210 255
180 210 255
180 210 255
180 210 255
180 210 255
180 210 255
180 210 255
180 210 255
180 210 255
180 210 255
180 210 255
180 210 255
181 211 255
181 211 255
181 211 255
181 211 255
181 211 255
181 211 255
181 211 255
181 211 255
181 211 255
181 211 255
181 211 255
181 211 255
181 211 255
181 211 255
180 210 255
180 210 255
180 210 255
180 210 255
180 210 255
180 210 255
180 210 255
180 210 255
180 210 255
180 210 255
180 210 255
180 210 255
180 210 255
179 210 255
179 210 255
179 210 255
179 210 255
179 210 255
179 210 255
179 210 255
179 210 255
179 209 255
179 209 255
179 209 255
179 209 255
178 209 255
178 209 255
178 209 255
178 209 255
178 209 255
178 209 255
178 209 255
178 209 255
178 209 255
178 209 255
177 209 255
177 209 255
177 209 255
177 209 255
177 208 255
177 208 255
177 208 255
177 208 255
177 208 255
177 208 255
176 208 255
176 208 255
176 208 255
176 208 255
176 208 255
176 208 255
176 208 255
176 208 255
176 208 255
175 207 255
175 207 255
175 207 255
175 207 255
175 207 255
175 207 255
175 207 255
175 207 255
175 207 255
174 207 255
174 207 255
174 207 255
174 207 255
174 207 255
174 206 255
174 206 255
174 206 255
173 206 255
173 206 255
173 206 255
173 206 255
173 206 255
173 206 255
173 206 255
173 206 255
172 206 255
172 206 255
172 206 255
172 205 255
172 205 255
172 205 255
172 205 255
172 205 255
171 205 255
171 205 255
171 205 255
171 205 255
171 205 255
171 205 255
171 205 255
170 204 255
170 204 255
170 204 255
170 204 255
170 204 255
170 204 255
170 204 255
169 204 255
169 204 255
169 204 255
169 204 255
169 204 255
169 203 255
169 203 255
168 203 255
168 203 255
168 203 255
168 203 255
168 203 255
168 203 255
168 203 255
167 203 255
167 203 255
167 203 255
167 202 255
167 202 255
167 202 255
167 202 255
166 202 255
166 202 255
166 202 255
166 202 255
166 202 255
166 202 255
166 202 255
166 202 255
165 201 255
165 201 255
165 201 255
165 201 255
165 201 255
165 201 255
165 201 255
164 201 255
164 201 255
164 201 255
164 201 255
164 201 255
164 201 255
164 200 255
164 200 255
164 200 255
163 200 255
163 200 255
163 200 255
163 200 255
163 200 255
163 200 255
163 200 255
163 200 255
163 200 255
162 200 255
162 200 255
162 200 255
162 199 255
162 199 255
162 199 255
162 199 255
162 199 255
162 199 255
162 199 255
162 199 255
161 199 255
161 199 255
161 199 255
161 199 255
161 199 255
161 199 255
161 199 255
161 199 255
161 199 255
161 199 255
161 199 255
161 199 255
161 199 255
161 199 255
161 199 255
161 199 255
161 199 255
161 199 255
161 199 255
161 199 255
161 199 255
161 199 255
161 199 255
161 199 255
161 199 255
161 199 255
161 199 255
161 199 255
161 199 255
161 199 255
161 199 255
161 199 255
161 199 255
161 199 255
161 199 255
161 199 255
161 199 255
161 199 255
161 199 255
161 199 255
161 199 255
161 199 255
161 199 255
161 199 255
161 199 255
161 199 255
161 199 255
161 199 255
161 199 255
161 199 255
161 199 255
161 199 255
162 199 255
162 199 255
162 199 255
162 199 255
162 199 255
162 199 255
162 199 255
162 199 255
162 200 255
162 200 255
162 200 255
163 200 255
163 200 255
163 200 255
163 200 255
163 200 255
163 200 255
163 200 255
163 200 255
163 200 255
164 200 255
164 200 255
164 200 255
164 201 255
164 201 255
164 201 255
164 201 255
164 201 255
164 201 255
165 201 255
165 201 255
165 201 255
165 201 255
165 201 255
165 201 255
165 201 255
166 202 255
166 202 255
166 202 255
166 202 255
166 202 255
166 202 255
166 202 255
166 202 255
167 202 255
167 202 255
167 202 255
167 202 255
167 203 255
167 203 255
167 203 255
168 203 255
168 203 255
168 203 255
168 203 255
168 203 255
168 203 255
168 203 255
169 203 255
169 203 255
169 204 255
169 204 255
169 204 255
169 204 255
169 204 255
170 204 255
170 204 255
170 204 255
170 204 255
170 204 255
170 204 255
170 204 255
171 205 255
171 205 255
171 205 255
171 205 255
171 205 255
171 205 255
171 205 255
172 205 255
172 205 255
172 205 255
172 205 255
172 205 255
172 206 255
172 206 255
172 206 255
173 206 255
173 206 255
173 206 255
173 206 255
173 206 255
173 206 255
173 206 255
173 206 255
174 206 255
174 206 255
174 207 255
174 207 255
174 207 255
174 207 255
174 207 255
174 207 255
175 207 255
175 207 255
175 207 255
175 207 255
175 207 255
175 207 255
175 207 255
175 207 255
175 207 255
176 208 255
176 208 255
176 208 255
176 208 255
176 208 255
176 208 255
176 208 255
176 208 255
176 208 255
177 208 255
177 208 255
177 208 255
177 208 255
177 208 255
177 208 255
177 209 255
177 209 255
177 209 255
177 209 255
178 209 255
178 209 255
178 209 255
178 209 255
178 209 255
178 209 255
178 209 255
178 209 255
178 209 255
178 209 255
179 209 255
179 209 255
179 209 255
179 209 255
179 210 255
179 210 255
179 210 255
179 210 255
179 210 255
179 210 255
179 210 255
179 210 255
180 210 255
180 210 255
180 210 255
180 210 255
180 210 255
180 210 255
180 210 255
180 210 255
180 210 255
180 210 255
180 210 255
180 210 255
180 210 255
181 211 255
181 211 255
181 211 255
181 211 255
181 211 255
181 211 255
181 211 255
181 211 255
181 211 255
181 211 255
181 211 255
181 211 255
181 211 255
181 211 255
181 211 255
181 211 255
181 211 255
181 211 255
180 210 255
180 210 255
180 210 255
180 210 255
180 210 255
180 210 255
180 210 255
180 210 255
180 210 255
180 210 255
180 210 255
180 210 255
180 210 255
179 210 255
179 210 255
179 210 255
179 210 255
179 210 255
179 210 255
179 210 255
179 210 255
179 209 255
179 209 255
179 209 255
179 209 255
178 209 255
178 209 255
178 209 255
178 209 255
178 209 255
178 209 255
178 209 255
178 209 255
178 209 255
178 209 255
177 209 255
177 209 255
177 209 255
177 208 255
177 208 255
177 208 255
177 208 255
177 208 255
177 208 255
177 208 255
176 208 255
176 208 255
176 208 255
176 208 255
176 208 255
176 208 255
176 208 255
176 208 255
176 208 255
175 207 255
175 207 255
175 207 255
175 207 255
175 207 255
175 207 255
175 207 255
175 207 255
175 207 255
174 207 255
174 207 255
174 207 255
174 207 255
174 207 255
174 206 255
174 206 255
174 206 255
173 206 255
173 206 255
173 206 255
173 206 255
173 206 255
173 206 255
173 206 255
173 206 255
172 206 255
172 206 255
172 205 255
172 205 255
172 205 255
172 205 255
172 205 255
171 205 255
171 205 255
171 205 255
171 205 255
171 205 255
171 205 255
171 205 255
171 205 255
170 204 255
170 204 255
170 204 255
170 204 255
170 204 255
170 204 255
170 204 255
169 204 255
169 204 255
169 204 255
169 204 255
169 203 255
169 203 255
169 203 255
168 203 255
168 203 255
168 203 255
168 203 255
168 203 255
168 203 255
168 203 255
167 203 255
167 203 255
167 202 255
167 202 255
167 202 255
167 202 255
167 202 255
166 202 255
166 202 255
166 202 255
166 202 255
166 202 255
166 202 255
166 202 255
165 201 255
165 201 255
165 201 255
165 201 255
165 201 255
165 201 255
165 201 255
165 201 255
164 201 255
164 201 255
164 201 255
164 201 255
164 201 255
164 200 255
164 200 255
164 200 255
163 200 255
163 200 255
163 200 255
163 200 255
163 200 255
163 200 255
163 200 255
163 200 255
163 200 255
163 200 255
162 200 255
162 200 255
162 200 255
162 199 255
162 199 255
162 199 255
162 199 255
162 199 255
162 199 255
162 199 255
162 199 255
162 199 255
161 199 255
161 199 255
161 199 255
161 199 255
161 199 255
161 199 255
161 199 255
161 199 255
161 199 255
161 199 255
161 199 255
161 199 255
161 199 255
161 199 255
161 199 255
161 199 255
161 199 255
161 199 255
161 199 255
161 199 255
161 199 255
161 199 255
161 199 255
161 199 255
161 199 255
161 199 255
161 199 255
161 199 255
161 199 255
161 199 255
161 199 255
161 199 255
161 199 255
161 199 255
161 199 255
161 199 255
161 199 255
161 199 255
161 199 255
161 199 255
161 199 255
161 199 255
161 199 255
161 199 255
161 199 255
161 199 255
162 199 255
162 199 255
162 199 255
162 199 255
162 199 255
162 199 255
162 199 255
162 199 255
162 199 255
162 200 255
162 200 255
162 200 255
163 200 255
163 200 255
163 200 255
163 200 255
163 200 255
163 200 255
163 200 255
163 200 255
163 200 255
163 200 255
164 200 255
164 200 255
164 200 255
164 201 255
164 201 255
164 201 255
164 201 255
164 201 255
165 201 255
165 201 255
165 201 255
165 201 255
165 201 255
165 201 255
165 201 255
165 201 255
166 202 255
166 202 255
166 202 255
166 202 255
166 202 255
166 202 255
166 202 255
167 202 255
167 202 255
167 202 255
167 202 255
167 202 255
167 203 255
167 203 255
168 203 255
168 203 255
168 203 255
168 203 255
168 203 255
168 203 255
168 203 255
169 203 255
169 203 255
169 203 255
169 204 255
169 204 255
169 204 255
169 204 255
170 204 255
170 204 255
170 204 255
170 204 255
170 204 255
170 204 255
170 204 255
170 204 255
171 205 255
171 205 255
171 205 255
171 205 255
171 205 255
171 205 255
171 205 255
172 205 255
172 205 255
172 205 255
172 205 255
172 205 255
172 206 255
172 206 255
173 206 255
173 206 255
173 206 255
173 206 255
173 206 255
173 206 255
173 206 255
173 206 255
174 206 255
174 206 255
174 206 255
174 207 255
174 207 255
174 207 255
174 207 255
174 207 255
175 207 255
175 207 255
175 207 255
175 207 255
175 207 255
175 207 255
175 207 255
175 207 255
175 207 255
176 208 255
176 208 255
176 208 255
176 208 255
176 208 255
176 208 255
176 208 255
176 208 255
176 208 255
177 208 255
177 208 255
177 208 255
177 208 255
177 208 255
177 208 255
177 209 255
177 209 255
177 209 255
177 209 255
178 209 255
178 209 255
178 209 255
178 209 255
178 209 255
178 209 255
178 209 255
178 209 255
178 209 255
178 209 255
179 209 255
179 209 255
179 209 255
179 209 255
179 210 255
179 210 255
179 210 255
179 210 255
179 210 255
179 210 255
179 210 255
179 210 255
180 210 255
180 210 255
180 210 255
180 210 255
180 210 255
180 210 255
180 210 255
180 210 255
180 210 255
180 210 255
180 210 255
180 210 255
181 211 255
181 211 255
181 211 255
181 211 255
181 211 255
181 211 255
181 211 255
181 211 255
181 211 255
181 211 255
181 211 255
181 211 255
181 211 255
181 211 255
181 211 255
181 211 255
181 211 255
181 211 255
181 211 255
181 211 255
181 211 255
181 211 255
181 211 255
181 211 255
180 210 255
180 210 255
180 210 255
180 210 255
180 210 255
180 210 255
180 210 255
180 210 255
180 210 255
180 210 255
180 210 255
180 210 255
179 210 255
179 210 255
179 210 255
179 210 255
179 210 255
179 210 255
179 210 255
179 210 255
179 209 255
179 209 255
179 209 255
179 209 255
178 209 255
178 209 255
178 209 255
178 209 255
178 209 255
178 209 255
178 209 255
178 209 255
178 209 255
178 209 255
177 209 255
177 209 255
177 209 255
177 209 255
177 208 255
177 208 255
177 208 255
177 208 255
177 208 255
177 208 255
176 208 255
176 208 255
176 208 255
176 208 255
176 208 255
176 208 255
176 208 255
176 208 255
176 208 255
175 207 255
175 207 255
175 207 255
175 207 255
175 207 255
175 207 255
175 207 255
175 207 255
174 207 255
174 207 255
174 207 255
174 207 255
174 207 255
174 207 255
174 206 255
174 206 255
174 206 255
173 206 255
173 206 255
173 206 255
173 206 255
173 206 255
173 206 255
173 206 255
172 206 255
172 206 255
172 206 255
172 205 255
172 205 255
172 205 255
172 205 255
172 205 255
171 205 255
171 205 255
171 205 255
171 205 255
171 205 255
171 205 255
171 205 255
170 204 255
170 204 255
170 204 255
170 204 255
170 204 255
170 204 255
170 204 255
169 204 255
169 204 255
169 204 255
169 204 255
169 204 255
169 203 255
169 203 255
168 203 255
168 203 255
168 203 255
168 203 255
168 203 255
168 203 255
168 203 255
167 203 255
167 203 255
167 203 255
167 202 255
167 202 255
167 202 255
167 202 255
166 202 255
166 202 255
166 202 255
166 202 255
166 202 255
166 202 255
166 202 255
166 202 255
165 201 255
165 201 255
165 201 255
165 201 255
165 201 255
165 201 255
165 201 255
165 201 255
164 201 255
164 201 255
164 201 255
164 201 255
164 201 255
164 200 255
164 200 255
164 200 255
163 200 255
163 200 255
163 200 255
163 200 255
163 200 255
163 200 255
163 200 255
163 200 255
163 200 255
163 200 255
162 200 255
162 200 255
162 200 255
162 200 255
162 199 255
162 199 255
162 199 255
162 199 255
162 199 255
162 199 255
162 199 255
162 199 255
162 199 255
161 199 255
161 199 255
161 199 255
161 199 255
161 199 255
161 199 255
161 199 255
161 199 255
161 199 255
161 199 255
161 199 255
161 199 255
161 199 255
161 199 255
161 199 255
161 199 255
161 199 255
161 199 255
161 199 255
161 199 255
161 199 255
161 199 255
161 199 255
161 199 255
161 199 255
161 199 255
161 199 255
161 199 255
161 199 255
161 199 255
161 199 255
161 199 255
161 199 255
161 199 255
161 199 255
161 199 255
161 199 255
161 199 255
161 199 255
161 199 255
162 199 255
162 199 255
162 199 255
162 199 255
162 199 255
162 199 255
162 199 255
162 199 255
162 199 255
162 199 255
162 200 255
162 200 255
162 200 255
163 200 255
163 200 255
163 200 255
163 200 255
163 200 255
163 200 255
163 200 255
163 200 255
163 200 255
163 200 255
164 200 255
164 200 255
164 200 255
164 201 255
164 201 255
164 201 255
164 201 255
164 201 255
164 201 255
165 201 255
165 201 255
165 201 255
165 201 255
165 201 255
165 201 255
165 201 255
166 202 255
166 202 255
166 202 255
166 202 255
166 202 255
166 202 255
166 202 255
166 202 255
167 202 255
167 202 255
167 202 255
167 202 255
167 203 255
167 203 255
167 203 255
168 203 255
168 203 255
168 203 255
168 203 255
168 203 255
168 203 255
168 203 255
169 203 255
169 203 255
169 204 255
169 204 255
169 204 255
169 204 255
169 204 255
170 204 255
170 204 255
170 204 255
170 204 255
170 204 255
170 204 255
170 204 255
171 205 255
171 205 255
171 205 255
171 205 255
171 205 255
171 205 255
171 205 255
172 205 255
172 205 255
172 205 255
172 205 255
172 205 255
172 206 255
172 206 255
172 206 255
173 206 255
173 206 255
173 206 255
173 206 255
173 206 255
173 206 255
173 206 255
174 206 255
174 206 255
174 206 255
174 207 255
174 207 255
174 207 255
174 207 255
174 207 255
175 207 255
175 207 255
175 207 255
175 207 255
175 207 255
175 207 255
175 207 255
175 207 255
175 207 255
176 208 255
176 208 255
176 208 255
176 208 255
176 208 255
176 208 255
176 208 255
176 208 255
176 208 255
177 208 255
177 208 255
177 208 255
177 208 255
177 208 255
177 208 255
177 209 255
177 209 255
177 209 255
177 209 255
178 209 255
178 209 255
178 209 255
178 209 255
178 209 255
178 209 255
178 209 255
178 209 255
178 209 255
178 209 255
179 209 255
179 209 255
179 209 255
179 209 255
179 210 255
179 210 255
179 210 255
179 210 255
179 210 255
179 210 255
179 210 255
179 210 255
180 210 255
180 210 255
180 210 255
180 210 255
180 210 255
180 210 255
180 210 255
180 210 255
180 210 255
180 210 255
180 210 255
180 210 255
181 211 255
181 211 255
181 211 255
181 211 255
181 211 255
181 211 255
181 211 255
181 211 255
181 211 255
181 211 255
181 211 255
181 211 255
181 211 255
182 211 255
181 211 255
181 211 255
181 211 255
181 211 255
181 211 255
181 211 255
181 211 255
181 211 255
181 211 255
181 211 255
181 211 255
181 211 255
181 211 255
181 211 255
180 210 255
180 210 255
180 210 255
180 210 255
180 210 255
180 210 255
180 210 255
180 210 255
180 210 255
180 210 255
180 210 255
180 210 255
180 210 255
179 210 255
179 210 255
179 210 255
179 210 255
179 210 255
179 210 255
179 210 255
179 209 255
179 209 255
179 209 255
179 209 255
178 209 255
178 209 255
178 209 255
178 209 255
178 209 255
178 209 255
178 209 255
178 209 255
178 209 255
178 209 255
177 209 255
177 209 255
177 209 255
177 209 255
177 208 255
177 208 255
177 208 255
177 208 255
177 208 255
177 208 255
176 208 255
176 208 255
176 208 255
176 208 255
176 208 255
176 208 255
176 208 255
176 208 255
176 208 255
175 207 255
175 207 255
175 207 255
175 207 255
175 207 255
175 207 255
175 207 255
175 207 255
174 207 255
174 207 255
174 207 255
174 207 255
174 207 255
174 207 255
174 206 255
174 206 255
173 206 255
173 206 255
173 206 255
173 206 255
173 206 255
173 206 255
173 206 255
173 206 255
172 206 255
172 206 255
172 206 255
172 205 255
172 205 255
172 205 255
172 205 255
172 205 255
171 205 255
171 205 255
171 205 255
171 205 255
171 205 255
171 205 255
171 205 255
170 204 255
170 204 255
170 204 255
170 204 255
170 204 255
170 204 255
170 204 255
169 204 255
169 204 255
169 204 255
169 204 255
169 204 255
169 203 255
169 203 255
168 203 255
168 203 255
168 203 255
168 203 255
168 203 255
168 203 255
168 203 255
167 203 255
167 203 255
167 202 255
167 202 255
167 202 255
167 202 255
167 202 255
166 202 255
166 202 255
166 202 255
166 202 255
166 202 255
166 202 255
166 202 255
165 201 255
165 201 255
165 201 255
165 201 255
165 201 255
165 201 255
165 201 255
165 201 255
164 201 255
164 201 255
164 201 255
164 201 255
164 201 255
164 201 255
164 200 255
164 200 255
164 200 255
163 200 255
163 200 255
163 200 255
163 200 255
163 200 255
163 200 255
163 200 255
163 200 255
163 200 255
163 200 255
162 200 255
162 200 255
162 200 255
162 200 255
162 199 255
162 199 255
162 199 255
162 199 255
162 199 255
162 199 255
162 199 255
162 199 255
162 199 255
162 199 255
161 199 255
161 199 255
161 199 255
161 199 255
161 199 255
161 199 255
161 199 255
161 199 255
161 199 255
161 199 255
161 199 255
161 199 255
161 199 255
161 199 255
161 199 255
161 199 255
161 199 255
161 199 255
161 199 255
161 199 255
161 199 255
161 199 255
161 199 255
161 199 255
161 199 255
161 199 255
161 199 255
161 199 255
161 199 255
161 199 255
161 199 255
161 199 255
161 199 255
161 199 255
162 199 255
162 199 255
162 199 255
162 199 255
162 199 255
162 199 255
162 199 255
162 199 255
162 199 255
162 199 255
162 200 255
162 200 255
162 200 255
162 200 255
163 200 255
163 200 255
163 200 255
163 200 255
163 200 255
163 200 255
163 200 255
163 200 255
163 200 255
163 200 255
164 200 255
164 200 255
164 200 255
164 201 255
164 201 255
164 201 255
164 201 255
164 201 255
164 201 255
165 201 255
165 201 255
165 201 255
165 201 255
165 201 255
165 201 255
165 201 255
166 202 255
166 202 255
166 202 255
166 202 255
166 202 255
166 202 255
166 202 255
166 202 255
167 202 255
167 202 255
167 202 255
167 202 255
167 202 255
167 203 255
167 203 255
168 203 255
168 203 255
168 203 255
168 203 255
168 203 255
168 203 255
168 203 255
169 203 255
169 203 255
169 204 255
169 204 255
169 204 255
169 204 255
169 204 255
170 204 255
170 204 255
170 204 255
170 204 255
170 204 255
170 204 255
170 204 255
171 205 255
171 205 255
171 205 255
171 205 255
171 205 255
171 205 255
171 205 255
172 205 255
172 205 255
172 205 255
172 205 255
172 205 255
172 206 255
172 206 255
172 206 255
173 206 255
173 206 255
173 206 255
173 206 255
173 206 255
173 206 255
173 206 255
173 206 255
174 206 255
174 206 255
174 207 255
174 207 255
174 207 255
174 207 255
174 207 255
174 207 255
175 207 255
175 207 255
175 207 255
175 207 255
175 207 255
175 207 255
175 207 255
175 207 255
176 208 255
176 208 255
176 208 255
176 208 255
176 208 255
176 208 255
176 208 255
176 208 255
176 208 255
177 208 255
177 208 255
177 208 255
177 208 255
177 208 255
177 208 255
177 209 255
177 209 255
177 209 255
177 209 255
178 209 255
178 209 255
178 209 255
178 209 255
178 209 255
178 209 255
178 209 255
178 209 255
178 209 255
178 209 255
179 209 255
179 209 255
179 209 255
179 209 255
179 210 255
179 210 255
179 210 255
179 210 255
179 210 255
179 210 255
179 210 255
180 210 255
180 210 255
180 210 255
180 210 255
180 210 255
180 210 255
180 210 255
180 210 255
180 210 255
180 210 255
180 210 255
180 210 255
180 210 255
181 211 255
181 211 255
181 211 255
181 211 255
181 211 255
181 211 255
181 211 255
181 211 255
181 211 255
181 211 255
181 211 255
181 211 255
181 211 255
181 211 255
182 211 255
182 211 255
182 211 255
182 211 255
182 211 255
181 211 255
181 211 255
181 211 255
181 211 255
181 211 255
181 211 255
181 211 255
181 211 255
181 211 255
181 211 255
181 211 255
181 211 255
181 211 255
181 211 255
180 210 255
180 210 255
180 210 255
180 210 255
180 210 255
180 210 255
180 210 255
180 210 255
180 210 255
180 210 255
180 210 255
180 210 255
179 210 255
179 210 255
179 210 255
179 210 255
179 210 255
179 210 255
179 210 255
179 209 255
179 209 255
179 209 255
179 209 255
178 209 255
178 209 255
178 209 255
178 209 255
178 209 255
178 209 255
178 209 255
178 209 255
178 209 255
178 209 255
177 209 255
177 209 255
177 209 255
177 209 255
177 208 255
177 208 255
177 208 255
177 208 255
177 208 255
177 208 255
176 208 255
176 208 255
176 208 255
176 208 255
176 208 255
176 208 255
176 208 255
176 208 255
176 208 255
175 207 255
175 207 255
175 207 255
175 207 255
175 207 255
175 207 255
175 207 255
175 207 255
174 207 255
174 207 255
174 207 255
174 207 255
174 207 255
174 207 255
174 206 255
174 206 255
173 206 255
173 206 255
173 206 255
173 206 255
173 206 255
173 206 255
173 206 255
173 206 255
172 206 255
172 206 255
172 205 255
172 205 255
172 205 255
172 205 255
172 205 255
171 205 255
171 205 255
171 205 255
171 205 255
171 205 255
171 205 255
171 205 255
170 204 255
170 204 255
170 204 255
170 204 255
170 204 255
170 204 255
170 204 255
170 204 255
169 204 255
169 204 255
169 204 255
169 204 255
169 203 255
169 203 255
169 203 255
168 203 255
168 203 255
168 203 255
168 203 255
168 203 255
168 203 255
168 203 255
167 203 255
167 203 255
167 202 255
167 202 255
167 202 255
167 202 255
167 202 255
166 202 255
166 202 255
166 202 255
166 202 255
166 202 255
166 202 255
166 202 255
165 201 255
165 201 255
165 201 255
165 201 255
165 201 255
165 201 255
165 201 255
165 201 255
164 201 255
164 201 255
164 201 255
164 201 255
164 201 255
164 201 255
164 200 255
164 200 255
164 200 255
163 200 255
163 200 255
163 200 255
163 200 255
163 200 255
163 200 255
163 200 255
163 200 255
163 200 255
163 200 255
163 200 255
162 200 255
162 200 255
162 200 255
162 200 255
162 199 255
162 199 255
162 199 255
162 199 255
162 199 255
162 199 255
162 199 255
162 199 255
162 199 255
162 199 255
162 199 255
162 199 255
161 199 255
161 199 255
161 199 255
161 199 255
161 199 255
161 199 255
161 199 255
161 199 255
161 199 255
161 199 255
161 199 255
161 199 255
161 199 255
161 199 255
161 199 255
161 199 255
161 199 255
161 199 255
161 199 255
161 199 255
161 199 255
161 199 255
161 199 255
161 199 255
162 199 255
162 199 255
162 199 255
162 199 255
162 199 255
162 199 255
162 199 255
162 199 255
162 199 255
162 199 255
162 199 255
162 199 255
162 200 255
162 200 255
162 200 255
162 200 255
163 200 255
163 200 255
163 200 255
163 200 255
163 200 255
163 200 255
163 200 255
163 200 255
163 200 255
163 200 255
163 200 255
164 200 255
164 200 255
164 200 255
164 201 255
164 201 255
164 201 255
164 201 255
164 201 255
164 201 255
165 201 255
165 201 255
165 201 255
165 201 255
165 201 255
165 201 255
165 201 255
165 201 255
166 202 255
166 202 255
166 202 255
166 202 255
166 202 255
166 202 255
166 202 255
167 202 255
167 202 255
167 202 255
167 202 255
167 202 255
167 203 255
167 203 255
168 203 255
168 203 255
168 203 255
168 203 255
168 203 255
168 203 255
168 203 255
169 203 255
169 203 255
169 203 255
169 204 255
169 204 255
169 204 255
169 204 255
170 204 255
170 204 255
170 204 255
170 204 255
170 204 255
170 204 255
170 204 255
171 205 255
171 205 255
171 205 255
171 205 255
171 205 255
171 205 255
171 205 255
171 205 255
172 205 255
172 205 255
172 205 255
172 205 255
172 205 255
172 206 255
172 206 255
173 206 255
173 206 255
173 206 255
173 206 255
173 206 255
173 206 255
173 206 255
173 206 255
174 206 255
174 206 255
174 207 255
174 207 255
174 207 255
174 207 255
174 207 255
174 207 255
175 207 255
175 207 255
175 207 255
175 207 255
175 207 255
175 207 255
175 207 255
175 207 255
176 208 255
176 208 255
176 208 255
176 208 255
176 208 255
176 208 255
176 208 255
176 208 255
176 208 255
177 208 255
177 208 255
177 208 255
177 208 255
177 208 255
177 208 255
177 209 255
177 209 255
177 209 255
177 209 255
178 209 255
178 209 255
178 209 255
178 209 255
178 209 255
178 209 255
178 209 255
178 209 255
178 209 255
178 209 255
179 209 255
179 209 255
179 209 255
179 209 255
179 210 255
179 210 255
179 210 255
179 210 255
179 210 255
179 210 255
179 210 255
180 210 255
180 210 255
180 210 255
180 210 255
180 210 255
180 210 255
180 210 255
180 210 255
180 210 255
180 210 255
180 210 255
180 210 255
180 210 255
181 211 255
181 211 255
181 211 255
181 211 255
181 211 255
181 211 255
181 211 255
181 211 255
181 211 255
181 211 255
181 211 255
181 211 255
181 211 255
182 211 255
182 211 255
182 211 255
182 211 255
182 211 255
182 211 255
182 211 255
182 211 255
182 211 255
182 211 255
181 211 255
181 211 255
181 211 255
181 211 255
181 211 255
181 211 255
181 211 255
181 211 255
181 211 255
181 211 255
181 211 255
181 211 255
181 211 255
181 211 255
180 210 255
180 210 255
180 210 255
180 210 255
180 210 255
180 210 255
180 210 255
180 210 255
180 210 255
180 210 255
180 210 255
180 210 255
179 210 255
179 210 255
179 210 255
179 210 255
179 210 255
179 210 255
179 210 255
179 210 255
179 209 255
179 209 255
179 209 255
178 209 255
178 209 255
178 209 255
178 209 255
178 209 255
178 209 255
178 209 255
178 209 255
178 209 255
178 209 255
177 209 255
177 209 255
177 209 255
177 209 255
177 208 255
177 208 255
177 208 255
177 208 255
177 208 255
177 208 255
176 208 255
176 208 255
176 208 255
176 208 255
176 208 255
176 208 255
176 208 255
176 208 255
176 208 255
175 207 255
175 207 255
175 207 255
175 207 255
175 207 255
175 207 255
175 207 255
175 207 255
174 207 255
174 207 255
174 207 255
174 207 255
174 207 255
174 206 255
174 206 255
174 206 255
173 206 255
173 206 255
173 206 255
173 206 255
173 206 255
173 206 255
173 206 255
173 206 255
172 206 255
172 206 255
172 205 255
172 205 255
172 205 255
172 205 255
172 205 255
171 205 255
171 205 255
171 205 255
171 205 255
171 205 255
171 205 255
171 205 255
170 204 255
170 204 255
170 204 255
170 204 255
170 204 255
170 204 255
170 204 255
169 204 255
169 204 255
169 204 255
169 204 255
169 204 255
169 203 255
169 203 255
168 203 255
168 203 255
168 203 255
168 203 255
168 203 255
168 203 255
168 203 255
167 203 255
167 203 255
167 203 255
167 202 255
167 202 255
167 202 255
167 202 255
167 202 255
166 202 255
166 202 255
166 202 255
166 202 255
166 202 255
166 202 255
166 202 255
165 201 255
165 201 255
165 201 255
165 201 255
165 201 255
165 201 255
165 201 255
165 201 255
164 201 255
164 201 255
164 201 255
164 201 255
164 201 255
164 201 255
164 200 255
164 200 255
164 200 255
163 200 255
163 200 255
163 200 255
163 200 255
163 200 255
163 200 255
163 200 255
163 200 255
163 200 255
163 200 255
163 200 255
163 200 255
162 200 255
162 200 255
162 200 255
162 200 255
162 200 255
162 199 255
162 199 255
162 199 255
162 199 255
162 199 255
162 199 255
162 199 255
162 199 255
162 199 255
162 199 255
162 199 255
162 199 255
162 199 255
162 199 255
162 199 255
162 199 255
162 199 255
162 199 255
161 199 255
161 199 255
161 199 255
161 199 255
162 199 255
162 199 255
162 199 255
162 199 255
162 199 255
162 199 255
162 199 255
162 199 255
162 199 255
162 199 255
162 199 255
162 199 255
162 199 255
162 199 255
162 199 255
162 199 255
162 199 255
162 199 255
162 199 255
162 200 255
162 200 255
162 200 255
162 200 255
162 200 255
163 200 255
163 200 255
163 200 255
163 200 255
163 200 255
163 200 255
163 200 255
163 200 255
163 200 255
163 200 255
163 200 255
164 200 255
164 200 255
164 200 255
164 201 255
164 201 255
164 201 255
164 201 255
164 201 255
164 201 255
165 201 255
165 201 255
165 201 255
165 201 255
165 201 255
165 201 255
165 201 255
165 201 255
166 202 255
166 202 255
166 202 255
166 202 255
166 202 255
166 202 255
166 202 255
167 202 255
167 202 255
167 202 255
167 202 255
167 202 255
167 203 255
167 203 255
167 203 255
168 203 255
168 203 255
168 203 255
168 203 255
168 203 255
168 203 255
168 203 255
169 203 255
169 203 255
169 204 255
169 204 255
169 204 255
169 204 255
169 204 255
170 204 255
170 204 255
170 204 255
170 204 255
170 204 255
170 204 255
170 204 255
171 205 255
171 205 255
171 205 255
171 205 255
171 205 255
171 205 255
171 205 255
172 205 255
172 205 255
172 205 255
172 205 255
172 205 255
172 206 255
172 206 255
173 206 255
173 206 255
173 206 255
173 206 255
173 206 255
173 206 255
173 206 255
173 206 255
174 206 255
174 206 255
174 207 255
174 207 255
174 207 255
174 207 255
174 207 255
174 207 255
175 207 255
175 207 255
175 207 255
175 207 255
175 207 255
175 207 255
175 207 255
175 207 255
176 208 255
176 208 255
176 208 255
176 208 255
176 208 255
176 208 255
176 208 255
176 208 255
176 208 255
177 208 255
177 208 255
177 208 255
177 208 255
177 208 255
177 208 255
177 209 255
177 209 255
177 209 255
177 209 255
178 209 255
178 209 255
178 209 255
178 209 255
178 209 255
178 209 255
178 209 255
178 209 255
178 209 255
178 209 255
179 209 255
179 209 255
179 209 255
179 210 255
179 210 255
179 210 255
179 210 255
179 210 255
179 210 255
179 210 255
179 210 255
180 210 255
180 210 255
180 210 255
180 210 255
180 210 255
180 210 255
180 210 255
180 210 255
180 210 255
180 210 255
180 210 255
180 210 255
181 211 255
181 211 255
181 211 255
181 211 255
181 211 255
181 211 255
181 211 255
181 211 255
181 211 255
181 211 255
181 211 255
181 211 255
181 211 255
181 211 255
182 211 255
182 211 255
182 211 255
182 211 255
182 211 255
182 211 255
182 211 255
182 211 255
182 211 255
182 211 255
182 211 255
182 211 255
182 211 255
182 211 255
182 211 255
181 211 255
181 211 255
181 211 255
181 211 255
181 211 255
181 211 255
181 211 255
181 211 255
181 211 255
181 211 255
181 211 255
181 211 255
181 211 255
180 210 255
180 210 255
180 210 255
180 210 255
180 210 255
180 210 255
180 210 255
180 210 255
180 210 255
180 210 255
180 210 255
180 210 255
180 210 255
179 210 255
179 210 255
179 210 255
179 210 255
179 210 255
179 210 255
179 210 255
179 209 255
179 209 255
179 209 255
179 209 255
178 209 255
178 209 255
178 209 255
178 209 255
178 209 255
178 209 255
178 209 255
178 209 255
178 209 255
178 209 255
177 209 255
177 209 255
177 209 255
177 208 255
177 208 255
177 208 255
177 208 255
177 208 255
177 208 255
176 208 255
176 208 255
176 208 255
176 208 255
176 208 255
176 208 255
176 208 255
176 208 255
176 208 255
175 207 255
175 207 255
175 207 255
175 207 255
175 207 255
175 207 255
175 207 255
175 207 255
174 207 255
174 207 255
174 207 255
174 207 255
174 207 255
174 206 255
174 206 255
174 206 255
173 206 255
173 206 255
173 206 255
173 206 255
173 206 255
173 206 255
173 206 255
173 206 255
172 206 255
172 206 255
172 205 255
172 205 255
172 205 255
172 205 255
172 205 255
171 205 255
171 205 255
171 205 255
171 205 255
171 205 255
171 205 255
171 205 255
170 204 255
170 204 255
170 204 255
170 204 255
170 204 255
170 204 255
170 204 255
169 204 255
169 204 255
169 204 255
169 204 255
169 204 255
169 203 255
169 203 255
168 203 255
168 203 255
168 203 255
168 203 255
168 203 255
168 203 255
168 203 255
167 203 255
167 203 255
167 203 255
167 202 255
167 202 255
167 202 255
167 202 255
167 202 255
166 202 255
166 202 255
166 202 255
166 202 255
166 202 255
166 202 255
166 202 255
165 201 255
165 201 255
165 201 255
165 201 255
165 201 255
165 201 255
165 201 255
165 201 255
165 201 255
164 201 255
164 201 255
164 201 255
164 201 255
164 201 255
164 201 255
164 200 255
164 200 255
164 200 255
163 200 255
163 200 255
163 200 255
163 200 255
163 200 255
163 200 255
163 200 255
163 200 255
163 200 255
163 200 255
163 200 255
163 200 255
162 200 255
162 200 255
162 200 255
162 200 255
162 200 255
162 200 255
162 199 255
162 199 255
162 199 255
162 199 255
162 199 255
162 199 255
162 199 255
162 199 255
162 199 255
162 199 255
162 199 255
162 199 255
162 199 255
162 199 255
162 199 255
162 199 255
162 199 255
162 199 255
162 199 255
162 199 255
162 199 255
162 199 255
162 199 255
162 199 255
162 199 255
162 199 255
162 199 255
162 199 255
162 199 255
162 199 255
162 199 255
162 199 255
162 200 255
162 200 255
162 200 255
162 200 255
162 200 255
162 200 255
163 200 255
163 200 255
163 200 255
163 200 255
163 200 255
163 200 255
163 200 255
163 200 255
163 200 255
163 200 255
163 200 255
163 200 255
164 200 255
164 200 255
164 200 255
164 201 255
164 201 255
164 201 255
164 201 255
164 201 255
164 201 255
165 201 255
165 201 255
165 201 255
165 201 255
165 201 255
165 201 255
165 201 255
165 201 255
165 201 255
166 202 255
166 202 255
166 202 255
166 202 255
166 202 255
166 202 255
166 202 255
167 202 255
167 202 255
167 202 255
167 202 255
167 202 255
167 203 255
167 203 255
167 203 255
168 203 255
168 203 255
168 203 255
168 203 255
168 203 255
168 203 255
168 203 255
169 203 255
169 203 255
169 204 255
169 204 255
169 204 255
169 204 255
169 204 255
170 204 255
170 204 255
170 204 255
170 204 255
170 204 255
170 204 255
170 204 255
171 205 255
171 205 255
171 205 255
171 205 255
171 205 255
171 205 255
171 205 255
172 205 255
172 205 255
172 205 255
172 205 255
172 205 255
172 206 255
172 206 255
173 206 255
173 206 255
173 206 255
173 206 255
173 206 255
173 206 255
173 206 255
173 206 255
174 206 255
174 206 255
174 207 255
174 207 255
174 207 255
174 207 255
174 207 255
174 207 255
175 207 255
175 207 255
175 207 255
175 207 255
175 207 255
175 207 255
175 207 255
175 207 255
176 208 255
176 208 255
176 208 255
176 208 255
176 208 255
176 208 255
176 208 255
176 208 255
176 208 255
177 208 255
177 208 255
177 208 255
177 208 255
177 208 255
177 208 255
177 209 255
177 209 255
177 209 255
178 209 255
178 209 255
178 209 255
178 209 255
178 209 255
178 209 255
178 209 255
178 209 255
178 209 255
178 209 255
179 209 255
179 209 255
179 209 255
179 209 255
179 210 255
179 210 255
179 210 255
179 210 255
179 210 255
179 210 255
179 210 255
180 210 255
180 210 255
180 210 255
180 210 255
180 210 255
180 210 255
180 210 255
180 210 255
180 210 255
180 210 255
180 210 255
180 210 255
180 210 255
181 211 255
181 211 255
181 211 255
181 211 255
181 211 255
181 211 255
181 211 255
181 211 255
181 211 255
181 211 255
181 211 255
181 211 255
181 211 255
182 211 255
182 211 255
182 211 255
182 211 255
182 211 255
182 211 255
182 211 255
182 211 255
182 211 255
182 212 255
182 212 255
182 211 255
182 211 255
182 211 255
182 211 255
182 211 255
182 211 255
182 211 255
182 211 255
182 211 255
182 211 255
181 211 255
181 211 255
181 211 255
181 211 255
181 211 255
181 211 255
181 211 255
181 211 255
181 211 255
181 211 255
181 211 255
181 211 255
181 211 255
180 210 255
180 210 255
180 210 255
180 210 255
180 210 255
180 210 255
180 210 255
180 210 255
180 210 255
180 210 255
180 210 255
180 210 255
179 210 255
179 210 255
179 210 255
179 210 255
179 210 255
179 210 255
179 210 255
179 209 255
179 209 255
179 209 255
179 209 255
178 209 255
178 209 255
178 209 255
178 209 255
178 209 255
178 209 255
178 209 255
178 209 255
178 209 255
178 209 255
177 209 255
177 209 255
177 209 255
177 208 255
177 208 255
177 208 255
177 208 255
177 208 255
177 208 255
176 208 255
176 208 255
176 208 255
176 208 255
176 208 255
176 208 255
176 208 255
176 208 255
176 208 255
175 207 255
175 207 255
175 207 255
175 207 255
175 207 255
175 207 255
175 207 255
175 207 255
174 207 255
174 207 255
174 207 255
174 207 255
174 207 255
174 206 255
174 206 255
174 206 255
173 206 255
173 206 255
173 206 255
173 206 255
173 206 255
173 206 255
173 206 255
173 206 255
172 206 255
172 206 255
172 205 255
172 205 255
172 205 255
172 205 255
172 205 255
171 205 255
171 205 255
171 205 255
171 205 255
171 205 255
171 205 255
171 205 255
170 204 255
170 204 255
170 204 255
170 204 255
170 204 255
170 204 255
170 204 255
169 204 255
169 204 255
169 204 255
169 204 255
169 204 255
169 203 255
169 203 255
168 203 255
168 203 255
168 203 255
168 203 255
168 203 255
168 203 255
168 203 255
167 203 255
167 203 255
167 203 255
167 202 255
167 202 255
167 202 255
167 202 255
167 202 255
166 202 255
166 202 255
166 202 255
166 202 255
166 202 255
166 202 255
166 202 255
165 201 255
165 201 255
165 201 255
165 201 255
165 201 255
165 201 255
165 201 255
165 201 255
165 201 255
164 201 255
164 201 255
164 201 255
164 201 255
164 201 255
164 201 255
164 200 255
164 200 255
164 200 255
164 200 255
163 200 255
163 200 255
163 200 255
163 200 255
163 200 255
163 200 255
163 200 255
163 200 255
163 200 255
163 200 255
163 200 255
163 200 255
163 200 255
163 200 255
162 200 255
162 200 255
162 200 255
162 200 255
162 200 255
162 200 255
162 200 255
162 199 255
162 199 255
162 199 255
162 199 255
162 199 255
162 199 255
162 199 255
162 199 255
162 199 255
162 199 255
162 199 255
162 199 255
162 199 255
162 199 255
162 199 255
162 199 255
162 199 255
162 199 255
162 199 255
162 200 255
162 200 255
162 200 255
162 200 255
162 200 255
162 200 255
162 200 255
162 200 255
163 200 255
163 200 255
163 200 255
163 200 255
163 200 255
163 200 255
163 200 255
163 200 255
163 200 255
163 200 255
163 200 255
163 200 255
163 200 255
163 200 255
164 200 255
164 200 255
164 200 255
164 200 255
164 201 255
164 201 255
164 201 255
164 201 255
164 201 255
164 201 255
165 201 255
165 201 255
165 201 255
165 201 255
165 201 255
165 201 255
165 201 255
165 201 255
166 202 255
166 202 255
166 202 255
166 202 255
166 202 255
166 202 255
166 202 255
166 202 255
167 202 255
167 202 255
167 202 255
167 202 255
167 202 255
167 203 255
167 203 255
167 203 255
168 203 255
168 203 255
168 203 255
168 203 255
168 203 255
168 203 255
168 203 255
169 203 255
169 203 255
169 204 255
169 204 255
169 204 255
169 204 255
169 204 255
170 204 255
170 204 255
170 204 255
170 204 255
170 204 255
170 204 255
170 204 255
171 205 255
171 205 255
171 205 255
171 205 255
171 205 255
171 205 255
171 205 255
172 205 255
172 205 255
172 205 255
172 205 255
172 205 255
172 206 255
172 206 255
173 206 255
173 206 255
173 206 255
173 206 255
173 206 255
173 206 255
173 206 255
173 206 255
174 206 255
174 206 255
174 206 255
174 207 255
174 207 255
174 207 255
174 207 255
174 207 255
175 207 255
175 207 255
175 207 255
175 207 255
175 207 255
175 207 255
175 207 255
175 207 255
176 208 255
176 208 255
176 208 255
176 208 255
176 208 255
176 208 255
176 208 255
176 208 255
176 208 255
177 208 255
177 208 255
177 208 255
177 208 255
177 208 255
177 208 255
177 209 255
177 209 255
177 209 255
178 209 255
178 209 255
178 209 255
178 209 255
178 209 255
178 209 255
178 209 255
178 209 255
178 209 255
178 209 255
179 209 255
179 209 255
179 209 255
179 209 255
179 210 255
179 210 255
179 210 255
179 210 255
179 210 255
179 210 255
179 210 255
180 210 255
180 210 255
180 210 255
180 210 255
180 210 255
180 210 255
180 210 255
180 210 255
180 210 255
180 210 255
180 210 255
180 210 255
181 211 255
181 211 255
181 211 255
181 211 255
181 211 255
181 211 255
181 211 255
181 211 255
181 211 255
181 211 255
181 211 255
181 211 255
181 211 255
181 211 255
182 211 255
182 211 255
182 211 255
182 211 255
182 211 255
182 211 255
182 211 255
182 211 255
182 211 255
182 212 255
182 212 255
182 212 255
182 212 255
182 212 255
182 212 255
182 211 255
182 211 255
182 211 255
182 211 255
182 211 255
182 211 255
182 211 255
182 211 255
182 211 255
182 211 255
181 211 255
181 211 255
181 211 255
181 211 255
181 211 255
181 211 255
181 211 255
181 211 255
181 211 255
181 211 255
181 211 255
181 211 255
181 211 255
181 211 255
180 210 255
180 210 255
180 210 255
180 210 255
180 210 255
180 210 255
180 210 255
180 210 255
180 210 255
180 210 255
180 210 255
179 210 255
179 210 255
179 210 255
179 210 255
179 210 255
179 210 255
179 210 255
179 210 255
179 209 255
179 209 255
179 209 255
178 209 255
178 209 255
178 209 255
178 209 255
178 209 255
178 209 255
178 209 255
178 209 255
178 209 255
178 209 255
177 209 255
177 209 255
177 209 255
177 209 255
177 208 255
177 208 255
177 208 255
177 208 255
177 208 255
177 208 255
176 208 255
176 208 255
176 208 255
176 208 255
176 208 255
176 208 255
176 208 255
176 208 255
175 207 255
175 207 255
175 207 255
175 207 255
175 207 255
175 207 255
175 207 255
175 207 255
174 207 255
174 207 255
174 207 255
174 207 255
174 207 255
174 207 255
174 206 255
174 206 255
173 206 255
173 206 255
173 206 255
173 206 255
173 206 255
173 206 255
173 206 255
173 206 255
172 206 255
172 206 255
172 205 255
172 205 255
172 205 255
172 205 255
172 205 255
171 205 255
171 205 255
171 205 255
171 205 255
171 205 255
171 205 255
171 205 255
170 204 255
170 204 255
170 204 255
170 204 255
170 204 255
170 204 255
170 204 255
169 204 255
169 204 255
169 204 255
169 204 255
169 204 255
169 203 255
169 203 255
168 203 255
168 203 255
168 203 255
168 203 255
168 203 255
168 203 255
168 203 255
167 203 255
167 203 255
167 203 255
167 202 255
167 202 255
167 202 255
167 202 255
167 202 255
166 202 255
166 202 255
166 202 255
166 202 255
166 202 255
166 202 255
166 202 255
166 202 255
165 201 255
165 201 255
165 201 255
165 201 255
165 201 255
165 201 255
165 201 255
165 201 255
165 201 255
164 201 255
164 201 255
164 201 255
164 201 255
164 201 255
164 201 255
164 200 255
164 200 255
164 200 255
164 200 255
163 200 255
163 200 255
163 200 255
163 200 255
163 200 255
163 200 255
163 200 255
163 200 255
163 200 255
163 200 255
163 200 255
163 200 255
163 200 255
163 200 255
163 200 255
163 200 255
162 200 255
162 200 255
162 200 255
162 200 255
162 200 255
162 200 255
162 200 255
162 200 255
162 200 255
162 200 255
162 200 255
162 200 255
162 200 255
162 200 255
162 200 255
162 200 255
162 200 255
162 200 255
162 200 255
162 200 255
162 200 255
162 200 255
162 200 255
163 200 255
163 200 255
163 200 255
163 200 255
163 200 255
163 200 255
163 200 255
163 200 255
163 200 255
163 200 255
163 200 255
163 200 255
163 200 255
163 200 255
163 200 255
163 200 255
163 200 255
164 200 255
164 200 255
164 200 255
164 200 255
164 201 255
164 201 255
164 201 255
164 201 255
164 201 255
164 201 255
165 201 255
165 201 255
165 201 255
165 201 255
165 201 255
165 201 255
165 201 255
165 201 255
165 201 255
166 202 255
166 202 255
166 202 255
166 202 255
166 202 255
166 202 255
166 202 255
166 202 255
167 202 255
167 202 255
167 202 255
167 202 255
167 202 255
167 203 255
167 203 255
168 203 255
168 203 255
168 203 255
168 203 255
168 203 255
168 203 255
168 203 255
168 203 255
169 203 255
169 203 255
169 204 255
169 204 255
169 204 255
169 204 255
169 204 255
170 204 255
170 204 255
170 204 255
170 204 255
170 204 255
170 204 255
170 204 255
171 205 255
171 205 255
171 205 255
171 205 255
171 205 255
171 205 255
171 205 255
172 205 255
172 205 255
172 205 255
172 205 255
172 205 255
172 206 255
172 206 255
173 206 255
173 206 255
173 206 255
173 206 255
173 206 255
173 206 255
173 206 255
173 206 255
174 206 255
174 206 255
174 207 255
174 207 255
174 207 255
174 207 255
174 207 255
175 207 255
175 207 255
175 207 255
175 207 255
175 207 255
175 207 255
175 207 255
175 207 255
175 207 255
176 208 255
176 208 255
176 208 255
176 208 255
176 208 255
176 208 255
176 208 255
176 208 255
176 208 255
177 208 255
177 208 255
177 208 255
177 208 255
177 208 255
177 209 255
177 209 255
177 209 255
177 209 255
178 209 255
178 209 255
178 209 255
178 209 255
178 209 255
178 209 255
178 209 255
178 209 255
178 209 255
178 209 255
179 209 255
179 209 255
179 209 255
179 210 255
179 210 255
179 210 255
179 210 255
179 210 255
179 210 255
179 210 255
180 210 255
180 210 255
180 210 255
180 210 255
180 210 255
180 210 255
180 210 255
180 210 255
180 210 255
180 210 255
180 210 255
180 210 255
181 211 255
181 211 255
181 211 255
181 211 255
181 211 255
181 211 255
181 211 255
181 211 255
181 211 255
181 211 255
181 211 255
181 211 255
181 211 255
181 211 255
182 211 255
182 211 255
182 211 255
182 211 255
182 211 255
182 211 255
182 211 255
182 211 255
182 211 255
182 211 255
182 212 255
182 212 255
182 212 255
182 212 255
183 212 255
183 212 255
182 212 255
182 212 255
182 212 255
182 212 255
182 212 255
182 211 255
182 211 255
182 211 255
182 211 255
182 211 255
182 211 255
182 211 255
182 211 255
182 211 255
182 211 255
181 211 255
181 211 255
181 211 255
181 211 255
181 211 255
181 211 255
181 211 255
181 211 255
181 211 255
181 211 255
181 211 255
181 211 255
181 211 255
180 210 255
180 210 255
180 210 255
180 210 255
180 210 255
180 210 255
180 210 255
180 210 255
180 210 255
180 210 255
180 210 255
180 210 255
179 210 255
179 210 255
179 210 255
179 210 255
179 210 255
179 210 255
179 210 255
179 209 255
179 209 255
179 209 255
179 209 255
178 209 255
178 209 255
178 209 255
178 209 255
178 209 255
178 209 255
178 209 255
178 209 255
178 209 255
178 209 255
177 209 255
177 209 255
177 209 255
177 208 255
177 208 255
177 208 255
177 208 255
177 208 255
177 208 255
176 208 255
176 208 255
176 208 255
176 208 255
176 208 255
176 208 255
176 208 255
176 208 255
176 208 255
175 207 255
175 207 255
175 207 255
175 207 255
175 207 255
175 207 255
175 207 255
175 207 255
174 207 255
174 207 255
174 207 255
174 207 255
174 207 255
174 206 255
174 206 255
173 206 255
173 206 255
173 206 255
173 206 255
173 206 255
173 206 255
173 206 255
173 206 255
172 206 255
172 206 255
172 205 255
172 205 255
172 205 255
172 205 255
172 205 255
171 205 255
171 205 255
171 205 255
171 205 255
171 205 255
171 205 255
171 205 255
170 204 255
170 204 255
170 204 255
170 204 255
170 204 255
170 204 255
170 204 255
170 204 255
169 204 255
169 204 255
169 204 255
169 204 255
169 203 255
169 203 255
169 203 255
168 203 255
168 203 255
168 203 255
168 203 255
168 203 255
168 203 255
168 203 255
167 203 255
167 203 255
167 202 255
167 202 255
167 202 255
167 202 255
167 202 255
166 202 255
166 202 255
166 202 255
166 202 255
166 202 255
166 202 255
166 202 255
166 202 255
166 202 255
165 201 255
165 201 255
165 201 255
165 201 255
165 201 255
165 201 255
165 201 255
165 201 255
164 201 255
164 201 255
164 201 255
164 201 255
164 201 255
164 201 255
164 201 255
164 201 255
164 200 255
164 200 255
164 200 255
164 200 255
163 200 255
163 200 255
163 200 255
163 200 255
163 200 255
163 200 255
163 200 255
163 200 255
163 200 255
163 200 255
163 200 255
163 200 255
163 200 255
163 200 255
163 200 255
163 200 255
163 200 255
163 200 255
163 200 255
163 200 255
163 200 255
163 200 255
163 200 255
163 200 255
163 200 255
163 200 255
163 200 255
163 200 255
163 200 255
163 200 255
163 200 255
163 200 255
163 200 255
163 200 255
163 200 255
163 200 255
163 200 255
163 200 255
163 200 255
163 200 255
163 200 255
163 200 255
163 200 255
163 200 255
163 200 255
163 200 255
163 200 255
163 200 255
164 200 255
164 200 255
164 200 255
164 200 255
164 201 255
164 201 255
164 201 255
164 201 255
164 201 255
164 201 255
164 201 255
165 201 255
165 201 255
165 201 255
165 201 255
165 201 255
165 201 255
165 201 255
165 201 255
165 201 255
166 202 255
166 202 255
166 202 255
166 202 255
166 202 255
166 202 255
166 202 255
166 202 255
166 202 255
167 202 255
167 202 255
167 202 255
167 202 255
167 202 255
167 203 255
167 203 255
168 203 255
168 203 255
168 203 255
168 203 255
168 203 255
168 203 255
168 203 255
169 203 255
169 203 255
169 203 255
169 204 255
169 204 255
169 204 255
169 204 255
169 204 255
170 204 255
170 204 255
170 204 255
170 204 255
170 204 255
170 204 255
170 204 255
171 205 255
171 205 255
171 205 255
171 205 255
171 205 255
171 205 255
171 205 255
172 205 255
172 205 255
172 205 255
172 205 255
172 205 255
172 206 255
172 206 255
173 206 255
173 206 255
173 206 255
173 206 255
173 206 255
173 206 255
173 206 255
174 206 255
174 206 255
174 206 255
174 207 255
174 207 255
174 207 255
174 207 255
174 207 255
175 207 255
175 207 255
175 207 255
175 207 255
175 207 255
175 207 255
175 207 255
175 207 255
176 208 255
176 208 255
176 208 255
176 208 255
176 208 255
176 208 255
176 208 255
176 208 255
176 208 255
177 208 255
177 208 255
177 208 255
177 208 255
177 208 255
177 208 255
177 209 255
177 209 255
177 209 255
178 209 255
178 209 255
178 209 255
178 209 255
178 209 255
178 209 255
178 209 255
178 209 255
178 209 255
178 209 255
179 209 255
179 209 255
179 209 255
179 209 255
179 210 255
179 210 255
179 210 255
179 210 255
179 210 255
179 210 255
179 210 255
180 210 255
180 210 255
180 210 255
180 210 255
180 210 255
180 210 255
180 210 255
180 210 255
180 210 255
180 210 255
180 210 255
180 210 255
181 211 255
181 211 255
181 211 255
181 211 255
181 211 255
181 211 255
181 211 255
181 211 255
181 211 255
181 211 255
181 211 255
181 211 255
181 211 255
182 211 255
182 211 255
182 211 255
182 211 255
182 211 255
182 211 255
182 211 255
182 211 255
182 211 255
182 211 255
182 212 255
182 212 255
182 212 255
182 212 255
182 212 255
183 212 255
183 212 255
183 212 255
183 212 255
183 212 255
183 212 255
183 212 255
182 212 255
182 212 255
182 212 255
182 212 255
182 212 255
182 211 255
182 211 255
182 211 255
182 211 255
182 211 255
182 211 255
182 211 255
182 211 255
182 211 255
182 211 255
181 211 255
181 211 255
181 211 255
181 211 255
181 211 255
181 211 255
181 211 255
181 211 255
181 211 255
181 211 255
181 211 255
181 211 255
181 211 255
180 210 255
180 210 255
180 210 255
180 210 255
180 210 255
180 210 255
180 210 255
180 210 255
180 210 255
180 210 255
180 210 255
180 210 255
179 210 255
179 210 255
179 210 255
179 210 255
179 210 255
179 210 255
179 210 255
179 209 255
179 209 255
179 209 255
178 209 255
178 209 255
178 209 255
178 209 255
178 209 255
178 209 255
178 209 255
178 209 255
178 209 255
178 209 255
177 209 255
177 209 255
177 209 255
177 208 255
177 208 255
177 208 255
177 208 255
177 208 255
177 208 255
176 208 255
176 208 255
176 208 255
176 208 255
176 208 255
176 208 255
176 208 255
176 208 255
176 208 255
175 207 255
175 207 255
175 207 255
175 207 255
175 207 255
175 207 255
175 207 255
175 207 255
174 207 255
174 207 255
174 207 255
174 207 255
174 207 255
174 206 255
174 206 255
174 206 255
173 206 255
173 206 255
173 206 255
173 206 255
173 206 255
173 206 255
173 206 255
172 206 255
172 206 255
172 206 255
172 205 255
172 205 255
172 205 255
172 205 255
171 205 255
171 205 255
171 205 255
171 205 255
171 205 255
171 205 255
171 205 255
171 205 255
170 204 255
170 204 255
170 204 255
170 204 255
170 204 255
170 204 255
170 204 255
169 204 255
169 204 255
169 204 255
169 204 255
169 203 255
169 203 255
169 203 255
168 203 255
168 203 255
168 203 255
168 203 255
168 203 255
168 203 255
168 203 255
167 203 255
167 203 255
167 203 255
167 202 255
167 202 255
167 202 255
167 202 255
167 202 255
166 202 255
166 202 255
166 202 255
166 202 255
166 202 255
166 202 255
166 202 255
166 202 255
165 201 255
165 201 255
165 201 255
165 201 255
165 201 255
165 201 255
165 201 255
165 201 255
165 201 255
165 201 255
164 201 255
164 201 255
164 201 255
164 201 255
164 201 255
164 201 255
164 201 255
164 201 255
164 200 255
164 200 255
164 200 255
164 200 255
164 200 255
163 200 255
163 200 255
163 200 255
163 200 255
163 200 255
163 200 255
163 200 255
163 200 255
163 200 255
163 200 255
163 200 255
163 200 255
163 200 255
163 200 255
163 200 255
163 200 255
163 200 255
163 200 255
163 200 255
163 200 255
163 200 255
163 200 255
163 200 255
163 200 255
163 200 255
163 200 255
163 200 255
163 200 255
163 200 255
163 200 255
163 200 255
163 200 255
163 200 255
163 200 255
163 200 255
163 200 255
163 200 255
163 200 255
163 200 255
164 200 255
164 200 255
164 200 255
164 200 255
164 201 255
164 201 255
164 201 255
164 201 255
164 201 255
164 201 255
164 201 255
164 201 255
165 201 255
165 201 255
165 201 255
165 201 255
165 201 255
165 201 255
165 201 255
165 201 255
165 201 255
165 201 255
166 202 255
166 202 255
166 202 255
166 202 255
166 202 255
166 202 255
166 202 255
166 202 255
167 202 255
167 202 255
167 202 255
167 202 255
167 202 255
167 203 255
167 203 255
167 203 255
168 203 255
168 203 255
168 203 255
168 203 255
168 203 255
168 203 255
168 203 255
169 203 255
169 203 255
169 203 255
169 204 255
169 204 255
169 204 255
169 204 255
170 204 255
170 204 255
170 204 255
170 204 255
170 204 255
170 204 255
170 204 255
171 205 255
171 205 255
171 205 255
171 205 255
171 205 255
171 205 255
171 205 255
171 205 255
172 205 255
172 205 255
172 205 255
172 205 255
172 206 255
172 206 255
172 206 255
173 206 255
173 206 255
173 206 255
173 206 255
173 206 255
173 206 255
173 206 255
174 206 255
174 206 255
174 206 255
174 207 255
174 207 255
174 207 255
174 207 255
174 207 255
175 207 255
175 207 255
175 207 255
175 207 255
175 207 255
175 207 255
175 207 255
175 207 255
176 208 255
176 208 255
176 208 255
176 208 255
176 208 255
176 208 255
176 208 255
176 208 255
176 208 255
177 208 255
177 208 255
177 208 255
177 208 255
177 208 255
177 208 255
177 209 255
177 209 255
177 209 255
178 209 255
178 209 255
178 209 255
178 209 255
178 209 255
178 209 255
178 209 255
178 209 255
178 209 255
178 209 255
179 209 255
179 209 255
179 209 255
179 210 255
179 210 255
179 210 255
179 210 255
179 210 255
179 210 255
179 210 255
180 210 255
180 210 255
180 210 255
180 210 255
180 210 255
180 210 255
180 210 255
180 210 255
180 210 255
180 210 255
180 210 255
180 210 255
181 211 255
181 211 255
181 211 255
181 211 255
181 211 255
181 211 255
181 211 255
181 211 255
181 211 255
181 211 255
181 211 255
181 211 255
181 211 255
182 211 255
182 211 255
182 211 255
182 211 255
182 211 255
182 211 255
182 211 255
182 211 255
182 211 255
182 211 255
182 212 255
182 212 255
182 212 255
182 212 255
182 212 255
183 212 255
183 212 255
183 212 255
183 212 255
183 212 255
183 212 255
183 212 255
183 212 255
183 212 255
183 212 255
183 212 255
183 212 255
183 212 255
182 212 255
182 212 255
182 212 255
182 212 255
182 212 255
182 211 255
182 211 255
182 211 255
182 211 255
182 211 255
182 211 255
182 211 255
182 211 255
182 211 255
182 211 255
181 211 255
181 211 255
181 211 255
181 211 255
181 211 255
181 211 255
181 211 255
181 211 255
181 211 255
181 211 255
181 211 255
181 211 255
181 211 255
180 210 255
180 210 255
180 210 255
180 210 255
180 210 255
180 210 255
180 210 255
180 210 255
180 210 255
180 210 255
180 210 255
179 210 255
179 210 255
179 210 255
179 210 255
179 210 255
179 210 255
179 210 255
179 210 255
179 209 255
179 209 255
179 209 255
178 209 255
178 209 255
178 209 255
178 209 255
178 209 255
178 209 255
178 209 255
178 209 255
178 209 255
178 209 255
177 209 255
177 209 255
177 209 255
177 208 255
177 208 255
177 208 255
177 208 255
177 208 255
177 208 255
176 208 255
176 208 255
176 208 255
176 208 255
176 208 255
176 208 255
176 208 255
176 208 255
175 207 255
175 207 255
175 207 255
175 207 255
175 207 255
175 207 255
175 207 255
175 207 255
174 207 255
174 207 255
174 207 255
174 207 255
174 207 255
174 206 255
174 206 255
174 206 255
173 206 255
173 206 255
173 206 255
173 206 255
173 206 255
173 206 255
173 206 255
172 206 255
172 206 255
172 206 255
172 205 255
172 205 255
172 205 255
172 205 255
172 205 255
171 205 255
171 205 255
171 205 255
171 205 255
171 205 255
171 205 255
171 205 255
170 204 255
170 204 255
170 204 255
170 204 255
170 204 255
170 204 255
170 204 255
169 204 255
169 204 255
169 204 255
169 204 255
169 204 255
169 203 255
169 203 255
168 203 255
168 203 255
168 203 255
168 203 255
168 203 255
168 203 255
168 203 255
168 203 255
167 203 255
167 203 255
167 202 255
167 202 255
167 202 255
167 202 255
167 202 255
167 202 255
166 202 255
166 202 255
166 202 255
166 202 255
166 202 255
166 202 255
166 202 255
166 202 255
165 201 255
165 201 255
165 201 255
165 201 255
165 201 255
165 201 255
165 201 255
165 201 255
165 201 255
165 201 255
165 201 255
164 201 255
164 201 255
164 201 255
164 201 255
164 201 255
164 201 255
164 201 255
164 201 255
164 201 255
164 200 255
164 200 255
164 200 255
164 200 255
164 200 255
164 200 255
164 200 255
163 200 255
163 200 255
163 200 255
163 200 255
163 200 255
163 200 255
163 200 255
163 200 255
163 200 255
163 200 255
163 200 255
163 200 255
163 200 255
163 200 255
163 200 255
163 200 255
163 200 255
163 200 255
163 200 255
163 200 255
163 200 255
163 200 255
163 200 255
163 200 255
164 200 255
164 200 255
164 200 255
164 200 255
164 200 255
164 200 255
164 200 255
164 201 255
164 201 255
164 201 255
164 201 255
164 201 255
164 201 255
164 201 255
164 201 255
164 201 255
165 201 255
165 201 255
165 201 255
165 201 255
165 201 255
165 201 255
165 201 255
165 201 255
165 201 255
165 201 255
165 201 255
166 202 255
166 202 255
166 202 255
166 202 255
166 202 255
166 202 255
166 202 255
166 202 255
167 202 255
167 202 255
167 202 255
167 202 255
167 202 255
167 202 255
167 203 255
167 203 255
168 203 255
168 203 255
168 203 255
168 203 255
168 203 255
168 203 255
168 203 255
168 203 255
169 203 255
169 203 255
169 204 255
169 204 255
169 204 255
169 204 255
169 204 255
170 204 255
170 204 255
170 204 255
170 204 255
170 204 255
170 204 255
170 204 255
171 205 255
171 205 255
171 205 255
171 205 255
171 205 255
171 205 255
171 205 255
172 205 255
172 205 255
172 205 255
172 205 255
172 205 255
172 206 255
172 206 255
173 206 255
173 206 255
173 206 255
173 206 255
173 206 255
173 206 255
173 206 255
173 206 255
174 206 255
174 206 255
174 206 255
174 207 255
174 207 255
174 207 255
174 207 255
174 207 255
175 207 255
175 207 255
175 207 255
175 207 255
175 207 255
175 207 255
175 207 255
175 207 255
176 208 255
176 208 255
176 208 255
176 208 255
176 208 255
176 208 255
176 208 255
176 208 255
177 208 255
177 208 255
177 208 255
177 208 255
177 208 255
177 208 255
177 209 255
177 209 255
177 209 255
178 209 255
178 209 255
178 209 255
178 209 255
178 209 255
178 209 255
178 209 255
178 209 255
178 209 255
178 209 255
179 209 255
179 209 255
179 209 255
179 210 255
179 210 255
179 210 255
179 210 255
179 210 255
179 210 255
179 210 255
179 210 255
180 210 255
180 210 255
180 210 255
180 210 255
180 210 255
180 210 255
180 210 255
180 210 255
180 210 255
180 210 255
180 210 255
181 211 255
181 211 255
181 211 255
181 211 255
181 211 255
181 211 255
181 211 255
181 211 255
181 211 255
181 211 255
181 211 255
181 211 255
181 211 255
182 211 255
182 211 255
182 211 255
182 211 255
182 211 255
182 211 255
182 211 255
182 211 255
182 211 255
182 211 255
182 212 255
182 212 255
182 212 255
182 212 255
182 212 255
183 212 255
183 212 255
183 212 255
183 212 255
183 212 255
183 212 255
183 212 255
183 212 255
183 212 255
183 212 255
183 212 255
183 212 255
183 212 255
183 212 255
183 212 255
183 212 255
183 212 255
183 212 255
183 212 255
182 212 255
182 212 255
182 212 255
182 212 255
182 212 255
182 211 255
182 211 255
182 211 255
182 211 255
182 211 255
182 211 255
182 211 255
182 211 255
182 211 255
182 211 255
181 211 255
181 211 255
181 211 255
181 211 255
181 211 255
181 211 255
181 211 255
181 211 255
181 211 255
181 211 255
181 211 255
181 211 255
181 211 255
180 210 255
180 210 255
180 210 255
180 210 255
180 210 255
180 210 255
180 210 255
176 206 250
177 207 252
172 201 245
177 207 252
178 209 253
175 205 250
175 205 249
177 208 253
179 210 255
179 210 255
179 210 255
179 209 255
179 209 255
179 209 255
178 209 255
178 209 255
178 209 255
178 209 255
178 209 255
178 209 255
178 209 255
178 209 255
178 209 255
178 209 255
177 209 255
177 209 255
177 209 255
177 208 255
177 208 255
177 208 255
177 208 255
177 208 255
177 208 255
176 208 255
176 208 255
176 208 255
176 208 255
176 208 255
176 208 255
176 208 255
176 208 255
176 208 255
175 207 255
175 207 255
175 207 255
175 207 255
175 207 255
175 207 255
175 207 255
175 207 255
174 207 255
174 207 255
174 207 255
174 207 255
174 207 255
174 206 255
174 206 255
174 206 255
173 206 255
173 206 255
173 206 255
173 206 255
173 206 255
173 206 255
173 206 255
172 206 255
172 206 255
172 205 255
172 205 255
172 205 255
172 205 255
172 205 255
171 205 255
171 205 255
171 205 255
171 205 255
171 205 255
171 205 255
171 205 255
170 204 255
170 204 255
170 204 255
170 204 255
170 204 255
170 204 255
170 204 255
170 204 255
169 204 255
169 204 255
169 204 255
169 204 255
169 204 255
169 203 255
169 203 255
168 203 255
168 203 255
168 203 255
168 203 255
168 203 255
168 203 255
168 203 255
168 203 255
167 203 255
167 203 255
167 202 255
167 202 255
167 202 255
167 202 255
167 202 255
167 202 255
166 202 255
166 202 255
166 202 255
166 202 255
166 202 255
166 202 255
166 202 255
166 202 255
166 202 255
165 201 255
165 201 255
165 201 255
165 201 255
165 201 255
165 201 255
165 201 255
165 201 255
165 201 255
165 201 255
165 201 255
164 201 255
164 201 255
164 201 255
164 201 255
164 201 255
164 201 255
164 201 255
164 201 255
164 201 255
164 201 255
164 201 255
164 201 255
164 200 255
164 200 255
164 200 255
164 200 255
164 200 255
164 200 255
164 200 255
164 200 255
164 200 255
164 200 255
161 194 248
161 196 250
163 198 253
160 196 250
162 198 253
164 200 255
164 200 255
164 200 255
164 200 255
164 200 255
164 200 255
164 200 255
164 200 255
164 200 255
164 201 255
164 201 255
164 201 255
164 201 255
164 201 255
164 201 255
164 201 255
164 201 255
164 201 255
164 201 255
164 201 255
164 201 255
165 201 255
165 201 255
165 201 255
165 201 255
165 201 255
165 201 255
165 201 255
165 201 255
165 201 255
165 201 255
165 201 255
166 202 255
166 202 255
166 202 255
166 202 255
166 202 255
166 202 255
166 202 255
166 202 255
166 202 255
167 202 255
167 202 255
167 202 255
167 202 255
167 202 255
167 202 255
167 203 255
167 203 255
168 203 255
168 203 255
168 203 255
168 203 255
168 203 255
168 203 255
168 203 255
168 203 255
169 203 255
169 203 255
169 204 255
169 204 255
169 204 255
169 204 255
169 204 255
170 204 255
170 204 255
170 204 255
170 204 255
170 204 255
170 204 255
170 204 255
170 204 255
171 205 255
171 205 255
171 205 255
171 205 255
171 205 255
171 205 255
171 205 255
172 205 255
172 205 255
172 205 255
172 205 255
172 205 255
172 206 255
172 206 255
173 206 255
173 206 255
173 206 255
173 206 255
173 206 255
173 206 255
173 206 255
173 206 255
174 206 255
174 206 255
174 207 255
174 207 255
174 207 255
174 207 255
174 207 255
175 207 255
175 207 255
175 207 255
175 207 255
175 207 255
175 207 255
175 207 255
175 207 255
176 208 255
176 208 255
176 208 255
176 208 255
176 208 255
176 208 255
176 208 255
176 208 255
176 208 255
177 208 255
177 208 255
177 208 255
177 208 255
177 208 255
177 208 255
177 209 255
177 209 255
177 209 255
178 209 255
178 209 255
178 209 255
178 209 255
178 209 255
178 209 255
178 209 255
178 209 255
178 209 255
179 209 255
179 209 255
179 209 255
179 209 255
179 210 255
179 210 255
179 210 255
179 210 255
177 208 254
174 204 249
176 206 252
172 202 250
180 210 255
173 202 247
174 204 252
180 210 255
180 210 255
180 210 255
180 210 255
180 210 255
180 210 255
180 210 255
180 210 255
181 211 255
181 211 255
181 211 255
181 211 255
181 211 255
181 211 255
181 211 255
181 211 255
181 211 255
181 211 255
181 211 255
181 211 255
182 211 255
182 211 255
182 211 255
182 211 255
182 211 255
182 211 255
182 211 255
182 211 255
182 211 255
182 211 255
182 212 255
182 212 255
182 212 255
182 212 255
182 212 255
183 212 255
183 212 255
183 212 255
183 212 255
183 212 255
183 212 255
183 212 255
183 212 255
183 212 255
183 212 255
183 212 255
183 212 255
183 212 255
183 212 255
183 212 255
183 212 255
183 212 255
183 212 255
183 212 255
183 212 255
183 212 255
183 212 255
183 212 255
183 212 255
183 212 255
182 212 255
182 212 255
182 212 255
182 212 255
182 212 255
182 212 255
182 211 255
182 211 255
182 211 255
182 211 255
182 211 255
182 211 255
181 210 254
170 199 240
158 185 225
148 174 211
128 152 182
120 143 174
118 141 170
112 134 164
96 117 143
97 120 145
85 104 128
77 98 116
77 98 116
87 106 130
53 73 84
65 83 102
53 70 85
54 69 88
46 60 73
46 62 75
47 61 76
54 70 85
44 60 71
46 65 75
43 55 67
46 62 76
45 60 72
45 61 74
43 58 69
47 65 77
57 73 90
62 80 96
65 84 100
68 86 103
62 76 95
81 99 122
81 100 122
97 119 147
94 114 138
107 130 159
104 127 155
113 136 167
124 151 183
127 152 186
150 177 217
151 178 218
165 194 238
177 209 255
177 209 255
177 209 255
177 208 255
177 208 255
177 208 255
177 208 255
177 208 255
177 208 255
176 208 255
176 208 255
176 208 255
176 208 255
176 208 255
176 208 255
176 208 255
176 208 255
175 207 255
175 207 255
175 207 255
175 207 255
175 207 255
175 207 255
175 207 255
175 207 255
174 207 255
174 207 255
174 207 255
174 207 255
174 207 255
174 206 255
174 206 255
174 206 255
173 206 255
173 206 255
173 206 255
173 206 255
173 206 255
173 206 255
173 206 255
172 206 255
172 206 255
172 206 255
172 205 255
172 205 255
172 205 255
172 205 255
172 205 255
171 205 255
171 205 255
171 205 255
171 205 255
171 205 255
171 205 255
171 205 255
170 204 255
170 204 255
170 204 255
170 204 255
170 204 255
170 204 255
170 204 255
169 204 255
169 204 255
169 204 255
169 204 255
169 204 255
169 203 255
169 203 255
169 203 255
168 203 255
168 203 255
168 203 255
168 203 255
168 203 255
168 203 255
168 203 255
167 203 255
167 203 255
167 203 255
167 202 255
167 202 255
167 202 255
167 202 255
167 202 255
167 202 255
166 202 255
166 202 255
166 202 255
166 202 255
166 202 255
166 202 255
166 202 255
166 202 255
166 202 255
166 202 255
165 201 255
165 201 255
165 201 255
165 201 255
165 201 255
165 201 255
165 201 255
165 201 255
165 201 255
165 201 255
165 201 255
165 201 255
165 201 255
165 201 255
164 201 255
163 199 253
145 169 215
137 148 189
125 128 163
102 84 107
112 106 135
90 60 76
94 64 81
75 40 51
70 42 53
65 18 23
57 12 15
63 4 5
55 0 0
60 0 0
65 0 0
50 0 0
52 0 0
55 0 0
58 2 2
54 6 7
56 12 15
67 20 25
69 28 35
88 62 79
97 70 89
103 82 104
114 110 140
121 130 166
136 148 189
155 183 232
164 199 253
164 201 255
164 201 255
165 201 255
165 201 255
165 201 255
165 201 255
165 201 255
165 201 255
165 201 255
165 201 255
165 201 255
165 201 255
165 201 255
165 201 255
165 201 255
166 202 255
166 202 255
166 202 255
166 202 255
166 202 255
166 202 255
166 202 255
166 202 255
166 202 255
166 202 255
167 202 255
167 202 255
167 202 255
167 202 255
167 202 255
167 202 255
167 203 255
167 203 255
168 203 255
168 203 255
168 203 255
168 203 255
168 203 255
168 203 255
168 203 255
168 203 255
169 203 255
169 203 255
169 203 255
169 204 255
169 204 255
169 204 255
169 204 255
169 204 255
170 204 255
170 204 255
170 204 255
170 204 255
170 204 255
170 204 255
170 204 255
171 205 255
171 205 255
171 205 255
171 205 255
171 205 255
171 205 255
171 205 255
172 205 255
172 205 255
172 205 255
172 205 255
172 205 255
172 206 255
172 206 255
172 206 255
173 206 255
173 206 255
173 206 255
173 206 255
173 206 255
173 206 255
173 206 255
174 206 255
174 206 255
174 206 255
174 207 255
174 207 255
174 207 255
174 207 255
174 207 255
175 207 255
175 207 255
175 207 255
175 207 255
175 207 255
175 207 255
175 207 255
175 207 255
176 208 255
176 208 255
176 208 255
176 208 255
176 208 255
176 208 255
176 208 255
176 208 255
177 208 255
177 208 255
177 208 255
177 208 255
177 208 255
177 208 255
177 209 255
177 209 255
172 202 250
172 202 249
156 184 232
139 163 208
123 144 202
123 144 210
83 98 151
75 88 140
80 94 150
67 79 140
53 62 121
55 65 129
25 29 103
26 31 100
23 27 90
19 23 91
12 14 73
16 18 93
3 4 68
0 0 63
0 0 63
0 0 75
0 0 73
0 0 64
0 0 84
0 0 76
0 0 70
0 0 73
0 0 64
7 8 75
14 16 79
7 8 73
14 16 83
14 16 77
25 29 95
41 48 119
34 40 113
59 69 122
67 78 132
76 88 145
87 101 161
96 112 168
114 133 184
129 150 205
134 156 202
156 181 228
169 196 240
182 211 255
182 211 255
182 211 255
182 211 255
182 211 255
182 211 255
182 211 255
182 211 255
182 212 255
182 212 255
182 212 255
182 212 255
182 212 255
183 212 255
183 212 255
183 212 255
183 212 255
183 212 255
183 212 255
183 212 255
183 212 255
183 212 255
183 212 255
183 212 255
183 212 255
183 212 255
183 212 255
184 212 255
183 212 255
183 212 255
183 212 255
183 212 255
183 212 255
183 212 255
183 212 255
183 212 255
183 212 255
183 212 255
183 212 255
183 212 255
183 212 255
183 212 255
183 212 255
183 212 255
177 206 248
166 194 234
143 168 203
133 158 191
108 130 157
107 131 156
91 113 134
80 101 119
58 75 89
44 58 67
42 59 66
55 72 87
47 66 76
41 59 67
49 66 80
43 63 72
42 59 67
46 62 73
51 72 83
39 55 64
47 62 73
46 62 72
49 67 79
41 56 66
50 65 82
45 61 74
49 64 78
45 63 73
46 61 74
38 53 61
45 62 73
53 71 85
38 50 61
45 61 75
52 68 83
52 70 86
43 59 72
42 58 69
43 60 72
54 72 87
41 56 64
42 58 66
41 59 69
51 65 81
46 64 73
48 62 77
48 63 76
46 63 76
43 58 69
39 55 61
44 58 70
54 73 88
47 60 76
52 68 80
55 68 86
49 67 80
49 65 77
70 87 108
76 93 114
82 100 125
104 127 155
129 154 190
149 177 216
136 161 198
153 181 223
177 208 255
177 208 255
177 208 255
176 208 255
176 208 255
176 208 255
176 208 255
176 208 255
176 208 255
176 208 255
176 208 255
175 207 255
175 207 255
175 207 255
175 207 255
175 207 255
175 207 255
175 207 255
175 207 255
174 207 255
174 207 255
174 207 255
174 207 255
174 207 255
174 206 255
174 206 255
173 206 255
173 206 255
173 206 255
173 206 255
173 206 255
173 206 255
173 206 255
173 206 255
172 206 255
172 206 255
172 206 255
172 205 255
172 205 255
172 205 255
172 205 255
171 205 255
171 205 255
171 205 255
171 205 255
171 205 255
171 205 255
171 205 255
171 205 255
170 204 255
170 204 255
170 204 255
170 204 255
170 204 255
170 204 255
170 204 255
169 204 255
169 204 255
169 204 255
169 204 255
169 204 255
169 203 255
169 203 255
169 203 255
168 203 255
168 203 255
168 203 255
168 203 255
168 203 255
168 203 255
168 203 255
168 203 255
167 203 255
167 203 255
167 203 255
167 202 255
167 202 255
167 202 255
167 202 255
167 202 255
167 202 255
166 202 255
166 202 255
166 202 255
166 202 255
166 202 255
166 202 255
166 202 255
166 202 255
166 202 255
166 202 255
166 202 255
165 201 255
165 201 255
165 201 255
165 201 255
165 201 255
143 161 204
131 143 181
101 90 115
95 68 87
73 30 38
50 4 5
52 0 0
54 0 0
50 0 0
50 0 0
60 0 0
56 0 0
54 0 0
47 0 0
53 0 0
46 0 0
54 0 0
55 0 0
62 0 0
46 0 0
49 0 0
57 0 0
59 0 0
54 0 0
63 0 0
51 0 0
52 0 0
49 0 0
53 0 0
53 0 0
53 0 0
48 0 0
45 0 0
48 0 0
53 0 0
57 0 0
54 2 2
73 18 23
94 72 92
106 98 125
124 131 166
151 175 222
163 199 253
165 201 255
165 201 255
165 201 255
165 201 255
165 201 255
166 202 255
166 202 255
166 202 255
166 202 255
166 202 255
166 202 255
166 202 255
166 202 255
166 202 255
166 202 255
167 202 255
167 202 255
167 202 255
167 202 255
167 202 255
167 202 255
167 203 255
167 203 255
167 203 255
168 203 255
168 203 255
168 203 255
168 203 255
168 203 255
168 203 255
168 203 255
168 203 255
169 203 255
169 203 255
169 203 255
169 204 255
169 204 255
169 204 255
169 204 255
169 204 255
170 204 255
170 204 255
170 204 255
170 204 255
170 204 255
170 204 255
170 204 255
171 205 255
171 205 255
171 205 255
171 205 255
171 205 255
171 205 255
171 205 255
171 205 255
172 205 255
172 205 255
172 205 255
172 205 255
172 205 255
172 206 255
172 206 255
173 206 255
173 206 255
173 206 255
173 206 255
173 206 255
173 206 255
173 206 255
174 206 255
174 206 255
174 206 255
174 207 255
174 207 255
174 207 255
174 207 255
174 207 255
175 207 255
175 207 255
175 207 255
175 207 255
175 207 255
175 207 255
175 207 255
175 207 255
176 208 255
176 208 255
176 208 255
176 208 255
176 208 255
176 208 255
176 208 255
176 208 255
176 208 255
177 208 255
170 200 251
156 183 239
140 164 214
120 142 205
79 94 149
81 96 161
58 68 127
48 56 120
19 23 96
1 2 76
0 0 85
0 0 76
0 0 70
0 0 89
0 0 72
0 0 71
0 0 73
0 0 63
0 0 86
0 0 83
0 0 66
0 0 72
0 0 72
0 0 72
0 0 78
0 0 80
0 0 70
0 0 73
0 0 70
0 0 72
0 0 55
0 0 67
0 0 77
0 0 58
0 0 78
0 0 76
0 0 67
0 0 71
0 0 69
0 0 60
0 0 64
0 0 71
0 0 62
0 0 73
0 0 57
0 0 69
0 0 58
0 0 58
0 0 71
0 0 63
0 0 65
0 0 80
0 0 71
0 0 81
0 0 71
0 0 65
1 2 67
25 29 101
40 46 114
41 48 112
74 86 141
80 93 152
120 139 197
149 173 225
168 195 238
179 207 252
183 212 255
183 212 255
183 212 255
183 212 255
183 212 255
183 212 255
183 212 255
183 212 255
183 212 255
183 212 255
183 212 255
183 212 255
183 212 255
183 212 255
183 212 255
183 212 255
184 212 255
184 212 255
184 212 255
184 212 255
184 212 255
184 212 255
183 212 255
183 212 255
183 212 255
183 212 255
183 212 255
179 208 251
161 189 225
142 166 201
114 134 163
98 119 144
84 105 125
54 70 86
36 53 58
45 62 72
45 63 74
41 58 67
44 60 70
44 62 73
41 56 64
38 54 59
48 65 78
36 50 60
39 51 60
37 56 63
45 58 73
41 60 66
50 69 80
44 58 70
45 60 73
45 62 74
47 66 75
40 56 64
46 60 73
39 54 62
42 54 68
42 59 69
38 54 62
51 66 82
48 64 77
43 58 70
39 55 63
44 58 70
43 59 72
38 53 63
40 55 66
42 60 69
46 61 71
50 64 81
40 58 67
40 56 67
52 66 81
44 58 72
46 61 74
55 71 88
53 70 89
44 61 72
52 66 83
42 59 69
52 67 80
43 58 69
44 57 71
46 60 74
50 66 83
48 65 80
43 56 67
45 60 71
46 62 75
51 66 82
40 55 64
51 69 85
46 61 74
45 61 73
47 64 77
51 67 83
49 63 77
36 48 57
53 67 85
50 63 79
69 84 108
67 81 100
83 103 126
117 139 172
127 150 186
150 177 218
175 206 253
176 208 255
176 208 255
176 208 255
176 208 255
176 208 255
176 208 255
175 207 255
175 207 255
175 207 255
175 207 255
175 207 255
175 207 255
175 207 255
175 207 255
174 207 255
174 207 255
174 207 255
174 207 255
174 207 255
174 206 255
174 206 255
173 206 255
173 206 255
173 206 255
173 206 255
173 206 255
173 206 255
173 206 255
173 206 255
172 206 255
172 206 255
172 205 255
172 205 255
172 205 255
172 205 255
172 205 255
171 205 255
171 205 255
171 205 255
171 205 255
171 205 255
171 205 255
171 205 255
171 205 255
170 204 255
170 204 255
170 204 255
170 204 255
170 204 255
170 204 255
170 204 255
169 204 255
169 204 255
169 204 255
169 204 255
169 204 255
169 203 255
169 203 255
169 203 255
168 203 255
168 203 255
168 203 255
168 203 255
168 203 255
168 203 255
168 203 255
168 203 255
167 203 255
167 203 255
167 203 255
167 203 255
167 202 255
167 202 255
167 202 255
167 202 255
167 202 255
167 202 255
166 202 255
166 202 255
166 202 255
166 202 255
166 202 255
166 202 255
166 202 255
160 188 238
128 127 161
99 90 115
74 36 46
60 6 7
53 0 0
56 0 0
59 0 0
61 0 0
57 0 0
53 0 0
59 0 0
50 0 0
43 0 0
54 0 0
56 0 0
54 0 0
52 0 0
56 0 0
41 0 0
57 0 0
45 0 0
47 0 0
54 0 0
50 0 0
53 0 0
52 0 0
64 0 0
47 0 0
59 0 0
51 0 0
53 0 0
57 0 0
59 0 0
52 0 0
55 0 0
56 0 0
44 0 0
43 0 0
54 0 0
44 0 0
60 0 0
48 0 0
49 0 0
48 0 0
55 0 0
57 0 0
56 12 15
67 42 53
106 84 107
132 141 179
152 173 220
166 202 255
166 202 255
166 202 255
166 202 255
166 202 255
166 202 255
166 202 255
167 202 255
167 202 255
167 202 255
167 202 255
167 202 255
167 202 255
167 202 255
167 203 255
167 203 255
167 203 255
168 203 255
168 203 255
168 203 255
168 203 255
168 203 255
168 203 255
168 203 255
168 203 255
169 203 255
169 203 255
169 203 255
169 204 255
169 204 255
169 204 255
169 204 255
169 204 255
170 204 255
170 204 255
170 204 255
170 204 255
170 204 255
170 204 255
170 204 255
171 205 255
171 205 255
171 205 255
171 205 255
171 205 255
171 205 255
171 205 255
171 205 255
172 205 255
172 205 255
172 205 255
172 205 255
172 205 255
172 206 255
172 206 255
173 206 255
173 206 255
173 206 255
173 206 255
173 206 255
173 206 255
173 206 255
173 206 255
174 206 255
174 206 255
174 207 255
174 207 255
174 207 255
174 207 255
174 207 255
175 207 255
175 207 255
175 207 255
175 207 255
175 207 255
175 207 255
175 207 255
175 207 255
176 208 255
176 208 255
176 208 255
176 208 255
176 208 255
176 208 255
174 206 253
141 166 221
125 148 209
113 133 189
65 77 149
31 37 116
21 25 92
0 0 81
0 0 64
0 0 65
0 0 72
0 0 73
0 0 72
0 0 73
0 0 73
0 0 72
0 0 78
0 0 67
0 0 73
0 0 52
0 0 76
0 0 62
0 0 71
0 0 71
0 0 70
0 0 73
0 0 66
0 0 72
0 0 74
0 0 71
0 0 65
0 0 71
0 0 81
0 0 77
0 0 59
0 0 76
0 0 76
0 0 69
0 0 78
0 0 60
0 0 66
0 0 74
0 0 75
0 0 70
0 0 76
0 0 72
0 0 74
0 0 56
0 0 66
0 0 84
0 0 73
0 0 68
0 0 64
0 0 77
0 0 70
0 0 73
0 0 73
0 0 65
0 0 51
0 0 72
0 0 73
0 0 69
0 0 80
0 0 69
0 0 57
0 0 65
0 0 65
0 0 59
0 0 72
0 0 66
0 0 58
0 0 59
0 0 77
16 19 86
40 46 100
73 84 136
102 118 176
126 146 200
154 178 224
176 204 247
183 212 255
183 212 255
183 212 255
183 212 255
183 212 255
184 212 255
184 212 255
184 212 255
184 212 255
184 212 255
184 213 255
184 213 255
184 213 255
184 212 255
184 212 255
159 184 221
129 154 183
113 135 162
88 107 131
60 80 92
45 62 73
41 58 65
41 55 67
51 68 82
35 53 58
48 66 76
44 63 70
38 57 61
46 59 74
35 52 56
44 62 70
41 54 67
53 69 82
38 55 65
37 54 60
43 60 73
43 59 67
42 59 67
45 60 72
45 63 72
39 55 62
33 49 54
49 66 79
46 63 73
39 60 62
45 62 73
41 55 63
39 57 64
48 69 79
41 61 69
38 54 59
48 65 74
45 61 74
39 55 62
44 57 69
44 58 70
41 59 69
44 61 72
48 65 78
41 58 68
44 63 71
49 61 77
44 61 73
45 59 72
47 63 75
51 69 82
39 53 61
42 58 69
40 57 67
48 66 77
38 53 62
45 61 73
46 61 73
48 63 77
42 58 70
43 57 70
52 70 85
47 62 75
45 62 75
45 61 73
49 63 79
41 59 64
50 65 81
45 55 68
47 63 76
49 64 80
55 71 90
38 52 63
42 59 67
44 59 70
51 66 79
47 60 74
53 68 83
52 67 81
37 52 64
42 55 71
55 69 89
49 64 79
48 63 77
51 66 83
53 70 85
96 117 148
109 130 161
142 168 208
159 188 232
173 205 252
176 208 255
176 208 255
175 207 255
175 207 255
175 207 255
175 207 255
175 207 255
175 207 255
175 207 255
175 207 255
175 207 255
174 207 255
174 207 255
174 207 255
174 207 255
174 207 255
174 206 255
174 206 255
173 206 255
173 206 255
173 206 255
173 206 255
173 206 255
173 206 255
173 206 255
173 206 255
172 206 255
172 206 255
172 205 255
172 205 255
172 205 255
172 205 255
172 205 255
171 205 255
171 205 255
171 205 255
171 205 255
171 205 255
171 205 255
171 205 255
171 205 255
170 204 255
170 204 255
170 204 255
170 204 255
170 204 255
170 204 255
170 204 255
169 204 255
169 204 255
169 204 255
169 204 255
169 204 255
169 203 255
169 203 255
169 203 255
168 203 255
168 203 255
168 203 255
168 203 255
168 203 255
168 203 255
168 203 255
168 203 255
168 203 255
167 203 255
167 203 255
167 203 255
167 202 255
167 202 255
167 202 255
167 202 255
167 202 255
167 202 255
157 186 235
122 125 158
98 91 115
72 30 38
52 0 0
51 0 0
60 0 0
52 0 0
53 0 0
50 0 0
51 0 0
53 0 0
50 0 0
53 0 0
58 0 0
59 0 0
48 0 0
47 0 0
49 0 0
52 0 0
46 0 0
48 0 0
54 0 0
48 0 0
39 0 0
54 0 0
54 0 0
51 0 0
54 0 0
49 0 0
58 0 0
54 0 0
54 0 0
53 0 0
49 0 0
51 0 0
57 0 0
58 0 0
46 0 0
54 0 0
52 0 0
52 0 0
56 0 0
51 0 0
50 0 0
48 0 0
50 0 0
49 0 0
55 0 0
53 0 0
45 0 0
54 0 0
60 0 0
54 0 0
49 0 0
45 0 0
63 38 48
92 72 92
121 123 156
160 192 243
167 202 255
167 202 255
167 202 255
167 202 255
167 202 255
167 203 255
167 203 255
167 203 255
167 203 255
168 203 255
168 203 255
168 203 255
168 203 255
168 203 255
168 203 255
168 203 255
168 203 255
168 203 255
169 203 255
169 203 255
169 203 255
169 204 255
169 204 255
169 204 255
169 204 255
169 204 255
170 204 255
170 204 255
170 204 255
170 204 255
170 204 255
170 204 255
170 204 255
171 205 255
171 205 255
171 205 255
171 205 255
171 205 255
171 205 255
171 205 255
171 205 255
172 205 255
172 205 255
172 205 255
172 205 255
172 205 255
172 206 255
172 206 255
173 206 255
173 206 255
173 206 255
173 206 255
173 206 255
173 206 255
173 206 255
173 206 255
174 206 255
174 206 255
174 207 255
174 207 255
174 207 255
174 207 255
174 207 255
174 207 255
175 207 255
175 207 255
175 207 255
175 207 255
175 207 255
175 207 255
175 207 255
175 207 255
176 208 255
176 208 255
172 204 253
149 177 224
112 133 185
100 118 176
49 58 127
33 39 105
3 4 81
0 0 73
0 0 66
0 0 61
0 0 62
0 0 85
0 0 79
0 0 72
0 0 81
0 0 65
0 0 67
0 0 74
0 0 75
0 0 68
0 0 75
0 0 52
0 0 57
0 0 62
0 0 70
0 0 73
0 0 60
0 0 77
0 0 72
0 0 49
0 0 58
0 0 72
0 0 68
0 0 83
0 0 61
0 0 74
0 0 53
0 0 74
0 0 76
0 0 67
0 0 79
0 0 60
0 0 60
0 0 66
0 0 68
0 0 68
0 0 60
0 0 58
0 0 64
0 0 72
0 0 68
0 0 56
0 0 66
0 0 73
0 0 65
0 0 66
0 0 66
0 0 55
0 0 52
0 0 59
0 0 50
0 0 68
0 0 78
0 0 70
0 0 63
0 0 45
0 0 60
0 0 59
0 0 54
0 0 67
0 0 73
0 0 77
0 0 67
0 0 60
0 0 66
0 0 69
0 0 56
0 0 68
0 0 54
0 0 62
0 0 63
0 0 59
0 0 75
0 0 59
0 0 57
5 6 68
27 31 97
62 72 135
84 97 149
112 129 181
160 185 226
184 212 255
184 212 255
184 213 255
184 213 255
184 213 255
164 190 229
141 164 199
104 125 149
79 100 119
52 72 86
47 64 76
40 57 65
39 52 61
45 65 74
46 62 75
41 62 66
47 62 73
49 67 78
41 57 66
41 58 67
45 60 72
41 58 68
40 57 65
43 59 69
34 54 54
43 62 69
40 57 64
47 63 74
38 57 62
36 55 60
38 53 60
48 66 78
45 62 73
39 56 63
44 62 73
50 65 82
32 47 52
47 65 77
43 57 69
45 60 72
43 55 66
36 52 60
46 60 70
39 54 61
42 56 66
43 59 67
43 60 68
39 56 58
38 54 62
44 61 71
44 64 72
41 58 67
45 63 73
33 50 56
44 60 70
40 56 67
36 49 59
37 54 60
43 57 70
50 67 81
46 60 73
41 54 65
41 58 67
39 53 62
44 62 71
43 63 69
48 63 74
44 56 67
46 61 72
44 62 71
45 60 74
44 57 70
51 67 80
51 68 83
46 65 76
43 56 69
42 56 68
46 61 74
50 67 79
45 59 71
40 57 64
50 66 78
41 56 67
45 56 70
43 57 68
44 58 73
45 58 69
41 52 65
45 58 71
50 63 80
49 63 78
46 61 74
47 56 70
53 70 84
57 73 90
51 67 81
50 67 81
50 65 81
50 61 76
48 60 75
51 64 81
72 88 109
111 132 165
129 155 190
151 178 220
176 208 255
175 207 255
175 207 255
175 207 255
175 207 255
175 207 255
175 207 255
175 207 255
175 207 255
174 207 255
174 207 255
174 207 255
174 207 255
174 207 255
174 207 255
174 206 255
174 206 255
173 206 255
173 206 255
173 206 255
173 206 255
173 206 255
173 206 255
173 206 255
173 206 255
172 206 255
172 206 255
172 205 255
172 205 255
172 205 255
172 205 255
172 205 255
171 205 255
171 205 255
171 205 255
171 205 255
171 205 255
171 205 255
171 205 255
171 205 255
170 204 255
170 204 255
170 204 255
170 204 255
170 204 255
170 204 255
170 204 255
170 204 255
169 204 255
169 204 255
169 204 255
169 204 255
169 204 255
169 203 255
169 203 255
169 203 255
168 203 255
168 203 255
168 203 255
168 203 255
168 203 255
168 203 255
168 203 255
168 203 255
168 203 255
168 203 255
167 203 255
148 174 220
111 113 143
80 52 66
55 2 2
51 0 0
42 0 0
51 0 0
56 0 0
45 0 0
44 0 0
52 0 0
47 0 0
54 0 0
50 0 0
43 0 0
46 0 0
42 0 0
49 0 0
41 0 0
52 0 0
48 0 0
62 0 0
58 0 0
54 0 0
38 0 0
42 0 0
54 0 0
51 0 0
47 0 0
57 0 0
55 0 0
53 0 0
52 0 0
51 0 0
46 0 0
46 0 0
50 0 0
45 0 0
43 0 0
50 0 0
47 0 0
52 0 0
48 0 0
55 0 0
52 0 0
53 0 0
43 0 0
44 0 0
50 0 0
49 0 0
54 0 0
46 0 0
53 0 0
45 0 0
49 0 0
47 0 0
57 0 0
48 0 0
51 0 0
46 0 0
54 0 0
51 0 0
48 2 2
68 42 53
111 107 135
159 182 230
167 203 255
168 203 255
168 203 255
168 203 255
168 203 255
168 203 255
168 203 255
168 203 255
168 203 255
168 203 255
168 203 255
169 203 255
169 203 255
169 203 255
169 204 255
169 204 255
169 204 255
169 204 255
169 204 255
170 204 255
170 204 255
170 204 255
170 204 255
170 204 255
170 204 255
170 204 255
170 204 255
171 205 255
171 205 255
171 205 255
171 205 255
171 205 255
171 205 255
171 205 255
171 205 255
172 205 255
172 205 255
172 205 255
172 205 255
172 205 255
172 206 255
172 206 255
173 206 255
173 206 255
173 206 255
173 206 255
173 206 255
173 206 255
173 206 255
173 206 255
174 206 255
174 206 255
174 207 255
174 207 255
174 207 255
174 207 255
174 207 255
174 207 255
175 207 255
175 207 255
175 207 255
175 207 255
175 207 255
175 207 255
175 207 255
176 208 255
172 203 252
144 170 222
105 124 195
86 102 169
40 47 119
8 10 80
0 0 73
0 0 75
0 0 89
0 0 81
0 0 68
0 0 87
0 0 91
0 0 72
0 0 57
0 0 71
0 0 67
0 0 65
0 0 58
0 0 68
0 0 71
0 0 75
0 0 65
0 0 66
0 0 65
0 0 65
0 0 63
0 0 62
0 0 81
0 0 72
0 0 64
0 0 71
0 0 68
0 0 60
0 0 65
0 0 74
0 0 74
0 0 75
0 0 73
0 0 78
0 0 74
0 0 67
0 0 73
0 0 55
0 0 62
0 0 67
0 0 70
0 0 68
0 0 66
0 0 75
0 0 52
0 0 55
0 0 70
0 0 59
0 0 61
0 0 75
0 0 63
0 0 62
0 0 57
0 0 60
0 0 67
0 0 73
0 0 59
0 0 56
0 0 74
0 0 55
0 0 64
0 0 58
0 0 61
0 0 65
0 0 74
0 0 62
0 0 67
0 0 73
0 0 59
0 0 61
0 0 64
0 0 63
0 0 79
0 0 69
0 0 60
0 0 63
0 0 74
0 0 72
0 0 61
0 0 67
0 0 62
0 0 58
0 0 79
0 0 65
0 0 63
0 0 58
0 0 62
0 0 64
0 0 71
0 0 67
5 6 69
44 51 109
88 102 163
99 115 173
168 193 239
38 55 62
39 58 63
42 59 65
43 62 69
50 69 82
44 63 71
43 60 71
41 56 65
45 63 72
46 66 75
32 51 51
39 56 62
41 56 67
42 59 66
49 69 80
34 50 57
36 50 59
41 60 67
50 67 80
43 59 67
43 63 70
45 60 75
40 59 65
38 54 60
41 59 67
36 56 60
39 54 65
39 54 63
47 65 74
46 61 73
43 61 69
39 56 65
39 54 63
40 60 65
32 49 52
41 53 62
42 55 63
40 56 65
43 64 71
38 53 62
50 68 82
48 64 72
42 57 67
46 62 74
38 50 61
37 52 60
47 66 77
34 48 55
47 65 78
36 51 59
42 56 68
37 51 59
38 50 58
41 57 63
42 54 63
33 46 53
43 58 71
42 55 64
47 62 77
44 61 71
41 55 65
42 59 68
47 62 76
51 65 80
34 50 55
39 52 64
48 65 78
44 61 71
38 49 59
38 52 61
44 52 67
46 60 74
48 64 77
41 54 65
48 62 77
44 57 68
50 65 80
39 51 64
38 49 60
48 59 71
43 61 74
40 53 62
41 58 67
39 53 59
41 54 64
41 57 69
45 57 71
49 63 76
41 51 65
53 64 82
40 52 64
53 65 83
43 56 69
48 61 76
46 58 71
48 61 76
52 65 82
42 56 67
50 62 79
44 57 71
53 66 83
78 97 119
115 139 172
141 166 205
167 198 244
175 207 255
175 207 255
175 207 255
175 207 255
175 207 255
175 207 255
175 207 255
175 207 255
174 207 255
174 207 255
174 207 255
174 207 255
174 207 255
174 206 255
174 206 255
173 206 255
173 206 255
173 206 255
173 206 255
173 206 255
173 206 255
173 206 255
173 206 255
172 206 255
172 206 255
172 205 255
172 205 255
172 205 255
172 205 255
172 205 255
172 205 255
171 205 255
171 205 255
171 205 255
171 205 255
171 205 255
171 205 255
171 205 255
170 204 255
170 204 255
170 204 255
170 204 255
170 204 255
170 204 255
170 204 255
170 204 255
169 204 255
169 204 255
169 204 255
169 204 255
169 204 255
169 204 255
169 204 255
169 203 255
169 203 255
168 203 255
168 203 255
168 203 255
168 203 255
157 181 227
118 113 143
67 36 46
49 0 0
49 0 0
52 0 0
48 0 0
47 0 0
60 0 0
56 0 0
45 0 0
52 0 0
47 0 0
51 0 0
49 0 0
50 0 0
54 0 0
50 0 0
59 0 0
52 0 0
50 0 0
54 0 0
51 0 0
61 0 0
55 0 0
51 0 0
49 0 0
49 0 0
55 0 0
46 0 0
51 0 0
47 0 0
60 0 0
46 0 0
51 0 0
50 0 0
55 0 0
50 0 0
43 0 0
49 0 0
47 0 0
55 0 0
44 0 0
45 0 0
53 0 0
47 0 0
40 0 0
48 0 0
49 0 0
48 0 0
52 0 0
53 0 0
51 0 0
49 0 0
60 0 0
54 0 0
41 0 0
36 0 0
54 0 0
47 0 0
50 0 0
42 0 0
38 0 0
49 0 0
53 0 0
45 0 0
54 0 0
55 0 0
49 0 0
67 36 46
116 124 156
156 183 230
168 203 255
168 203 255
168 203 255
169 203 255
169 203 255
169 203 255
169 203 255
169 204 255
169 204 255
169 204 255
169 204 255
169 204 255
170 204 255
170 204 255
170 204 255
170 204 255
170 204 255
170 204 255
170 204 255
170 204 255
171 205 255
171 205 255
171 205 255
171 205 255
171 205 255
171 205 255
171 205 255
171 205 255
172 205 255
172 205 255
172 205 255
172 205 255
172 205 255
172 205 255
172 206 255
172 206 255
173 206 255
173 206 255
173 206 255
173 206 255
173 206 255
173 206 255
173 206 255
173 206 255
174 206 255
174 206 255
174 207 255
174 207 255
174 207 255
174 207 255
174 207 255
175 207 255
175 207 255
175 207 255
175 207 255
175 207 255
175 207 255
175 207 255
175 207 255
165 195 244
123 145 202
84 99 167
49 58 124
14 16 90
0 0 75
0 0 79
0 0 62
0 0 84
0 0 68
0 0 73
0 0 74
0 0 73
0 0 71
0 0 79
0 0 67
0 0 72
0 0 75
0 0 69
0 0 63
0 0 74
0 0 72
0 0 61
0 0 75
0 0 74
0 0 62
0 0 69
0 0 86
0 0 64
0 0 81
0 0 59
0 0 66
0 0 69
0 0 51
0 0 59
0 0 65
0 0 62
0 0 60
0 0 75
0 0 79
0 0 76
0 0 72
0 0 57
0 0 73
0 0 57
0 0 58
0 0 77
0 0 77
0 0 64
0 0 61
0 0 65
0 0 65
0 0 68
0 0 64
0 0 67
0 0 71
0 0 57
0 0 62
0 0 45
0 0 61
0 0 67
0 0 56
0 0 50
0 0 67
0 0 57
0 0 68
0 0 52
0 0 62
0 0 59
0 0 74
0 0 65
0 0 67
0 0 63
0 0 65
0 0 62
0 0 61
0 0 67
0 0 69
0 0 54
0 0 67
0 0 58
0 0 59
0 0 57
0 0 64
0 0 66
0 0 76
0 0 73
0 0 61
0 0 63
0 0 62
0 0 59
0 0 54
0 0 63
0 0 69
0 0 64
0 0 56
0 0 69
0 0 56
0 0 58
0 0 73
0 0 76
0 0 71
0 0 59
0 0 72
0 0 64
40 61 64
50 67 80
45 65 73
38 58 62
39 61 62
30 47 51
40 57 63
41 59 65
46 63 76
36 52 59
47 68 77
46 63 76
48 64 76
46 60 73
39 58 63
37 56 58
37 54 60
41 55 63
39 57 61
45 60 72
38 55 62
47 64 74
38 55 62
47 68 78
47 64 74
40 57 63
40 59 66
33 52 56
38 55 63
43 61 69
41 59 67
44 61 73
43 61 69
37 51 59
41 57 67
38 56 61
43 60 71
46 61 76
44 61 72
45 63 73
30 46 48
43 58 69
50 68 79
34 51 55
41 56 65
43 59 68
43 60 67
40 59 66
36 48 57
40 56 66
43 59 68
43 58 68
41 63 67
47 62 75
43 63 70
43 61 69
49 69 76
44 61 70
41 59 65
35 50 57
45 60 67
32 46 50
37 53 63
40 56 66
45 59 72
41 57 66
44 61 72
38 52 61
36 50 56
46 66 75
47 63 76
37 52 61
46 63 74
43 54 69
46 60 73
48 63 77
50 65 80
38 52 59
44 62 70
39 53 62
40 56 63
44 61 72
32 42 50
43 56 67
44 56 68
42 52 64
46 60 73
46 59 71
45 53 66
38 51 62
44 59 71
39 50 61
48 62 74
42 52 66
42 58 67
50 66 80
47 62 76
39 52 64
48 61 76
49 59 75
43 55 69
44 59 71
59 74 97
50 62 78
52 64 83
68 85 105
108 129 160
137 163 201
168 199 245
175 207 255
175 207 255
175 207 255
175 207 255
175 207 255
175 207 255
175 207 255
174 207 255
174 207 255
174 207 255
174 207 255
174 207 255
174 206 255
174 206 255
174 206 255
173 206 255
173 206 255
173 206 255
173 206 255
173 206 255
173 206 255
173 206 255
172 206 255
172 206 255
172 206 255
172 205 255
172 205 255
172 205 255
172 205 255
172 205 255
171 205 255
171 205 255
171 205 255
171 205 255
171 205 255
171 205 255
171 205 255
171 205 255
170 204 255
170 204 255
170 204 255
170 204 255
170 204 255
170 204 255
170 204 255
170 204 255
170 204 255
169 204 255
169 204 255
169 204 255
169 204 255
169 204 255
168 201 253
125 132 166
83 55 69
54 0 0
44 0 0
40 0 0
58 0 0
53 0 0
56 0 0
49 0 0
48 0 0
52 0 0
48 0 0
50 0 0
41 0 0
46 0 0
41 0 0
49 0 0
49 0 0
53 0 0
49 0 0
48 0 0
49 0 0
46 0 0
48 0 0
55 0 0
44 0 0
48 0 0
53 0 0
51 0 0
49 0 0
46 0 0
49 0 0
54 0 0
44 0 0
48 0 0
53 0 0
49 0 0
57 0 0
48 0 0
46 0 0
49 0 0
44 0 0
44 0 0
52 0 0
52 0 0
59 0 0
55 0 0
47 0 0
55 0 0
58 0 0
57 0 0
55 0 0
54 0 0
53 0 0
45 0 0
45 0 0
49 0 0
54 0 0
51 0 0
59 0 0
49 0 0
43 0 0
46 0 0
46 0 0
53 0 0
50 0 0
48 0 0
48 0 0
48 0 0
51 0 0
40 0 0
49 0 0
44 0 0
56 2 2
87 69 87
133 144 181
164 195 245
169 204 255
169 204 255
169 204 255
169 204 255
169 204 255
170 204 255
170 204 255
170 204 255
170 204 255
170 204 255
170 204 255
170 204 255
170 204 255
170 204 255
171 205 255
171 205 255
171 205 255
171 205 255
171 205 255
171 205 255
171 205 255
171 205 255
172 205 255
172 205 255
172 205 255
172 205 255
172 205 255
172 206 255
172 206 255
172 206 255
173 206 255
173 206 255
173 206 255
173 206 255
173 206 255
173 206 255
173 206 255
174 206 255
174 206 255
174 206 255
174 207 255
174 207 255
174 207 255
174 207 255
174 207 255
175 207 255
175 207 255
175 207 255
175 207 255
175 207 255
175 207 255
175 207 255
172 203 252
114 135 192
75 89 159
38 45 100
0 0 78
0 0 75
0 0 79
0 0 67
0 0 76
0 0 81
0 0 77
0 0 65
0 0 70
0 0 70
0 0 53
0 0 63
0 0 74
0 0 88
0 0 83
0 0 72
0 0 72
0 0 59
0 0 73
0 0 66
0 0 63
0 0 62
0 0 70
0 0 78
0 0 60
0 0 65
0 0 72
0 0 67
0 0 67
0 0 62
0 0 72
0 0 69
0 0 68
0 0 55
0 0 57
0 0 65
0 0 72
0 0 67
0 0 70
0 0 72
0 0 62
0 0 70
0 0 75
0 0 50
0 0 63
0 0 58
0 0 63
0 0 65
0 0 69
0 0 72
0 0 68
0 0 59
0 0 71
0 0 65
0 0 70
0 0 56
0 0 60
0 0 59
0 0 71
0 0 62
0 0 61
0 0 52
0 0 53
0 0 66
0 0 60
0 0 68
0 0 53
0 0 61
0 0 68
0 0 68
0 0 70
0 0 65
0 0 57
0 0 69
0 0 60
0 0 67
0 0 53
0 0 57
0 0 58
0 0 71
0 0 61
0 0 78
0 0 58
0 0 71
0 0 64
0 0 60
0 0 59
0 0 59
0 0 50
0 0 69
0 0 56
0 0 66
0 0 55
0 0 51
0 0 66
0 0 66
0 0 64
0 0 65
0 0 61
0 0 67
0 0 72
0 0 66
0 0 67
0 0 67
0 0 66
41 62 64
40 56 63
35 53 55
41 61 64
36 53 59
34 52 58
44 60 72
39 59 65
34 51 55
31 51 51
38 54 61
40 55 66
35 53 58
36 55 58
32 48 51
32 46 52
35 54 57
34 51 58
45 63 70
35 50 56
36 48 56
41 57 67
39 57 63
38 52 60
43 66 72
41 57 65
46 65 73
29 46 45
40 57 63
37 54 61
39 58 63
34 48 53
44 60 68
41 58 67
48 63 79
41 60 68
37 50 61
40 58 65
36 52 61
36 51 58
36 52 57
43 59 70
31 46 50
42 59 66
45 63 73
41 59 66
40 58 66
40 57 64
38 54 61
45 62 71
35 48 57
37 53 60
39 53 59
44 59 70
41 55 68
39 53 63
33 50 55
41 60 69
43 60 68
39 51 60
36 53 57
47 64 78
46 65 77
44 60 69
37 50 58
42 62 70
32 48 51
42 55 66
33 50 55
40 55 66
37 51 58
46 59 74
42 57 67
47 60 73
32 45 52
36 49 58
42 55 68
37 50 60
44 58 69
39 54 63
45 56 68
42 55 67
41 57 66
40 54 63
44 57 71
46 61 74
38 53 60
40 50 64
43 59 71
39 50 62
45 58 69
34 48 55
37 50 57
44 56 68
46 59 71
51 64 80
44 56 70
46 58 70
43 56 69
45 57 72
51 65 81
47 57 71
41 50 65
44 56 69
44 58 73
44 56 70
49 65 79
47 58 73
48 58 72
86 104 129
132 157 195
149 175 216
175 207 255
175 207 255
175 207 255
175 207 255
175 207 255
175 207 255
175 207 255
174 207 255
174 207 255
174 207 255
174 207 255
174 207 255
174 206 255
174 206 255
174 206 255
173 206 255
173 206 255
173 206 255
173 206 255
173 206 255
173 206 255
173 206 255
173 206 255
172 206 255
172 206 255
172 206 255
172 205 255
172 205 255
172 205 255
172 205 255
172 205 255
171 205 255
171 205 255
171 205 255
171 205 255
171 205 255
171 205 255
171 205 255
171 205 255
171 205 255
170 204 255
170 204 255
170 204 255
170 204 255
170 204 255
170 204 255
170 204 255
160 190 238
107 100 125
65 18 23
42 0 0
42 0 0
47 0 0
57 0 0
42 0 0
56 0 0
53 0 0
51 0 0
52 0 0
50 0 0
57 0 0
46 0 0
50 0 0
38 0 0
49 0 0
48 0 0
43 0 0
51 0 0
47 0 0
53 0 0
44 0 0
45 0 0
37 0 0
42 0 0
45 0 0
57 0 0
54 0 0
49 0 0
45 0 0
46 0 0
57 0 0
51 0 0
57 0 0
49 0 0
54 0 0
43 0 0
47 0 0
50 0 0
50 0 0
40 0 0
53 0 0
56 0 0
47 0 0
47 0 0
49 0 0
43 0 0
48 0 0
44 0 0
58 0 0
53 0 0
48 0 0
47 0 0
50 0 0
52 0 0
51 0 0
53 0 0
56 0 0
44 0 0
48 0 0
48 0 0
44 0 0
43 0 0
42 0 0
44 0 0
47 0 0
45 0 0
51 0 0
42 0 0
40 0 0
52 0 0
49 0 0
41 0 0
50 0 0
48 0 0
45 0 0
55 0 0
47 16 20
103 98 122
158 184 230
170 204 255
170 204 255
170 204 255
170 204 255
170 204 255
170 204 255
170 204 255
170 204 255
171 205 255
171 205 255
171 205 255
171 205 255
171 205 255
171 205 255
171 205 255
171 205 255
172 205 255
172 205 255
172 205 255
172 205 255
172 205 255
172 206 255
172 206 255
172 206 255
173 206 255
173 206 255
173 206 255
173 206 255
173 206 255
173 206 255
173 206 255
173 206 255
174 206 255
174 206 255
174 207 255
174 207 255
174 207 255
174 207 255
174 207 255
174 207 255
175 207 255
175 207 255
175 207 255
175 207 255
175 207 255
175 207 255
175 207 255
151 178 233
98 116 172
36 43 111
7 8 69
0 0 82
0 0 72
0 0 70
0 0 72
0 0 72
0 0 70
0 0 73
0 0 73
0 0 64
0 0 78
0 0 67
0 0 68
0 0 65
0 0 70
0 0 59
0 0 67
0 0 60
0 0 65
0 0 63
0 0 68
0 0 59
0 0 54
0 0 70
0 0 61
0 0 67
0 0 70
0 0 59
0 0 67
0 0 53
0 0 62
0 0 58
0 0 60
0 0 73
0 0 66
0 0 60
0 0 67
0 0 75
0 0 61
0 0 72
0 0 65
0 0 77
0 0 58
0 0 51
0 0 69
0 0 65
0 0 59
0 0 66
0 0 68
0 0 52
0 0 71
0 0 79
0 0 58
0 0 72
0 0 50
0 0 56
0 0 67
0 0 59
0 0 71
0 0 54
0 0 62
0 0 66
0 0 59
0 0 59
0 0 66
0 0 59
0 0 70
0 0 56
0 0 60
0 0 66
0 0 60
0 0 57
0 0 65
0 0 54
0 0 63
0 0 68
0 0 65
0 0 62
0 0 54
0 0 68
0 0 55
0 0 63
0 0 60
0 0 58
0 0 52
0 0 69
0 0 66
0 0 48
0 0 58
0 0 54
0 0 64
0 0 63
0 0 63
0 0 64
0 0 59
0 0 60
0 0 58
0 0 56
0 0 71
0 0 60
0 0 74
0 0 52
0 0 72
0 0 51
0 0 61
0 0 65
0 0 62
0 0 71
0 0 59
36 52 56
40 61 64
40 57 63
47 65 77
38 59 64
44 63 69
36 51 59
40 56 66
30 47 51
46 64 75
47 64 75
42 59 66
38 53 61
49 68 78
34 48 54
37 55 62
42 56 67
39 57 64
39 56 65
31 49 51
37 52 59
39 59 62
36 54 58
38 59 61
38 59 62
41 59 67
46 63 74
33 50 53
43 59 66
39 55 63
39 54 61
41 61 66
35 56 57
33 46 52
32 47 53
43 60 69
39 55 62
42 58 68
40 54 64
43 58 68
43 60 70
33 50 51
35 52 57
45 60 71
37 52 59
38 55 62
41 54 66
35 51 59
41 56 67
36 53 60
39 56 62
43 54 65
44 60 70
36 55 59
32 48 51
39 54 62
35 47 52
37 51 60
40 52 63
34 49 56
44 61 70
44 61 71
44 61 72
44 59 71
43 54 66
33 47 53
39 54 62
45 58 71
47 60 74
39 54 61
33 46 53
41 53 66
37 54 60
49 65 78
40 51 61
40 57 66
40 57 65
34 47 53
44 57 66
39 49 63
36 51 55
42 60 70
40 53 60
45 59 68
44 61 72
38 49 58
35 48 55
41 56 64
41 52 63
42 55 63
45 59 72
42 57 67
40 55 63
55 69 87
40 51 63
46 61 73
37 48 59
44 58 70
49 62 76
44 59 70
40 53 62
47 60 75
41 53 66
39 51 59
44 54 69
49 62 76
54 68 85
48 59 75
40 49 61
46 55 72
54 68 87
46 57 71
69 84 105
115 138 170
133 157 194
174 205 253
175 207 255
175 207 255
175 207 255
175 207 255
175 207 255
175 207 255
175 207 255
174 207 255
174 207 255
174 207 255
174 207 255
174 207 255
174 206 255
174 206 255
174 206 255
173 206 255
173 206 255
173 206 255
173 206 255
173 206 255
173 206 255
173 206 255
173 206 255
172 206 255
172 206 255
172 206 255
172 205 255
172 205 255
172 205 255
172 205 255
172 205 255
171 205 255
171 205 255
171 205 255
171 205 255
171 205 255
171 205 255
171 205 255
171 205 255
171 205 255
170 204 255
147 168 209
87 65 81
55 4 5
54 0 0
38 0 0
56 0 0
50 0 0
44 0 0
43 0 0
44 0 0
52 0 0
43 0 0
53 0 0
47 0 0
44 0 0
43 0 0
43 0 0
54 0 0
52 0 0
44 0 0
48 0 0
54 0 0
56 0 0
50 0 0
45 0 0
48 0 0
44 0 0
48 0 0
40 0 0
57 0 0
49 0 0
46 0 0
50 0 0
43 0 0
50 0 0
58 0 0
43 0 0
45 0 0
47 0 0
46 0 0
47 0 0
47 0 0
45 0 0
44 0 0
54 0 0
45 0 0
49 0 0
48 0 0
48 0 0
45 0 0
42 0 0
59 0 0
55 0 0
46 0 0
44 0 0
48 0 0
49 0 0
51 0 0
47 0 0
43 0 0
49 0 0
47 0 0
43 0 0
41 0 0
42 0 0
50 0 0
47 0 0
55 0 0
43 0 0
44 0 0
46 0 0
48 0 0
39 0 0
53 0 0
44 0 0
49 0 0
51 0 0
39 0 0
52 0 0
45 0 0
42 0 0
44 0 0
41 0 0
51 4 5
87 79 99
155 174 217
170 204 255
171 205 255
171 205 255
171 205 255
171 205 255
171 205 255
171 205 255
171 205 255
171 205 255
171 205 255
172 205 255
172 205 255
172 205 255
172 205 255
172 205 255
172 206 255
172 206 255
172 206 255
173 206 255
173 206 255
173 206 255
173 206 255
173 206 255
173 206 255
173 206 255
173 206 255
174 206 255
174 206 255
174 206 255
174 207 255
174 207 255
174 207 255
174 207 255
174 207 255
175 207 255
175 207 255
175 207 255
175 207 255
175 207 255
175 207 255
175 207 255
170 201 252
133 158 210
66 79 158
22 27 101
0 0 75
0 0 83
0 0 75
0 0 65
0 0 74
0 0 81
0 0 71
0 0 64
0 0 73
0 0 67
0 0 71
0 0 79
0 0 68
0 0 67
0 0 65
0 0 63
0 0 74
0 0 69
0 0 71
0 0 53
0 0 55
0 0 72
0 0 71
0 0 69
0 0 67
0 0 51
0 0 61
0 0 57
0 0 53
0 0 62
0 0 58
0 0 68
0 0 67
0 0 71
0 0 62
0 0 56
0 0 55
0 0 61
0 0 71
0 0 65
0 0 53
0 0 64
0 0 70
0 0 63
0 0 67
0 0 66
0 0 53
0 0 55
0 0 57
0 0 56
0 0 56
0 0 71
0 0 66
0 0 59
0 0 64
0 0 55
0 0 55
0 0 53
0 0 50
0 0 69
0 0 62
0 0 69
0 0 64
0 0 52
0 0 72
0 0 61
0 0 58
0 0 63
0 0 62
0 0 65
0 0 65
0 0 59
0 0 62
0 0 54
0 0 61
0 0 64
0 0 62
0 0 57
0 0 66
0 0 63
0 0 54
0 0 60
0 0 70
0 0 63
0 0 60
0 0 57
0 0 57
0 0 64
0 0 56
0 0 53
0 0 59
0 0 66
0 0 53
0 0 60
0 0 62
0 0 67
0 0 57
0 0 56
0 0 71
0 0 59
0 0 60
0 0 67
0 0 60
0 0 60
0 0 54
0 0 59
0 0 55
0 0 61
0 0 51
0 0 67
0 0 66
0 0 50
39 55 63
34 54 55
46 61 73
36 53 58
36 52 57
39 57 64
46 64 72
35 51 56
35 52 58
29 44 48
39 56 64
43 60 69
42 57 67
44 62 70
36 53 59
41 53 65
45 64 72
39 55 63
41 57 65
41 56 64
40 57 66
41 58 64
37 55 60
37 50 58
51 67 81
40 56 63
40 57 66
46 64 72
40 56 63
32 47 52
39 57 63
40 58 66
31 48 51
37 51 58
33 48 55
37 54 59
31 47 52
38 53 62
39 58 62
40 58 66
46 59 74
44 57 68
34 49 54
34 48 56
43 59 72
41 55 64
44 63 71
42 59 67
38 56 59
37 52 59
44 57 69
35 51 55
41 57 66
37 49 60
46 62 74
37 47 54
35 49 57
32 47 53
34 50 54
33 45 53
37 48 57
41 54 66
35 49 54
40 53 63
41 56 67
45 60 73
43 57 69
42 54 66
45 57 69
35 49 55
46 61 73
43 60 70
39 54 62
44 61 72
42 58 71
43 57 68
46 61 75
36 52 59
39 54 61
32 43 50
41 57 70
43 55 68
35 50 55
35 49 57
43 57 68
45 60 72
41 53 62
38 48 60
50 66 80
37 49 60
38 53 62
46 61 73
47 63 79
50 62 76
40 53 64
47 61 78
52 68 82
48 62 77
34 46 56
46 59 72
41 53 64
47 60 75
34 44 52
45 58 70
44 55 70
42 51 64
44 56 69
43 55 67
47 59 75
45 61 73
45 58 71
44 55 69
41 49 64
52 64 81
50 63 79
55 69 86
105 126 159
147 176 216
173 204 252
175 207 255
175 207 255
175 207 255
175 207 255
175 207 255
175 207 255
175 207 255
175 207 255
174 207 255
174 207 255
174 207 255
174 207 255
174 207 255
174 206 255
174 206 255
174 206 255
173 206 255
173 206 255
173 206 255
173 206 255
173 206 255
173 206 255
173 206 255
173 206 255
172 206 255
172 206 255
172 206 255
172 205 255
172 205 255
172 205 255
172 205 255
172 205 255
172 205 255
171 205 255
171 205 255
171 205 255
144 158 197
92 71 89
53 0 0
49 0 0
44 0 0
44 0 0
47 0 0
48 0 0
56 0 0
50 0 0
42 0 0
41 0 0
37 0 0
44 0 0
52 0 0
49 0 0
46 0 0
51 0 0
53 0 0
49 0 0
42 0 0
51 0 0
46 0 0
46 0 0
45 0 0
49 0 0
46 0 0
42 0 0
48 0 0
46 0 0
47 0 0
47 0 0
52 0 0
40 0 0
57 0 0
43 0 0
45 0 0
45 0 0
57 0 0
45 0 0
58 0 0
51 0 0
53 0 0
44 0 0
50 0 0
41 0 0
51 0 0
46 0 0
51 0 0
48 0 0
41 0 0
48 0 0
45 0 0
37 0 0
47 0 0
52 0 0
50 0 0
34 0 0
53 0 0
50 0 0
49 0 0
41 0 0
45 0 0
47 0 0
55 0 0
57 0 0
47 0 0
54 0 0
44 0 0
48 0 0
48 0 0
54 0 0
52 0 0
44 0 0
48 0 0
43 0 0
40 0 0
46 0 0
46 0 0
49 0 0
38 0 0
44 0 0
45 0 0
45 0 0
37 0 0
40 0 0
54 0 0
44 6 7
88 69 87
154 182 227
171 205 255
171 205 255
171 205 255
172 205 255
172 205 255
172 205 255
172 205 255
172 205 255
172 205 255
172 206 255
172 206 255
172 206 255
173 206 255
173 206 255
173 206 255
173 206 255
173 206 255
173 206 255
173 206 255
173 206 255
174 206 255
174 206 255
174 206 255
174 207 255
174 207 255
174 207 255
174 207 255
174 207 255
175 207 255
175 207 255
175 207 255
175 207 255
175 207 255
175 207 255
175 207 255
175 207 255
172 203 253
128 151 208
68 81 134
15 18 99
0 0 63
0 0 84
0 0 77
0 0 84
0 0 65
0 0 74
0 0 69
0 0 74
0 0 70
0 0 65
0 0 67
0 0 66
0 0 47
0 0 81
0 0 67
0 0 65
0 0 63
0 0 78
0 0 83
0 0 58
0 0 54
0 0 73
0 0 77
0 0 59
0 0 57
0 0 77
0 0 63
0 0 67
0 0 63
0 0 59
0 0 68
0 0 54
0 0 54
0 0 57
0 0 61
0 0 60
0 0 54
0 0 61
0 0 63
0 0 51
0 0 59
0 0 63
0 0 60
0 0 58
0 0 64
0 0 58
0 0 62
0 0 61
0 0 61
0 0 60
0 0 62
0 0 60
0 0 64
0 0 62
0 0 68
0 0 63
0 0 59
0 0 59
0 0 51
0 0 54
0 0 69
0 0 54
0 0 62
0 0 66
0 0 73
0 0 56
0 0 58
0 0 58
0 0 59
0 0 62
0 0 68
0 0 57
0 0 59
0 0 56
0 0 59
0 0 46
0 0 61
0 0 58
0 0 57
0 0 73
0 0 57
0 0 69
0 0 55
0 0 72
0 0 53
0 0 57
0 0 62
0 0 54
0 0 77
0 0 57
0 0 53
0 0 52
0 0 61
0 0 53
0 0 61
0 0 69
0 0 56
0 0 54
0 0 50
0 0 63
0 0 60
0 0 63
0 0 61
0 0 60
0 0 82
0 0 72
0 0 59
0 0 61
0 0 58
0 0 71
0 0 76
0 0 57
0 0 75
0 0 65
0 0 60
40 56 65
32 52 52
34 49 56
43 59 69
43 61 72
36 54 56
42 61 69
36 52 56
45 64 74
43 57 68
42 59 66
37 56 59
38 61 63
30 45 51
39 57 64
35 48 55
38 57 62
44 60 71
35 51 58
38 53 63
41 56 65
45 62 71
36 53 57
40 56 65
45 66 73
35 52 55
44 64 71
37 56 59
37 54 60
40 57 64
40 56 66
42 61 69
38 51 59
36 53 60
35 50 55
25 44 41
41 59 68
34 51 55
41 56 65
40 57 62
42 59 67
36 53 57
34 53 56
35 51 54
43 60 68
41 59 67
32 45 50
40 55 63
41 57 67
42 57 66
40 53 66
40 59 65
40 59 63
43 57 68
39 53 62
39 55 63
43 59 69
43 58 68
43 56 64
40 56 64
35 52 53
36 50 59
35 51 57
43 57 68
36 48 56
43 61 73
42 56 65
40 50 61
38 54 62
41 55 64
42 57 66
40 54 64
32 47 51
38 52 60
43 58 68
41 54 65
39 53 62
37 52 59
29 43 48
45 61 71
41 56 65
42 52 65
43 55 70
40 55 65
40 51 59
39 50 57
40 54 64
41 56 63
40 55 63
43 59 70
39 52 60
44 58 72
38 48 59
47 62 72
35 44 52
43 54 67
42 53 65
40 52 62
51 62 78
35 46 54
39 54 58
43 55 65
47 58 73
39 51 64
46 59 72
47 58 72
38 46 58
39 51 63
44 55 67
33 46 53
41 50 64
36 46 56
44 54 69
52 66 83
46 59 75
46 56 72
44 56 70
48 56 73
59 71 90
104 126 156
154 183 224
174 206 253
175 207 255
175 207 255
175 207 255
175 207 255
175 207 255
175 207 255
175 207 255
175 207 255
175 207 255
174 207 255
174 207 255
174 207 255
174 207 255
174 207 255
174 206 255
174 206 255
174 206 255
173 206 255
173 206 255
173 206 255
173 206 255
173 206 255
173 206 255
173 206 255
173 206 255
173 206 255
172 206 255
172 206 255
172 206 255
172 205 255
172 205 255
164 195 243
101 88 110
45 4 5
50 0 0
48 0 0
48 0 0
37 0 0
41 0 0
46 0 0
51 0 0
43 0 0
44 0 0
42 0 0
48 0 0
43 0 0
43 0 0
45 0 0
52 0 0
45 0 0
39 0 0
47 0 0
48 0 0
52 0 0
43 0 0
52 0 0
49 0 0
45 0 0
48 0 0
35 0 0
49 0 0
46 0 0
46 0 0
46 0 0
49 0 0
48 0 0
49 0 0
35 0 0
45 0 0
43 0 0
47 0 0
42 0 0
39 0 0
43 0 0
39 0 0
37 0 0
43 0 0
47 0 0
40 0 0
39 0 0
44 0 0
45 0 0
47 0 0
40 0 0
46 0 0
40 0 0
42 0 0
47 0 0
34 0 0
46 0 0
37 0 0
54 0 0
46 0 0
44 0 0
54 0 0
48 0 0
45 0 0
51 0 0
49 0 0
44 0 0
43 0 0
49 0 0
46 0 0
40 0 0
47 0 0
48 0 0
53 0 0
46 0 0
52 0 0
40 0 0
47 0 0
46 0 0
42 0 0
47 0 0
41 0 0
37 0 0
48 0 0
47 0 0
43 0 0
38 0 0
47 0 0
42 0 0
47 2 2
106 90 112
153 179 222
172 205 255
172 205 255
172 206 255
172 206 255
172 206 255
173 206 255
173 206 255
173 206 255
173 206 255
173 206 255
173 206 255
173 206 255
173 206 255
173 206 255
174 206 255
174 206 255
174 207 255
174 207 255
174 207 255
174 207 255
174 207 255
174 207 255
175 207 255
175 207 255
175 207 255
175 207 255
175 207 255
175 207 255
175 207 255
175 207 255
176 208 255
174 205 253
151 178 225
77 91 151
8 10 78
0 0 72
0 0 73
0 0 69
0 0 74
0 0 66
0 0 73
0 0 64
0 0 72
0 0 64
0 0 74
0 0 74
0 0 66
0 0 75
0 0 57
0 0 67
0 0 73
0 0 64
0 0 65
0 0 67
0 0 67
0 0 75
0 0 58
0 0 70
0 0 57
0 0 66
0 0 61
0 0 75
0 0 60
0 0 62
0 0 73
0 0 60
0 0 66
0 0 59
0 0 79
0 0 54
0 0 65
0 0 61
0 0 66
0 0 64
0 0 63
0 0 62
0 0 59
0 0 57
0 0 55
0 0 48
0 0 63
0 0 63
0 0 56
0 0 59
0 0 74
0 0 62
0 0 75
0 0 70
0 0 55
0 0 71
0 0 64
0 0 63
0 0 62
0 0 55
0 0 66
0 0 68
0 0 56
0 0 65
0 0 45
0 0 62
0 0 65
0 0 62
0 0 59
0 0 65
0 0 62
0 0 53
0 0 55
0 0 65
0 0 60
0 0 58
0 0 55
0 0 60
0 0 64
0 0 58
0 0 56
0 0 60
0 0 71
0 0 66
0 0 56
0 0 49
0 0 61
0 0 71
0 0 58
0 0 66
0 0 52
0 0 49
0 0 54
0 0 60
0 0 59
0 0 60
0 0 65
0 0 53
0 0 64
0 0 60
0 0 70
0 0 59
0 0 43
0 0 56
0 0 76
0 0 51
0 0 74
0 0 58
0 0 55
0 0 63
0 0 67
0 0 52
0 0 64
0 0 62
0 0 56
0 0 48
0 0 72
0 0 59
0 0 59
47 67 75
42 59 66
32 50 51
32 49 52
39 56 62
28 41 44
32 48 53
28 47 47
41 59 66
44 63 71
43 61 70
30 46 47
42 56 65
38 54 62
35 55 55
42 58 65
46 66 74
35 56 58
43 61 71
39 58 64
42 57 65
44 64 73
31 48 50
39 56 65
37 55 61
43 60 70
36 56 58
39 57 63
35 51 58
32 49 52
39 58 62
39 55 61
42 62 68
46 62 75
43 59 67
33 52 53
33 48 52
33 48 51
35 53 54
38 55 58
36 52 58
42 57 65
52 69 83
38 55 62
43 62 68
37 55 59
39 57 62
35 51 57
41 58 64
37 51 58
41 54 66
39 55 62
37 50 57
36 48 53
36 53 59
40 57 65
41 55 63
43 58 66
40 55 60
35 51 58
42 54 65
47 61 74
35 48 57
41 58 68
38 53 57
33 44 50
44 60 70
43 55 65
34 45 54
46 63 74
38 56 60
44 56 68
41 54 63
41 59 68
38 49 60
37 54 62
30 46 47
39 56 61
42 56 68
41 58 65
36 47 56
38 47 59
43 58 70
44 56 67
40 52 61
33 49 53
39 52 64
34 47 53
48 61 75
39 55 60
44 60 71
42 58 67
38 47 60
46 59 70
39 54 64
41 56 64
44 58 69
46 58 71
46 60 74
43 54 67
45 61 73
44 58 68
38 49 60
48 58 73
39 53 63
44 59 70
38 47 59
36 46 57
44 53 68
38 48 61
45 52 66
39 52 60
42 52 67
39 46 55
43 56 66
48 64 77
50 64 81
41 51 64
36 47 58
42 53 67
49 59 75
72 90 110
115 139 171
162 192 235
176 208 255
176 208 255
176 208 255
175 207 255
175 207 255
175 207 255
175 207 255
175 207 255
175 207 255
175 207 255
175 207 255
174 207 255
174 207 255
174 207 255
174 207 255
174 207 255
174 207 255
174 206 255
174 206 255
174 206 255
173 206 255
173 206 255
173 206 255
173 206 255
173 206 255
173 206 255
173 206 255
171 204 253
114 113 140
52 18 23
42 0 0
45 0 0
43 0 0
43 0 0
41 0 0
44 0 0
42 0 0
50 0 0
51 0 0
53 0 0
40 0 0
43 0 0
53 0 0
44 0 0
45 0 0
45 0 0
48 0 0
47 0 0
42 0 0
51 0 0
40 0 0
52 0 0
52 0 0
49 0 0
41 0 0
52 0 0
44 0 0
36 0 0
51 0 0
49 0 0
43 0 0
47 0 0
44 0 0
50 0 0
48 0 0
42 0 0
49 0 0
47 0 0
51 0 0
49 0 0
49 0 0
34 0 0
40 0 0
46 0 0
47 0 0
44 0 0
46 0 0
49 0 0
47 0 0
44 0 0
44 0 0
41 0 0
47 0 0
42 0 0
53 0 0
42 0 0
47 0 0
45 0 0
45 0 0
44 0 0
40 0 0
42 0 0
48 0 0
48 0 0
40 0 0
43 0 0
54 0 0
50 0 0
41 0 0
50 0 0
45 0 0
47 0 0
48 0 0
49 0 0
50 0 0
45 0 0
48 0 0
53 0 0
40 0 0
45 0 0
47 0 0
48 0 0
50 0 0
41 0 0
46 0 0
53 0 0
40 0 0
35 0 0
50 0 0
40 0 0
47 0 0
45 0 0
56 14 17
111 107 133
173 206 255
173 206 255
173 206 255
173 206 255
173 206 255
173 206 255
173 206 255
173 206 255
174 206 255
174 206 255
174 206 255
174 207 255
174 207 255
174 207 255
174 207 255
174 207 255
175 207 255
175 207 255
175 207 255
175 207 255
175 207 255
175 207 255
175 207 255
175 207 255
175 207 255
176 208 255
176 208 255
176 208 255
160 189 237
112 133 185
22 27 86
0 0 79
0 0 63
0 0 58
0 0 64
0 0 81
0 0 66
0 0 68
0 0 69
0 0 67
0 0 65
0 0 69
0 0 71
0 0 66
0 0 71
0 0 54
0 0 63
0 0 65
0 0 63
0 0 67
0 0 62
0 0 64
0 0 64
0 0 66
0 0 66
0 0 68
0 0 63
0 0 62
0 0 75
0 0 65
0 0 58
0 0 68
0 0 62
0 0 67
0 0 69
0 0 66
0 0 71
0 0 58
0 0 50
0 0 50
0 0 66
0 0 60
0 0 68
0 0 81
0 0 62
0 0 65
0 0 37
0 0 47
0 0 57
0 0 56
0 0 69
0 0 61
0 0 49
0 0 53
0 0 58
0 0 65
0 0 55
0 0 44
0 0 53
0 0 47
0 0 62
0 0 55
0 0 54
0 0 49
0 0 51
0 0 55
0 0 60
0 0 77
0 0 42
0 0 58
0 0 49
0 0 48
0 0 66
0 0 64
0 0 63
0 0 62
0 0 61
0 0 58
0 0 73
0 0 67
0 0 60
0 0 60
0 0 63
0 0 48
0 0 44
0 0 58
0 0 70
0 0 56
0 0 50
0 0 52
0 0 53
0 0 46
0 0 69
0 0 64
0 0 58
0 0 52
0 0 65
0 0 67
0 0 50
0 0 64
0 0 62
0 0 56
0 0 62
0 0 61
0 0 52
0 0 58
0 0 62
0 0 57
0 0 63
0 0 50
0 0 65
0 0 58
0 0 55
0 0 66
0 0 61
0 0 63
0 0 58
0 0 64
0 0 75
0 0 51
0 0 74
0 0 59
41 56 67
36 56 59
45 62 72
39 60 64
40 58 63
40 57 63
32 51 52
42 58 67
43 62 70
38 58 63
45 64 71
39 54 62
51 71 81
37 56 60
31 53 52
42 62 68
29 48 47
50 68 81
32 47 51
34 53 55
37 55 60
45 64 72
37 53 58
38 55 59
40 56 64
42 60 68
33 50 53
41 58 67
36 54 59
34 47 53
35 51 56
36 54 56
33 53 55
37 54 59
39 59 66
45 60 69
50 66 82
35 52 55
33 47 53
44 60 72
38 52 59
28 49 46
33 48 53
37 55 60
41 62 69
36 56 61
29 46 48
35 49 54
37 50 59
35 50 55
34 51 55
37 53 59
34 51 56
32 46 53
27 44 45
42 58 67
37 52 60
44 63 70
31 47 49
36 53 59
40 54 67
37 53 59
42 58 67
47 63 75
34 52 54
37 53 59
37 51 58
37 51 56
42 54 68
50 72 80
35 52 57
46 63 71
32 47 51
30 40 47
33 45 51
38 50 58
35 50 52
46 63 75
35 50 54
38 54 60
43 58 68
43 56 66
36 50 57
36 49 59
37 56 64
38 51 55
42 55 63
41 54 65
42 57 68
40 54 65
49 63 75
32 43 48
35 47 53
42 53 64
46 58 71
37 53 60
50 66 79
48 62 79
45 58 70
40 49 60
39 51 62
42 53 63
44 55 67
43 55 70
38 51 60
36 49 58
44 53 65
47 58 74
38 48 59
44 53 63
41 51 62
44 53 69
37 47 57
38 48 59
44 55 70
38 50 58
41 48 60
42 49 63
42 52 61
43 52 66
35 46 54
45 59 73
55 69 88
49 60 76
98 118 145
151 178 220
176 208 255
176 208 255
176 208 255
176 208 255
176 208 255
175 207 255
175 207 255
175 207 255
175 207 255
175 207 255
175 207 255
175 207 255
175 207 255
175 207 255
174 207 255
174 207 255
174 207 255
174 207 255
174 207 255
174 207 255
174 206 255
174 206 255
174 206 255
173 206 255
144 163 202
70 33 40
44 0 0
39 0 0
47 0 0
41 0 0
47 0 0
46 0 0
45 0 0
41 0 0
43 0 0
41 0 0
41 0 0
46 0 0
49 0 0
41 0 0
42 0 0
39 0 0
61 0 0
38 0 0
41 0 0
50 0 0
43 0 0
46 0 0
52 0 0
50 0 0
45 0 0
46 0 0
46 0 0
39 0 0
49 0 0
49 0 0
52 0 0
47 0 0
51 0 0
40 0 0
47 0 0
35 0 0
47 0 0
50 0 0
43 0 0
46 0 0
45 0 0
46 0 0
42 0 0
47 0 0
45 0 0
40 0 0
55 0 0
43 0 0
44 0 0
36 0 0
45 0 0
41 0 0
43 0 0
41 0 0
44 0 0
51 0 0
38 0 0
44 0 0
50 0 0
47 0 0
47 0 0
49 0 0
46 0 0
43 0 0
41 0 0
43 0 0
48 0 0
38 0 0
43 0 0
44 0 0
53 0 0
55 0 0
39 0 0
56 0 0
41 0 0
44 0 0
51 0 0
41 0 0
48 0 0
43 0 0
52 0 0
43 0 0
45 0 0
39 0 0
45 0 0
32 0 0
40 0 0
46 0 0
47 0 0
42 0 0
43 0 0
49 0 0
41 0 0
54 0 0
49 0 0
48 0 0
68 41 51
160 179 222
173 206 255
174 206 255
174 206 255
174 206 255
174 207 255
174 207 255
174 207 255
174 207 255
174 207 255
174 207 255
175 207 255
175 207 255
175 207 255
175 207 255
175 207 255
175 207 255
175 207 255
175 207 255
175 207 255
176 208 255
176 208 255
176 208 255
176 208 255
176 208 255
144 170 224
52 62 128
5 6 71
0 0 74
0 0 66
0 0 63
0 0 79
0 0 71
0 0 71
0 0 59
0 0 69
0 0 53
0 0 63
0 0 60
0 0 75
0 0 73
0 0 66
0 0 65
0 0 56
0 0 73
0 0 62
0 0 71
0 0 54
0 0 71
0 0 62
0 0 69
0 0 68
0 0 63
0 0 52
0 0 63
0 0 59
0 0 57
0 0 47
0 0 64
0 0 69
0 0 62
0 0 70
0 0 66
0 0 64
0 0 59
0 0 58
0 0 57
0 0 58
0 0 66
0 0 50
0 0 66
0 0 60
0 0 53
0 0 67
0 0 62
0 0 57
0 0 62
0 0 58
0 0 61
0 0 66
0 0 59
0 0 52
0 0 61
0 0 69
0 0 55
0 0 56
0 0 65
0 0 58
0 0 53
0 0 56
0 0 43
0 0 59
0 0 55
0 0 61
0 0 67
0 0 47
0 0 58
0 0 49
0 0 55
0 0 48
0 0 68
0 0 56
0 0 52
0 0 57
0 0 54
0 0 58
0 0 57
0 0 57
0 0 59
0 0 62
0 0 52
0 0 44
0 0 67
0 0 53
0 0 64
0 0 50
0 0 46
0 0 53
0 0 61
0 0 58
0 0 58
0 0 59
0 0 47
0 0 60
0 0 49
0 0 59
0 0 63
0 0 54
0 0 59
0 0 51
0 0 54
0 0 62
0 0 67
0 0 54
0 0 52
0 0 65
0 0 79
0 0 52
0 0 54
0 0 60
0 0 58
0 0 68
0 0 62
0 0 60
0 0 47
0 0 81
0 0 56
0 0 63
0 0 59
0 0 62
0 0 64
41 59 65
39 59 64
36 54 59
35 55 56
35 54 57
31 49 50
41 61 64
42 62 68
33 52 52
38 57 61
41 58 67
40 57 63
45 59 70
37 56 60
38 52 60
42 60 69
37 55 58
36 54 57
30 45 45
32 45 51
39 49 61
38 54 62
36 53 58
36 52 59
36 50 57
36 52 57
42 59 66
36 52 56
39 55 62
41 62 65
41 55 63
29 44 45
43 59 68
39 59 60
42 60 68
34 51 53
37 53 59
36 56 57
42 55 64
38 52 61
43 61 70
37 55 61
34 47 54
37 51 56
38 54 59
42 61 68
36 50 55
38 56 61
34 50 51
31 49 49
33 50 52
29 44 51
28 41 43
40 54 63
35 45 52
39 55 61
37 52 59
40 57 65
44 59 70
35 48 55
33 45 53
41 54 62
36 52 57
32 46 48
39 57 62
47 60 74
39 52 61
38 51 62
39 52 63
38 52 59
35 47 53
36 55 58
36 48 56
36 51 58
41 55 65
38 51 62
31 45 49
44 60 69
36 52 59
35 50 55
39 52 62
35 48 54
36 48 56
40 51 59
32 49 49
38 52 60
42 54 64
36 50 56
37 50 56
37 48 59
42 51 63
37 50 57
40 53 66
36 51 56
39 51 61
38 47 56
36 48 55
43 57 70
45 56 70
42 52 65
36 47 56
39 48 58
31 44 48
37 51 61
37 47 55
44 58 69
45 59 72
46 58 72
43 52 64
43 55 67
40 47 61
43 51 65
36 46 54
42 52 66
39 50 63
32 36 43
36 40 52
44 56 68
40 50 61
37 48 60
36 41 52
48 59 75
46 60 71
46 56 68
41 51 63
49 59 75
77 93 114
133 155 191
176 208 255
176 208 255
176 208 255
176 208 255
176 208 255
176 208 255
176 208 255
176 208 255
175 207 255
175 207 255
175 207 255
175 207 255
175 207 255
175 207 255
175 207 255
175 207 255
175 207 255
174 207 255
174 207 255
174 207 255
174 207 255
116 107 133
43 6 7
41 0 0
38 0 0
52 0 0
46 0 0
43 0 0
52 0 0
41 0 0
48 0 0
39 0 0
44 0 0
47 0 0
38 0 0
42 0 0
34 0 0
48 0 0
41 0 0
40 0 0
49 0 0
37 0 0
38 0 0
48 0 0
56 0 0
39 0 0
47 0 0
45 0 0
43 0 0
52 0 0
40 0 0
46 0 0
49 0 0
50 0 0
43 0 0
50 0 0
39 0 0
43 0 0
49 0 0
41 0 0
41 0 0
45 0 0
46 0 0
39 0 0
43 0 0
51 0 0
42 0 0
46 0 0
49 0 0
38 0 0
42 0 0
37 0 0
41 0 0
35 0 0
38 0 0
48 0 0
45 0 0
39 0 0
48 0 0
36 0 0
43 0 0
35 0 0
46 0 0
43 0 0
45 0 0
44 0 0
41 0 0
48 0 0
48 0 0
39 0 0
48 0 0
52 0 0
45 0 0
43 0 0
47 0 0
54 0 0
37 0 0
40 0 0
51 0 0
44 0 0
41 0 0
45 0 0
41 0 0
45 0 0
41 0 0
35 0 0
49 0 0
42 0 0
37 0 0
49 0 0
47 0 0
38 0 0
45 0 0
56 0 0
43 0 0
42 0 0
31 0 0
47 0 0
50 0 0
42 0 0
48 0 0
51 4 5
121 118 145
172 203 250
174 207 255
174 207 255
175 207 255
175 207 255
175 207 255
175 207 255
175 207 255
175 207 255
175 207 255
175 207 255
175 207 255
175 207 255
176 208 255
176 208 255
176 208 255
176 208 255
176 208 255
176 208 255
176 208 255
176 208 255
122 143 203
45 54 119
0 0 70
0 0 63
0 0 70
0 0 53
0 0 57
0 0 57
0 0 54
0 0 64
0 0 50
0 0 53
0 0 71
0 0 55
0 0 58
0 0 41
0 0 72
0 0 51
0 0 60
0 0 59
0 0 51
0 0 68
0 0 52
0 0 55
0 0 59
0 0 60
0 0 70
0 0 58
0 0 61
0 0 78
0 0 62
0 0 63
0 0 60
0 0 60
0 0 62
0 0 57
0 0 66
0 0 60
0 0 73
0 0 68
0 0 56
0 0 57
0 0 57
0 0 57
0 0 56
0 0 61
0 0 59
0 0 58
0 0 71
0 0 55
0 0 63
0 0 62
0 0 65
0 0 51
0 0 50
0 0 50
0 0 56
0 0 62
0 0 63
0 0 50
0 0 54
0 0 43
0 0 72
0 0 56
0 0 72
0 0 56
0 0 55
0 0 61
0 0 55
0 0 53
0 0 63
0 0 55
0 0 57
0 0 58
0 0 59
0 0 48
0 0 50
0 0 55
0 0 67
0 0 59
0 0 58
0 0 54
0 0 57
0 0 47
0 0 64
0 0 60
0 0 45
0 0 54
0 0 63
0 0 61
0 0 67
0 0 54
0 0 55
0 0 60
0 0 48
0 0 64
0 0 59
0 0 55
0 0 52
0 0 64
0 0 56
0 0 54
0 0 55
0 0 70
0 0 60
0 0 57
0 0 69
0 0 46
0 0 69
0 0 62
0 0 48
0 0 53
0 0 68
0 0 45
0 0 52
0 0 53
0 0 51
0 0 62
0 0 72
0 0 53
0 0 56
0 0 58
0 0 56
0 0 74
0 0 61
0 0 57
0 0 60
0 0 55
43 60 68
34 52 53
31 48 52
37 53 59
33 56 53
36 53 61
30 50 49
45 64 69
34 49 52
33 53 55
32 53 51
39 55 61
39 57 65
39 56 63
35 51 57
33 46 52
39 56 60
45 66 73
30 43 47
33 48 54
38 57 61
32 49 53
38 58 61
41 59 66
33 51 56
35 56 56
44 59 69
33 49 52
30 47 48
37 57 56
41 60 65
38 56 60
31 49 52
41 56 68
30 46 46
43 60 68
39 60 65
35 50 56
44 60 69
33 48 52
43 60 69
36 52 58
29 52 43
33 51 54
28 48 46
38 52 60
40 56 63
33 47 53
35 48 57
40 58 64
41 55 63
36 52 55
43 61 67
35 56 56
32 49 52
32 50 52
29 40 49
32 50 54
37 50 58
26 40 39
39 55 63
39 57 63
39 54 62
45 59 72
42 59 67
37 54 58
36 53 59
44 59 68
41 55 64
35 48 54
36 51 59
44 59 67
35 49 57
27 42 44
38 49 58
35 50 53
40 55 64
42 55 68
35 46 54
40 54 63
38 48 56
29 40 43
35 48 56
29 43 45
33 47 52
40 52 62
32 42 48
36 51 59
41 53 65
36 50 55
35 47 57
43 54 63
39 51 62
44 57 69
33 47 52
40 51 61
47 61 71
41 55 64
39 55 60
38 55 64
38 50 58
31 44 50
34 40 49
40 53 63
40 50 64
38 48 60
42 54 65
34 42 51
34 43 50
35 44 52
32 41 49
38 48 57
41 56 64
51 68 81
39 51 61
37 45 56
43 53 66
41 51 64
41 51 61
43 55 67
41 47 62
41 53 65
37 46 58
42 54 67
35 45 52
45 51 64
45 51 64
47 61 75
64 75 94
119 141 175
177 208 255
177 208 255
176 208 255
176 208 255
176 208 255
176 208 255
176 208 255
176 208 255
176 208 255
176 208 255
176 208 255
176 208 255
175 207 255
175 207 255
175 207 255
175 207 255
175 207 255
156 176 217
86 68 84
40 0 0
42 0 0
37 0 0
41 0 0
46 0 0
40 0 0
47 0 0
33 0 0
39 0 0
49 0 0
49 0 0
42 0 0
36 0 0
46 0 0
46 0 0
42 0 0
43 0 0
45 0 0
44 0 0
47 0 0
45 0 0
51 0 0
51 0 0
43 0 0
40 0 0
45 0 0
50 0 0
52 0 0
40 0 0
44 0 0
41 0 0
51 0 0
49 0 0
51 0 0
48 0 0
38 0 0
50 0 0
39 0 0
47 0 0
44 0 0
37 0 0
41 0 0
45 0 0
49 0 0
49 0 0
49 0 0
48 0 0
51 0 0
41 0 0
40 0 0
49 0 0
49 0 0
45 0 0
50 0 0
45 0 0
45 0 0
47 0 0
40 0 0
51 0 0
38 0 0
43 0 0
48 0 0
41 0 0
41 0 0
44 0 0
46 0 0
55 0 0
52 0 0
39 0 0
45 0 0
44 0 0
42 0 0
41 0 0
38 0 0
43 0 0
40 0 0
50 0 0
54 0 0
48 0 0
34 0 0
49 0 0
53 0 0
45 0 0
47 0 0
38 0 0
41 0 0
42 0 0
42 0 0
40 0 0
41 0 0
41 0 0
38 0 0
43 0 0
49 0 0
36 0 0
39 0 0
43 0 0
40 0 0
39 0 0
45 0 0
47 0 0
40 0 0
87 68 84
160 186 230
175 207 255
175 207 255
175 207 255
175 207 255
175 207 255
175 207 255
176 208 255
176 208 255
176 208 255
176 208 255
176 208 255
176 208 255
176 208 255
176 208 255
176 208 255
177 208 255
177 208 255
116 137 188
28 33 100
0 0 58
0 0 66
0 0 57
0 0 74
0 0 74
0 0 63
0 0 63
0 0 49
0 0 59
0 0 61
0 0 54
0 0 64
0 0 62
0 0 64
0 0 72
0 0 57
0 0 65
0 0 71
0 0 75
0 0 61
0 0 56
0 0 68
0 0 55
0 0 58
0 0 56
0 0 57
0 0 50
0 0 69
0 0 59
0 0 68
0 0 57
0 0 51
0 0 52
0 0 52
0 0 68
0 0 45
0 0 67
0 0 60
0 0 67
0 0 60
0 0 66
0 0 44
0 0 49
0 0 50
0 0 55
0 0 51
0 0 57
0 0 64
0 0 60
0 0 58
0 0 56
0 0 65
0 0 59
0 0 58
0 0 58
0 0 44
0 0 61
0 0 53
0 0 54
0 0 61
0 0 68
0 0 55
0 0 52
0 0 50
0 0 57
0 0 58
0 0 54
0 0 65
0 0 61
0 0 52
0 0 69
0 0 55
0 0 69
0 0 61
0 0 59
0 0 55
0 0 59
0 0 59
0 0 67
0 0 56
0 0 52
0 0 53
0 0 63
0 0 59
0 0 51
0 0 66
0 0 57
0 0 56
0 0 65
0 0 44
0 0 54
0 0 48
0 0 61
0 0 52
0 0 56
0 0 65
0 0 56
0 0 65
0 0 56
0 0 64
0 0 46
0 0 53
0 0 58
0 0 56
0 0 41
0 0 51
0 0 64
0 0 66
0 0 61
0 0 65
0 0 61
0 0 60
0 0 59
0 0 61
0 0 51
0 0 53
0 0 43
0 0 50
0 0 53
0 0 58
0 0 56
0 0 69
0 0 54
0 0 62
0 0 52
0 0 59
0 0 61
0 0 56
31 49 51
40 57 66
38 57 63
39 61 61
44 63 70
35 56 57
37 57 60
45 60 72
33 48 53
28 49 46
37 52 58
46 66 72
27 47 43
40 57 63
36 55 58
44 60 68
40 56 65
40 56 63
33 47 54
33 50 52
40 57 64
33 49 52
35 50 52
24 40 38
44 61 70
35 53 55
29 47 45
38 52 58
41 54 64
39 58 62
45 64 69
30 45 49
35 49 56
35 54 56
41 62 66
40 56 60
31 46 48
35 53 57
34 46 55
36 51 55
40 55 61
39 58 61
41 55 61
43 61 71
36 51 57
28 45 45
35 51 58
39 51 61
39 54 60
41 61 66
28 38 42
37 50 56
41 54 64
31 46 49
33 49 52
39 52 60
36 48 58
35 53 55
33 47 52
31 44 48
44 59 69
40 52 61
37 50 57
36 56 58
37 46 57
45 55 68
28 40 42
39 56 59
49 65 77
38 53 59
37 53 62
35 46 51
36 49 56
35 50 55
36 48 57
36 51 55
37 51 56
39 55 64
34 47 54
38 50 59
36 49 56
41 54 63
37 47 56
36 51 56
42 56 66
39 57 63
39 52 63
29 40 46
40 53 63
37 46 55
32 48 53
27 41 39
35 51 57
33 44 52
40 50 57
34 46 53
39 48 58
37 48 58
38 54 59
53 67 84
32 45 51
40 52 64
42 49 61
44 59 70
40 54 64
36 46 53
41 53 65
33 48 53
44 52 61
33 39 47
33 45 52
36 42 55
42 53 64
38 50 59
41 52 63
38 55 60
41 49 62
43 52 63
45 57 69
47 58 73
39 47 60
46 59 72
38 45 60
45 55 70
44 54 69
37 43 54
37 46 59
42 50 65
34 41 50
39 49 63
64 77 95
138 162 199
177 208 255
177 208 255
177 208 255
177 208 255
177 208 255
177 208 255
176 208 255
176 208 255
176 208 255
176 208 255
176 208 255
176 208 255
176 208 255
176 208 255
141 158 194
58 16 20
37 0 0
42 0 0
37 0 0
49 0 0
36 0 0
51 0 0
39 0 0
41 0 0
44 0 0
40 0 0
48 0 0
40 0 0
49 0 0
40 0 0
47 0 0
41 0 0
40 0 0
43 0 0
47 0 0
43 0 0
39 0 0
53 0 0
48 0 0
45 0 0
47 0 0
47 0 0
39 0 0
35 0 0
36 0 0
44 0 0
39 0 0
46 0 0
43 0 0
33 0 0
40 0 0
45 0 0
43 0 0
40 0 0
42 0 0
45 0 0
45 0 0
44 0 0
42 0 0
39 0 0
38 0 0
38 0 0
46 0 0
45 0 0
44 0 0
44 0 0
44 0 0
37 0 0
39 0 0
51 0 0
49 0 0
43 0 0
39 0 0
38 0 0
38 0 0
33 0 0
44 0 0
50 0 0
39 0 0
38 0 0
46 0 0
39 0 0
39 0 0
37 0 0
41 0 0
42 0 0
41 0 0
45 0 0
46 0 0
42 0 0
50 0 0
42 0 0
40 0 0
43 0 0
35 0 0
41 0 0
42 0 0
45 0 0
42 0 0
45 0 0
41 0 0
48 0 0
44 0 0
40 0 0
49 0 0
47 0 0
42 0 0
32 0 0
38 0 0
45 0 0
46 0 0
47 0 0
43 0 0
43 0 0
38 0 0
45 0 0
39 0 0
45 0 0
44 0 0
39 0 0
42 14 17
144 158 194
176 208 255
176 208 255
176 208 255
176 208 255
176 208 255
176 208 255
176 208 255
176 208 255
177 208 255
177 208 255
177 208 255
177 208 255
177 208 255
177 208 255
111 131 191
30 35 87
0 0 64
0 0 60
0 0 62
0 0 60
0 0 72
0 0 73
0 0 73
0 0 53
0 0 55
0 0 59
0 0 63
0 0 55
0 0 71
0 0 56
0 0 62
0 0 56
0 0 56
0 0 50
0 0 56
0 0 57
0 0 67
0 0 50
0 0 65
0 0 55
0 0 62
0 0 54
0 0 54
0 0 76
0 0 59
0 0 64
0 0 65
0 0 60
0 0 56
0 0 69
0 0 44
0 0 71
0 0 62
0 0 56
0 0 51
0 0 55
0 0 66
0 0 72
0 0 47
0 0 60
0 0 46
0 0 40
0 0 49
0 0 60
0 0 46
0 0 51
0 0 55
0 0 61
0 0 46
0 0 53
0 0 61
0 0 51
0 0 46
0 0 64
0 0 53
0 0 42
0 0 56
0 0 61
0 0 55
0 0 60
0 0 62
0 0 56
0 0 53
0 0 49
0 0 43
0 0 42
0 0 43
0 0 62
0 0 58
0 0 51
0 0 59
0 0 45
0 0 60
0 0 52
0 0 48
0 0 60
0 0 54
0 0 53
0 0 56
0 0 53
0 0 60
0 0 48
0 0 60
0 0 68
0 0 65
0 0 74
0 0 52
0 0 53
0 0 51
0 0 48
0 0 55
0 0 59
0 0 54
0 0 57
0 0 50
0 0 53
0 0 58
0 0 52
0 0 58
0 0 54
0 0 59
0 0 72
0 0 60
0 0 61
0 0 65
0 0 59
0 0 68
0 0 49
0 0 64
0 0 45
0 0 81
0 0 62
0 0 36
0 0 51
0 0 52
0 0 57
0 0 51
0 0 61
0 0 69
0 0 60
0 0 59
0 0 51
0 0 57
0 0 56
0 0 57
0 0 63
38 54 62
41 58 64
35 52 56
45 66 72
40 59 62
35 52 55
36 51 57
42 59 67
46 64 74
35 52 57
46 65 74
38 48 59
38 57 61
32 50 51
29 45 47
41 59 65
26 41 41
40 60 65
42 59 66
35 53 57
39 59 62
40 52 60
36 54 57
38 53 62
33 49 52
31 50 49
39 59 63
30 45 45
33 49 52
38 55 64
37 54 58
26 41 42
35 51 56
47 66 76
38 56 60
36 51 58
39 54 61
28 44 46
34 52 52
39 61 63
28 44 45
39 51 60
36 56 58
34 47 52
40 57 65
42 56 68
41 59 67
40 56 65
37 53 59
40 52 64
36 57 57
37 53 58
38 51 59
34 49 54
33 52 55
35 49 52
37 52 57
28 41 44
30 45 47
33 48 52
39 55 61
40 54 62
40 56 63
39 54 61
27 40 42
33 48 54
30 47 48
40 56 63
37 47 55
36 48 55
38 51 59
41 58 66
39 51 60
32 44 47
30 39 44
32 49 51
38 51 57
37 48 57
43 57 68
35 48 57
39 54 60
32 42 48
35 49 56
39 56 62
36 50 58
38 50 58
38 50 59
38 54 61
39 55 64
31 41 46
37 51 61
34 49 54
33 44 51
39 53 60
33 42 49
40 53 59
40 54 61
33 46 48
47 56 70
36 47 53
41 58 64
37 49 58
43 55 64
40 50 60
40 50 58
41 58 65
38 52 57
42 52 63
34 47 52
39 48 59
36 47 56
41 50 63
36 49 58
36 42 52
38 51 58
35 48 58
45 56 70
30 40 44
43 53 64
46 54 70
45 54 67
36 45 52
36 43 52
41 49 63
31 41 48
43 54 68
42 50 64
43 50 66
34 37 47
37 40 50
36 42 52
37 49 61
78 95 117
148 176 214
177 209 255
177 209 255
177 209 255
177 208 255
177 208 255
177 208 255
177 208 255
177 208 255
177 208 255
177 208 255
176 208 255
115 118 145
46 4 5
46 0 0
39 0 0
47 0 0
40 0 0
43 0 0
44 0 0
33 0 0
43 0 0
41 0 0
38 0 0
42 0 0
49 0 0
37 0 0
38 0 0
41 0 0
38 0 0
53 0 0
52 0 0
48 0 0
45 0 0
46 0 0
44 0 0
40 0 0
36 0 0
40 0 0
43 0 0
50 0 0
42 0 0
46 0 0
39 0 0
40 0 0
42 0 0
39 0 0
46 0 0
41 0 0
42 0 0
46 0 0
50 0 0
45 0 0
40 0 0
42 0 0
40 0 0
46 0 0
44 0 0
47 0 0
41 0 0
45 0 0
40 0 0
40 0 0
47 0 0
42 0 0
52 0 0
45 0 0
35 0 0
39 0 0
36 0 0
46 0 0
37 0 0
44 0 0
44 0 0
41 0 0
44 0 0
39 0 0
49 0 0
45 0 0
44 0 0
41 0 0
44 0 0
45 0 0
40 0 0
41 0 0
39 0 0
47 0 0
50 0 0
39 0 0
40 0 0
37 0 0
38 0 0
45 0 0
40 0 0
45 0 0
37 0 0
45 0 0
40 0 0
47 0 0
57 0 0
46 0 0
35 0 0
42 0 0
42 0 0
43 0 0
43 0 0
42 0 0
41 0 0
44 0 0
34 0 0
44 0 0
53 0 0
32 0 0
44 0 0
43 0 0
42 0 0
42 0 0
45 0 0
44 0 0
44 0 0
40 10 12
126 131 161
176 208 255
177 208 255
177 208 255
177 208 255
177 208 255
177 208 255
177 208 255
177 208 255
177 209 255
177 209 255
177 209 255
137 161 207
32 37 94
0 0 59
0 0 60
0 0 62
0 0 75
0 0 56
0 0 68
0 0 50
0 0 65
0 0 61
0 0 48
0 0 77
0 0 60
0 0 57
0 0 56
0 0 47
0 0 58
0 0 67
0 0 67
0 0 52
0 0 55
0 0 60
0 0 62
0 0 58
0 0 61
0 0 51
0 0 67
0 0 58
0 0 58
0 0 66
0 0 57
0 0 64
0 0 48
0 0 46
0 0 63
0 0 52
0 0 60
0 0 57
0 0 54
0 0 53
0 0 43
0 0 51
0 0 51
0 0 71
0 0 80
0 0 62
0 0 50
0 0 56
0 0 52
0 0 56
0 0 60
0 0 54
0 0 51
0 0 58
0 0 63
0 0 56
0 0 49
0 0 50
0 0 67
0 0 50
0 0 58
0 0 41
0 0 43
0 0 55
0 0 59
0 0 45
0 0 65
0 0 47
0 0 83
0 0 53
0 0 66
0 0 62
0 0 56
0 0 41
0 0 65
0 0 55
0 0 59
0 0 58
0 0 51
0 0 55
0 0 76
0 0 53
0 0 60
0 0 54
0 0 57
0 0 49
0 0 54
0 0 56
0 0 68
0 0 51
0 0 61
0 0 50
0 0 53
0 0 58
0 0 48
0 0 66
0 0 56
0 0 58
0 0 73
0 0 51
0 0 50
0 0 52
0 0 61
0 0 54
0 0 52
0 0 63
0 0 59
0 0 53
0 0 45
0 0 46
0 0 50
0 0 59
0 0 58
0 0 59
0 0 58
0 0 55
0 0 69
0 0 54
0 0 59
0 0 56
0 0 37
0 0 54
0 0 46
0 0 67
0 0 61
0 0 54
0 0 54
0 0 55
0 0 55
0 0 67
0 0 71
0 0 49
0 0 50
33 53 51
36 56 57
39 54 62
37 57 58
42 60 66
42 61 68
30 49 50
28 48 46
34 55 56
34 55 55
46 64 71
50 66 78
38 57 62
41 59 67
45 61 71
34 49 54
33 52 52
36 55 57
31 50 47
41 59 66
37 55 59
48 68 76
32 51 52
41 63 69
32 46 51
39 55 63
29 46 45
27 43 43
39 55 63
38 54 61
38 54 62
33 48 50
41 55 65
35 50 56
42 59 68
37 55 58
33 56 52
38 58 62
33 49 54
37 57 58
43 59 67
33 47 51
30 45 49
40 60 64
30 45 46
40 56 61
34 49 53
35 48 51
30 44 48
35 48 53
39 59 63
36 52 58
40 56 64
35 47 57
34 46 53
37 55 60
30 40 44
28 42 47
32 47 48
38 55 64
41 58 64
41 55 65
40 53 60
33 49 52
33 48 55
36 53 57
38 56 60
35 52 55
35 49 53
30 44 47
34 43 53
30 45 48
26 40 42
32 42 46
32 47 51
25 38 37
26 38 40
36 47 55
36 48 55
34 49 53
37 53 58
45 58 68
31 40 45
30 45 44
42 56 64
33 50 53
34 46 55
36 46 56
37 49 57
35 49 51
33 46 50
31 44 48
35 45 51
38 49 57
36 47 55
39 48 60
35 49 53
37 50 58
29 43 44
41 50 63
38 51 60
30 40 46
33 43 49
36 45 54
43 59 66
32 37 44
31 41 48
36 48 56
32 43 50
31 38 49
40 53 61
39 48 59
33 44 52
43 53 64
43 52 62
41 48 60
34 45 54
33 42 48
43 55 69
34 47 53
43 46 56
33 37 47
39 46 58
37 42 50
37 44 54
41 47 59
46 57 71
43 51 64
43 53 67
40 43 55
34 38 48
38 44 54
44 48 61
37 45 54
85 101 125
168 197 242
178 209 255
178 209 255
178 209 255
178 209 255
177 209 255
177 209 255
177 209 255
177 209 255
119 125 153
44 0 0
45 0 0
33 0 0
40 0 0
43 0 0
43 0 0
41 0 0
46 0 0
38 0 0
40 0 0
45 0 0
44 0 0
43 0 0
38 0 0
48 0 0
34 0 0
48 0 0
41 0 0
46 0 0
43 0 0
44 0 0
43 0 0
46 0 0
48 0 0
44 0 0
42 0 0
41 0 0
53 0 0
46 0 0
40 0 0
41 0 0
36 0 0
42 0 0
44 0 0
37 0 0
35 0 0
40 0 0
44 0 0
40 0 0
46 0 0
45 0 0
43 0 0
37 0 0
27 0 0
44 0 0
45 0 0
29 0 0
43 0 0
46 0 0
40 0 0
39 0 0
50 0 0
40 0 0
39 0 0
46 0 0
37 0 0
44 0 0
38 0 0
49 0 0
41 0 0
31 0 0
47 0 0
45 0 0
45 0 0
41 0 0
40 0 0
41 0 0
35 0 0
48 0 0
39 0 0
46 0 0
40 0 0
39 0 0
36 0 0
46 0 0
43 0 0
41 0 0
47 0 0
34 0 0
40 0 0
40 0 0
38 0 0
38 0 0
42 0 0
42 0 0
41 0 0
35 0 0
42 0 0
47 0 0
41 0 0
36 0 0
47 0 0
39 0 0
42 0 0
47 0 0
42 0 0
47 0 0
43 0 0
36 0 0
49 0 0
34 0 0
38 0 0
39 0 0
48 0 0
42 0 0
33 0 0
43 0 0
40 0 0
36 0 0
43 0 0
108 106 130
177 209 255
177 209 255
177 209 255
177 209 255
178 209 255
178 209 255
178 209 255
178 209 255
153 180 229
73 85 139
0 0 61
0 0 61
0 0 50
0 0 54
0 0 69
0 0 47
0 0 52
0 0 66
0 0 55
0 0 67
0 0 48
0 0 56
0 0 49
0 0 59
0 0 61
0 0 56
0 0 56
0 0 76
0 0 59
0 0 63
0 0 61
0 0 70
0 0 47
0 0 58
0 0 53
0 0 57
0 0 51
0 0 43
0 0 58
0 0 51
0 0 61
0 0 58
0 0 59
0 0 63
0 0 49
0 0 54
0 0 59
0 0 59
0 0 69
0 0 60
0 0 64
0 0 61
0 0 67
0 0 55
0 0 62
0 0 49
0 0 52
0 0 65
0 0 47
0 0 54
0 0 60
0 0 52
0 0 44
0 0 53
0 0 57
0 0 54
0 0 48
0 0 49
0 0 46
0 0 48
0 0 39
0 0 64
0 0 48
0 0 61
0 0 48
0 0 55
0 0 49
0 0 43
0 0 71
0 0 62
0 0 60
0 0 45
0 0 68
0 0 51
0 0 61
0 0 60
0 0 54
0 0 56
0 0 61
0 0 59
0 0 51
0 0 42
0 0 62
0 0 44
0 0 51
0 0 60
0 0 63
0 0 48
0 0 56
0 0 49
0 0 68
0 0 47
0 0 57
0 0 47
0 0 54
0 0 66
0 0 44
0 0 57
0 0 49
0 0 42
0 0 56
0 0 62
0 0 42
0 0 53
0 0 58
0 0 49
0 0 61
0 0 62
0 0 58
0 0 55
0 0 50
0 0 59
0 0 57
0 0 50
0 0 70
0 0 55
0 0 51
0 0 49
0 0 50
0 0 62
0 0 48
0 0 68
0 0 64
0 0 54
0 0 41
0 0 57
0 0 55
0 0 58
0 0 54
0 0 52
0 0 43
0 0 45
0 0 59
0 0 51
46 61 74
29 48 48
33 49 51
43 62 68
40 56 62
38 57 62
35 50 57
35 53 57
29 48 46
35 56 57
38 54 63
33 50 52
32 49 54
37 59 59
37 55 58
34 51 57
35 58 58
36 53 56
40 60 65
32 46 51
27 46 43
36 57 58
37 52 61
33 54 53
36 53 60
45 59 67
33 50 52
40 58 66
45 61 73
35 52 53
41 59 67
25 43 41
41 59 65
37 54 61
39 57 61
37 58 60
42 61 66
44 62 69
37 54 60
29 41 47
37 51 55
34 43 51
38 59 60
29 46 47
39 53 61
40 55 63
39 58 62
41 54 64
32 46 52
33 47 53
36 47 56
38 56 61
35 50 55
39 55 58
34 50 52
34 48 53
33 49 52
32 49 50
34 43 51
34 51 57
34 44 52
35 51 55
36 51 53
31 47 50
40 56 64
34 48 54
39 50 60
35 49 53
36 50 55
38 51 61
40 53 61
31 45 47
38 53 62
34 48 52
32 46 51
37 54 58
38 51 59
32 47 53
41 53 64
37 50 56
32 43 48
34 44 51
32 44 50
44 59 68
34 47 55
39 52 63
32 44 47
28 41 41
28 40 45
44 59 70
36 49 58
42 55 62
35 49 55
35 47 54
30 44 47
31 42 45
30 38 44
31 41 46
30 45 47
35 45 55
36 49 58
39 53 63
36 51 55
35 49 57
36 47 56
39 49 61
39 50 61
39 48 57
25 35 34
41 54 66
34 41 49
43 54 67
38 46 57
36 47 54
35 44 52
37 46 55
37 46 56
27 40 42
38 47 58
33 42 49
33 42 52
32 37 45
32 40 49
39 43 52
26 26 33
36 46 54
40 50 61
41 50 65
44 50 64
32 38 49
40 44 55
34 35 44
42 46 59
48 56 71
50 58 75
49 59 75
117 135 165
178 209 255
178 209 255
178 209 255
178 209 255
178 209 255
178 209 255
110 98 120
35 0 0
35 0 0
38 0 0
39 0 0
53 0 0
39 0 0
42 0 0
40 0 0
47 0 0
36 0 0
46 0 0
47 0 0
42 0 0
38 0 0
39 0 0
33 0 0
47 0 0
47 0 0
47 0 0
47 0 0
45 0 0
39 0 0
42 0 0
42 0 0
40 0 0
38 0 0
48 0 0
44 0 0
46 0 0
41 0 0
35 0 0
39 0 0
38 0 0
38 0 0
47 0 0
41 0 0
44 0 0
49 0 0
44 0 0
41 0 0
48 0 0
46 0 0
45 0 0
34 0 0
37 0 0
39 0 0
42 0 0
39 0 0
32 0 0
44 0 0
38 0 0
46 0 0
50 0 0
35 0 0
41 0 0
41 0 0
45 0 0
43 0 0
36 0 0
32 0 0
47 0 0
51 0 0
35 0 0
40 0 0
36 0 0
32 0 0
32 0 0
36 0 0
45 0 0
44 0 0
54 0 0
41 0 0
41 0 0
42 0 0
32 0 0
39 0 0
41 0 0
39 0 0
34 0 0
38 0 0
39 0 0
48 0 0
40 0 0
45 0 0
38 0 0
38 0 0
45 0 0
40 0 0
44 0 0
38 0 0
39 0 0
35 0 0
41 0 0
37 0 0
45 0 0
47 0 0
39 0 0
50 0 0
43 0 0
29 0 0
32 0 0
49 0 0
36 0 0
36 0 0
37 0 0
36 0 0
39 0 0
36 0 0
44 0 0
37 0 0
37 0 0
33 0 0
111 108 133
178 209 255
178 209 255
178 209 255
178 209 255
178 209 255
178 209 255
109 127 181
17 20 72
0 0 57
0 0 74
0 0 58
0 0 52
0 0 60
0 0 55
0 0 59
0 0 39
0 0 53
0 0 59
0 0 63
0 0 66
0 0 61
0 0 52
0 0 61
0 0 58
0 0 52
0 0 53
0 0 51
0 0 57
0 0 59
0 0 53
0 0 57
0 0 62
0 0 58
0 0 53
0 0 73
0 0 61
0 0 50
0 0 62
0 0 58
0 0 56
0 0 56
0 0 63
0 0 64
0 0 59
0 0 67
0 0 63
0 0 45
0 0 60
0 0 61
0 0 55
0 0 50
0 0 60
0 0 61
0 0 68
0 0 52
0 0 53
0 0 50
0 0 44
0 0 59
0 0 57
0 0 59
0 0 48
0 0 54
0 0 61
0 0 53
0 0 70
0 0 43
0 0 53
0 0 48
0 0 56
0 0 56
0 0 63
0 0 50
0 0 50
0 0 65
0 0 52
0 0 53
0 0 49
0 0 69
0 0 41
0 0 43
0 0 56
0 0 68
0 0 55
0 0 50
0 0 60
0 0 63
0 0 58
0 0 60
0 0 61
0 0 61
0 0 59
0 0 52
0 0 45
0 0 58
0 0 56
0 0 57
0 0 55
0 0 47
0 0 57
0 0 53
0 0 51
0 0 54
0 0 60
0 0 60
0 0 49
0 0 49
0 0 51
0 0 61
0 0 44
0 0 44
0 0 59
0 0 49
0 0 53
0 0 53
0 0 47
0 0 58
0 0 64
0 0 51
0 0 58
0 0 65
0 0 51
0 0 44
0 0 75
0 0 48
0 0 61
0 0 50
0 0 60
0 0 67
0 0 60
0 0 65
0 0 53
0 0 62
0 0 48
0 0 53
0 0 49
0 0 51
0 0 56
0 0 53
0 0 58
0 0 54
0 0 43
0 0 60
34 50 55
39 59 61
46 65 73
30 48 48
35 52 55
30 47 46
34 55 54
35 53 58
31 47 49
42 62 68
28 45 46
35 51 58
36 55 57
34 54 54
43 60 68
31 48 51
41 66 64
42 56 64
42 64 66
36 53 57
30 51 48
29 45 48
36 55 56
41 56 64
36 49 56
34 46 52
35 53 56
39 50 61
40 57 64
36 47 54
34 51 52
40 60 65
37 56 59
39 55 61
39 55 64
36 51 55
36 54 55
30 46 48
41 57 64
54 75 84
36 54 57
31 41 47
38 55 60
35 52 55
32 50 51
36 52 58
38 53 61
37 54 60
39 54 61
31 45 48
37 51 57
33 49 52
33 48 50
34 49 54
35 55 57
38 52 58
37 52 60
32 49 51
33 49 52
36 51 57
36 51 53
31 41 48
33 49 51
29 44 45
40 57 66
41 60 64
40 55 63
37 50 56
30 43 47
32 50 50
41 60 65
29 44 45
33 44 48
32 42 47
36 49 55
30 43 49
32 49 49
34 47 53
35 50 54
33 50 48
29 43 45
39 54 64
26 34 38
28 36 38
33 45 48
33 44 48
36 44 52
37 49 56
44 59 69
35 48 53
37 46 55
32 45 50
30 42 48
43 53 64
35 49 56
33 44 49
32 45 50
34 44 50
40 50 60
36 48 55
34 45 52
34 46 51
42 56 66
34 50 51
32 40 46
33 43 50
32 47 50
36 48 53
36 45 52
41 51 60
30 41 47
39 50 61
38 51 61
37 44 54
37 50 58
30 38 46
40 51 61
38 48 60
41 53 63
34 44 54
34 39 46
34 42 54
35 48 57
39 47 57
38 43 55
37 43 53
35 38 48
40 48 60
38 45 56
32 38 46
35 42 53
38 45 55
35 42 53
34 40 50
35 40 48
35 38 48
39 44 54
77 89 109
164 191 232
179 210 255
179 209 255
179 209 255
101 96 117
33 0 0
36 0 0
39 0 0
32 0 0
36 0 0
33 0 0
38 0 0
32 0 0
44 0 0
42 0 0
49 0 0
37 0 0
56 0 0
43 0 0
33 0 0
38 0 0
45 0 0
47 0 0
34 0 0
48 0 0
44 0 0
46 0 0
35 0 0
36 0 0
41 0 0
44 0 0
43 0 0
39 0 0
43 0 0
43 0 0
36 0 0
46 0 0
39 0 0
47 0 0
44 0 0
40 0 0
44 0 0
50 0 0
40 0 0
49 0 0
37 0 0
42 0 0
41 0 0
41 0 0
43 0 0
41 0 0
38 0 0
41 0 0
41 0 0
48 0 0
40 0 0
38 0 0
39 0 0
39 0 0
47 0 0
41 0 0
36 0 0
45 0 0
39 0 0
38 0 0
37 0 0
42 0 0
43 0 0
36 0 0
38 0 0
31 0 0
30 0 0
34 0 0
43 0 0
40 0 0
35 0 0
49 0 0
34 0 0
37 0 0
44 0 0
39 0 0
35 0 0
32 0 0
37 0 0
41 0 0
48 0 0
45 0 0
44 0 0
48 0 0
41 0 0
36 0 0
37 0 0
46 0 0
35 0 0
38 0 0
40 0 0
39 0 0
41 0 0
41 0 0
34 0 0
44 0 0
39 0 0
40 0 0
43 0 0
43 0 0
38 0 0
37 0 0
37 0 0
40 0 0
38 0 0
42 0 0
36 0 0
30 0 0
31 0 0
38 0 0
41 0 0
35 0 0
42 0 0
36 0 0
114 113 138
179 209 255
179 209 255
179 210 255
163 191 238
52 60 106
0 0 59
0 0 46
0 0 69
0 0 69
0 0 60
0 0 61
0 0 54
0 0 55
0 0 59
0 0 54
0 0 45
0 0 47
0 0 51
0 0 49
0 0 50
0 0 52
0 0 58
0 0 52
0 0 60
0 0 55
0 0 61
0 0 57
0 0 53
0 0 46
0 0 57
0 0 53
0 0 48
0 0 58
0 0 42
0 0 44
0 0 46
0 0 67
0 0 62
0 0 51
0 0 51
0 0 60
0 0 60
0 0 56
0 0 60
0 0 72
0 0 56
0 0 53
0 0 63
0 0 53
0 0 46
0 0 65
0 0 50
0 0 63
0 0 52
0 0 44
0 0 39
0 0 56
0 0 52
0 0 51
0 0 58
0 0 57
0 0 54
0 0 42
0 0 51
0 0 56
0 0 57
0 0 61
0 0 59
0 0 49
0 0 58
0 0 53
0 0 43
0 0 59
0 0 54
0 0 55
0 0 66
0 0 56
0 0 50
0 0 56
0 0 52
0 0 57
0 0 50
0 0 39
0 0 62
0 0 47
0 0 59
0 0 48
0 0 55
0 0 59
0 0 49
0 0 54
0 0 50
0 0 52
0 0 46
0 0 52
0 0 55
0 0 69
0 0 52
0 0 44
0 0 49
0 0 50
0 0 53
0 0 54
0 0 48
0 0 45
0 0 54
0 0 61
0 0 43
0 0 47
0 0 52
0 0 57
0 0 40
0 0 57
0 0 52
0 0 59
0 0 56
0 0 46
0 0 41
0 0 66
0 0 62
0 0 67
0 0 69
0 0 47
0 0 42
0 0 64
0 0 47
0 0 64
0 0 59
0 0 59
0 0 60
0 0 45
0 0 50
0 0 52
0 0 60
0 0 46
0 0 58
0 0 54
0 0 65
0 0 50
0 0 60
0 0 54
0 0 58
23 44 38
33 54 52
45 61 73
36 57 57
33 50 54
37 51 56
35 50 55
41 54 63
38 55 62
35 51 55
31 47 49
30 50 48
39 58 62
36 54 58
31 47 49
35 55 56
32 49 49
39 59 62
38 54 58
34 52 54
37 55 56
34 50 52
35 52 55
33 51 52
44 60 66
35 50 54
34 52 53
38 55 59
37 52 57
30 43 45
32 49 51
42 60 66
44 59 70
46 64 70
38 58 64
40 58 65
36 53 57
38 55 62
31 47 49
36 53 56
32 46 52
37 54 60
44 62 71
36 54 57
39 56 60
37 49 58
38 50 55
37 52 58
34 53 56
30 49 47
38 53 61
29 44 46
32 49 52
42 57 64
30 44 48
40 55 64
36 53 57
24 39 39
37 50 58
36 51 57
32 49 53
33 51 53
34 50 55
41 59 64
30 46 48
33 50 53
35 47 52
35 51 56
42 54 64
28 39 45
42 57 66
34 47 52
31 42 47
34 47 52
37 50 56
28 50 47
27 36 41
39 57 62
36 48 56
37 53 52
38 48 57
35 50 53
32 45 48
33 46 52
27 39 42
39 51 59
26 40 40
33 43 48
35 48 52
36 50 58
34 47 54
37 51 55
34 51 50
29 44 45
37 51 57
40 50 59
30 42 46
40 56 63
37 45 53
44 58 67
38 55 58
37 50 57
42 53 65
32 44 50
36 46 52
35 42 53
31 46 50
35 49 54
36 47 55
38 49 60
34 41 47
33 42 49
40 47 59
32 38 44
32 49 50
42 50 61
35 42 54
32 38 45
33 42 49
35 45 54
35 46 54
38 43 52
38 48 59
34 35 41
42 47 62
35 45 53
31 34 42
30 38 46
34 37 46
37 44 56
31 32 41
33 39 48
30 34 44
46 48 60
42 50 65
37 43 54
37 43 54
39 48 59
47 54 63
143 166 203
179 210 255
123 126 153
42 0 0
40 0 0
40 0 0
41 0 0
45 0 0
37 0 0
34 0 0
49 0 0
43 0 0
36 0 0
46 0 0
39 0 0
42 0 0
44 0 0
37 0 0
35 0 0
38 0 0
44 0 0
49 0 0
39 0 0
44 0 0
44 0 0
39 0 0
43 0 0
38 0 0
43 0 0
36 0 0
37 0 0
48 0 0
48 0 0
32 0 0
46 0 0
39 0 0
44 0 0
42 0 0
41 0 0
34 0 0
47 0 0
44 0 0
38 0 0
41 0 0
43 0 0
40 0 0
37 0 0
40 0 0
39 0 0
37 0 0
48 0 0
42 0 0
45 0 0
41 0 0
40 0 0
32 0 0
25 0 0
38 0 0
49 0 0
40 0 0
40 0 0
40 0 0
40 0 0
41 0 0
33 0 0
36 0 0
43 0 0
33 0 0
46 0 0
44 0 0
40 0 0
32 0 0
36 0 0
37 0 0
38 0 0
42 0 0
44 0 0
39 0 0
50 0 0
38 0 0
31 0 0
45 0 0
37 0 0
30 0 0
43 0 0
38 0 0
48 0 0
38 0 0
46 0 0
35 0 0
50 0 0
34 0 0
35 0 0
33 0 0
39 0 0
39 0 0
47 0 0
41 0 0
39 0 0
46 0 0
40 0 0
34 0 0
41 0 0
40 0 0
42 0 0
50 0 0
37 0 0
36 0 0
39 0 0
34 0 0
41 0 0
43 0 0
35 0 0
37 0 0
45 0 0
42 0 0
41 0 0
37 0 0
40 0 0
126 136 166
179 210 255
125 147 200
7 8 84
0 0 61
0 0 48
0 0 45
0 0 42
0 0 49
0 0 60
0 0 44
0 0 45
0 0 47
0 0 48
0 0 37
0 0 45
0 0 46
0 0 56
0 0 55
0 0 51
0 0 51
0 0 64
0 0 53
0 0 49
0 0 50
0 0 50
0 0 53
0 0 49
0 0 49
0 0 53
0 0 48
0 0 40
0 0 58
0 0 59
0 0 53
0 0 46
0 0 43
0 0 56
0 0 57
0 0 48
0 0 70
0 0 59
0 0 52
0 0 59
0 0 62
0 0 56
0 0 44
0 0 74
0 0 55
0 0 49
0 0 39
0 0 53
0 0 61
0 0 49
0 0 55
0 0 44
0 0 43
0 0 47
0 0 48
0 0 59
0 0 48
0 0 39
0 0 42
0 0 46
0 0 59
0 0 44
0 0 41
0 0 56
0 0 49
0 0 46
0 0 38
0 0 51
0 0 56
0 0 59
0 0 48
0 0 48
0 0 46
0 0 57
0 0 61
0 0 62
0 0 52
0 0 53
0 0 47
0 0 47
0 0 51
0 0 55
0 0 53
0 0 56
0 0 59
0 0 51
0 0 57
0 0 51
0 0 49
0 0 49
0 0 52
0 0 45
0 0 57
0 0 69
0 0 62
0 0 44
0 0 47
0 0 51
0 0 51
0 0 48
0 0 64
0 0 59
0 0 58
0 0 59
0 0 56
0 0 51
0 0 51
0 0 44
0 0 56
0 0 46
0 0 72
0 0 47
0 0 60
0 0 53
0 0 56
0 0 45
0 0 65
0 0 53
0 0 50
0 0 66
0 0 55
0 0 53
0 0 56
0 0 55
0 0 47
0 0 49
0 0 57
0 0 55
0 0 72
0 0 49
0 0 57
0 0 62
0 0 68
0 0 43
0 0 45
0 0 51
0 0 60
0 0 55
38 55 59
34 52 55
28 46 44
38 56 59
46 65 71
37 54 58
31 50 52
34 49 56
32 52 50
36 54 57
36 52 57
36 51 56
37 51 57
34 54 55
29 47 44
41 62 66
36 51 56
38 56 63
33 51 52
42 61 65
30 51 46
33 50 53
29 43 43
31 51 49
29 46 46
30 47 46
35 50 56
24 38 35
41 58 64
31 46 47
31 49 50
37 54 59
40 57 61
29 49 45
38 53 61
35 49 55
34 51 55
33 51 54
31 48 48
33 46 49
28 44 46
44 59 68
39 57 64
32 46 50
29 49 48
31 42 47
37 52 60
32 47 50
40 56 63
28 42 43
37 54 56
36 52 57
38 54 58
32 48 51
32 49 53
43 57 65
35 55 54
34 52 55
30 49 46
35 48 54
35 51 54
37 50 58
36 53 58
28 42 44
36 51 58
39 54 65
34 48 53
35 49 55
35 48 53
38 51 60
36 47 53
30 45 47
29 45 46
33 43 52
28 42 44
34 45 50
32 43 49
31 45 49
37 54 61
29 44 47
31 45 49
36 45 52
30 42 44
38 57 57
39 54 59
39 51 60
37 53 55
31 37 44
32 45 49
35 49 54
31 44 47
35 45 53
41 55 63
37 50 58
38 47 53
37 50 54
35 49 55
28 40 40
36 49 57
33 43 47
28 39 43
34 44 50
33 42 46
33 43 48
26 38 40
27 40 41
35 47 57
30 37 42
32 44 51
27 38 39
37 47 53
34 43 49
33 41 52
36 46 52
34 45 51
40 53 64
29 38 45
32 41 49
39 48 60
29 37 42
33 43 49
29 34 40
29 32 37
41 46 58
28 29 34
26 31 31
35 43 51
31 36 42
31 34 44
41 46 58
43 49 57
36 43 54
30 36 46
43 46 59
39 45 59
40 44 57
43 51 64
32 35 46
37 44 55
45 49 63
93 93 111
43 2 2
36 0 0
39 0 0
46 0 0
45 0 0
44 0 0
33 0 0
44 0 0
29 0 0
49 0 0
43 0 0
39 0 0
34 0 0
38 0 0
45 0 0
51 0 0
40 0 0
40 0 0
39 0 0
35 0 0
36 0 0
48 0 0
36 0 0
34 0 0
28 0 0
44 0 0
35 0 0
37 0 0
36 0 0
40 0 0
32 0 0
47 0 0
51 0 0
50 0 0
38 0 0
46 0 0
42 0 0
40 0 0
41 0 0
45 0 0
33 0 0
38 0 0
39 0 0
44 0 0
34 0 0
38 0 0
37 0 0
37 0 0
44 0 0
38 0 0
40 0 0
50 0 0
45 0 0
35 0 0
42 0 0
34 0 0
38 0 0
36 0 0
33 0 0
36 0 0
34 0 0
32 0 0
27 0 0
32 0 0
46 0 0
38 0 0
43 0 0
41 0 0
39 0 0
37 0 0
36 0 0
46 0 0
39 0 0
48 0 0
41 0 0
40 0 0
44 0 0
36 0 0
38 0 0
38 0 0
47 0 0
41 0 0
42 0 0
40 0 0
44 0 0
48 0 0
43 0 0
42 0 0
34 0 0
35 0 0
39 0 0
48 0 0
32 0 0
39 0 0
46 0 0
44 0 0
36 0 0
38 0 0
40 0 0
44 0 0
36 0 0
44 0 0
52 0 0
35 0 0
39 0 0
37 0 0
34 0 0
40 0 0
42 0 0
38 0 0
38 0 0
35 0 0
39 0 0
39 0 0
31 0 0
38 0 0
35 0 0
31 0 0
86 92 123
0 0 52
0 0 49
0 0 52
0 0 45
0 0 42
0 0 59
0 0 52
0 0 52
0 0 56
0 0 32
0 0 49
0 0 52
0 0 65
0 0 53
0 0 57
0 0 53
0 0 53
0 0 41
0 0 45
0 0 51
0 0 53
0 0 53
0 0 62
0 0 65
0 0 55
0 0 42
0 0 39
0 0 53
0 0 47
0 0 57
0 0 44
0 0 50
0 0 41
0 0 53
0 0 36
0 0 58
0 0 42
0 0 58
0 0 64
0 0 56
0 0 33
0 0 53
0 0 49
0 0 55
0 0 53
0 0 49
0 0 44
0 0 71
0 0 50
0 0 60
0 0 53
0 0 50
0 0 55
0 0 52
0 0 57
0 0 49
0 0 39
0 0 48
0 0 57
0 0 66
0 0 68
0 0 41
0 0 48
0 0 62
0 0 45
0 0 47
0 0 49
0 0 54
0 0 57
0 0 43
0 0 49
0 0 41
0 0 60
0 0 56
0 0 45
0 0 48
0 0 48
0 0 39
0 0 47
0 0 47
0 0 47
0 0 59
0 0 35
0 0 48
0 0 48
0 0 45
0 0 51
0 0 57
0 0 49
0 0 52
0 0 50
0 0 45
0 0 51
0 0 62
0 0 42
0 0 55
0 0 49
0 0 53
0 0 56
0 0 62
0 0 60
0 0 45
0 0 51
0 0 46
0 0 58
0 0 58
0 0 54
0 0 65
0 0 48
0 0 48
0 0 57
0 0 51
0 0 56
0 0 59
0 0 46
0 0 43
0 0 42
0 0 43
0 0 47
0 0 51
0 0 63
0 0 54
0 0 46
0 0 53
0 0 41
0 0 50
0 0 53
0 0 63
0 0 52
0 0 61
0 0 56
0 0 57
0 0 50
0 0 54
0 0 42
0 0 57
0 0 50
0 0 58
0 0 62
0 0 53
38 56 59
39 56 62
41 60 65
29 47 45
32 50 50
38 53 60
37 52 58
27 49 43
26 41 41
33 49 54
37 53 57
32 52 52
40 63 63
38 55 60
34 53 55
34 51 53
32 50 50
31 49 48
38 57 60
38 54 62
39 56 64
34 56 53
28 45 45
29 45 45
34 53 54
30 46 46
37 56 58
32 48 48
38 53 62
42 59 66
30 50 49
31 47 49
37 55 56
37 54 59
35 50 53
25 40 40
32 49 52
30 47 48
29 44 47
34 49 53
35 47 52
27 44 43
36 53 60
38 53 60
30 47 47
34 49 52
27 44 45
39 56 61
27 44 44
44 62 72
32 48 50
29 44 45
34 49 55
32 47 51
36 48 53
34 52 52
36 49 58
36 50 58
38 49 57
35 50 53
38 47 58
31 45 49
37 50 58
24 37 37
30 51 48
38 50 60
32 43 48
35 46 54
38 54 59
34 48 52
36 51 57
25 36 37
38 52 61
32 44 52
36 48 55
28 43 43
35 49 52
34 48 52
38 49 56
31 43 44
35 48 55
29 43 43
31 40 45
37 48 57
34 45 51
43 60 67
31 45 48
32 45 49
34 48 52
32 45 49
32 44 47
39 51 57
28 40 43
34 47 52
40 56 62
44 54 67
28 45 46
36 45 52
38 51 63
37 48 57
38 49 59
31 42 50
34 47 51
32 43 51
33 42 49
35 48 55
30 37 45
32 42 47
29 38 42
33 40 48
32 40 46
38 51 59
37 48 56
31 41 44
33 37 44
39 46 53
30 38 45
31 36 43
34 43 50
28 38 41
36 47 56
30 34 42
29 39 42
34 42 48
34 42 52
32 41 48
32 37 47
38 44 54
27 35 40
30 38 47
31 37 46
32 35 45
38 46 58
37 43 51
40 47 61
35 40 51
32 34 44
41 50 63
30 33 42
42 39 50
39 6 9
38 0 0
38 0 0
33 0 0
38 0 0
35 0 0
40 0 0
38 0 0
44 0 0
30 0 0
41 0 0
35 0 0
41 0 0
39 0 0
36 0 0
47 0 0
43 0 0
46 0 0
44 0 0
47 0 0
42 0 0
47 0 0
28 0 0
42 0 0
40 0 0
33 0 0
34 0 0
47 0 0
36 0 0
44 0 0
38 0 0
42 0 0
49 0 0
40 0 0
39 0 0
38 0 0
32 0 0
43 0 0
38 0 0
44 0 0
37 0 0
41 0 0
36 0 0
38 0 0
39 0 0
39 0 0
34 0 0
40 0 0
43 0 0
29 0 0
42 0 0
44 0 0
41 0 0
33 0 0
44 0 0
41 0 0
41 0 0
33 0 0
37 0 0
39 0 0
43 0 0
39 0 0
37 0 0
36 0 0
40 0 0
39 0 0
40 0 0
41 0 0
44 0 0
41 0 0
39 0 0
34 0 0
37 0 0
43 0 0
43 0 0
34 0 0
44 0 0
36 0 0
36 0 0
39 0 0
41 0 0
51 0 0
37 0 0
35 0 0
47 0 0
33 0 0
40 0 0
36 0 0
42 0 0
38 0 0
41 0 0
40 0 0
41 0 0
44 0 0
37 0 0
38 0 0
47 0 0
38 0 0
39 0 0
42 0 0
45 0 0
40 0 0
34 0 0
35 0 0
38 0 0
32 0 0
32 0 0
39 0 0
38 0 0
42 0 0
43 0 0
41 0 0
46 0 0
39 0 0
38 0 0
37 0 0
34 0 0
42 0 0
37 0 0
36 0 4
2 0 43
0 0 55
0 0 59
0 0 44
0 0 46
0 0 41
0 0 60
0 0 51
0 0 45
0 0 46
0 0 40
0 0 45
0 0 57
0 0 34
0 0 44
0 0 64
0 0 50
0 0 60
0 0 30
0 0 44
0 0 46
0 0 53
0 0 55
0 0 55
0 0 57
0 0 51
0 0 34
0 0 54
0 0 56
0 0 59
0 0 46
0 0 62
0 0 45
0 0 43
0 0 49
0 0 50
0 0 45
0 0 52
0 0 63
0 0 61
0 0 53
0 0 59
0 0 56
0 0 55
0 0 53
0 0 48
0 0 59
0 0 58
0 0 49
0 0 46
0 0 53
0 0 53
0 0 61
0 0 39
0 0 61
0 0 41
0 0 51
0 0 53
0 0 54
0 0 39
0 0 53
0 0 54
0 0 41
0 0 41
0 0 54
0 0 50
0 0 44
0 0 54
0 0 52
0 0 65
0 0 44
0 0 49
0 0 56
0 0 51
0 0 62
0 0 52
0 0 55
0 0 51
0 0 56
0 0 44
0 0 54
0 0 56
0 0 56
0 0 55
0 0 61
0 0 59
0 0 50
0 0 55
0 0 44
0 0 52
0 0 50
0 0 57
0 0 51
0 0 50
0 0 49
0 0 43
0 0 54
0 0 52
0 0 52
0 0 58
0 0 62
0 0 55
0 0 47
0 0 46
0 0 66
0 0 53
0 0 47
0 0 49
0 0 58
0 0 57
0 0 45
0 0 55
0 0 61
0 0 49
0 0 62
0 0 63
0 0 66
0 0 49
0 0 54
0 0 66
0 0 55
0 0 47
0 0 57
0 0 61
0 0 51
0 0 64
0 0 50
0 0 45
0 0 49
0 0 62
0 0 67
0 0 58
0 0 45
0 0 56
0 0 60
0 0 49
0 0 52
0 0 61
0 0 46
0 0 61
35 56 56
34 54 53
41 60 62
33 54 53
35 51 55
36 57 59
38 56 63
32 55 51
36 57 60
28 44 45
36 59 58
35 54 55
33 52 53
35 51 58
31 49 50
29 45 48
29 50 45
32 51 51
38 58 60
31 48 48
32 52 50
34 49 53
37 53 60
33 49 52
32 52 53
28 46 46
41 60 67
31 48 49
35 54 56
32 49 51
38 55 59
41 63 64
31 50 46
30 43 48
36 55 60
41 59 66
29 47 48
40 60 64
38 56 62
37 58 59
31 50 50
41 59 65
34 55 54
28 44 44
35 47 55
33 49 51
35 51 56
30 44 46
37 51 57
34 49 52
38 54 61
33 50 50
38 51 57
29 45 47
34 46 52
33 50 50
39 53 58
40 58 60
34 49 53
33 49 54
36 50 56
34 50 53
31 43 47
39 55 61
30 44 48
30 46 46
27 45 44
33 43 47
27 37 42
29 45 48
36 49 53
32 46 50
29 43 48
31 44 46
35 47 54
39 55 58
32 51 49
34 50 54
31 47 50
32 44 45
39 52 61
34 44 51
33 47 49
38 48 58
34 45 52
32 44 51
36 48 55
30 43 43
31 44 46
32 46 48
33 49 52
38 51 60
39 51 59
37 56 57
30 41 45
34 46 52
38 50 57
38 47 51
33 43 51
35 43 50
37 51 55
35 42 52
33 44 50
27 40 38
41 52 63
24 38 35
32 43 49
38 51 60
29 40 44
35 46 55
30 40 45
37 41 48
27 34 38
35 44 53
34 40 49
23 28 32
41 47 56
38 48 55
33 45 51
39 46 56
30 39 46
38 47 58
33 42 50
31 38 44
28 34 40
28 32 40
36 40 50
30 34 41
33 38 46
35 38 48
30 32 37
37 41 50
29 35 42
37 40 50
32 37 47
30 34 41
28 31 38
32 37 44
31 36 46
33 13 18
40 0 0
33 0 0
46 0 0
35 0 0
44 0 0
43 0 0
33 0 0
39 0 0
40 0 0
41 0 0
36 0 0
36 0 0
37 0 0
43 0 0
44 0 0
41 0 0
40 0 0
41 0 0
43 0 0
41 0 0
36 0 0
35 0 0
37 0 0
45 0 0
46 0 0
31 0 0
37 0 0
41 0 0
43 0 0
45 0 0
43 0 0
38 0 0
37 0 0
37 0 0
47 0 0
39 0 0
41 0 0
44 0 0
39 0 0
41 0 0
36 0 0
35 0 0
36 0 0
41 0 0
29 0 0
39 0 0
43 0 0
35 0 0
30 0 0
40 0 0
36 0 0
35 0 0
38 0 0
43 0 0
41 0 0
36 0 0
38 0 0
39 0 0
27 0 0
35 0 0
37 0 0
40 0 0
38 0 0
42 0 0
38 0 0
36 0 0
38 0 0
38 0 0
33 0 0
44 0 0
39 0 0
45 0 0
38 0 0
35 0 0
37 0 0
40 0 0
41 0 0
38 0 0
42 0 0
33 0 0
39 0 0
34 0 0
38 0 0
43 0 0
42 0 0
37 0 0
30 0 0
41 0 0
37 0 0
50 0 0
38 0 0
41 0 0
44 0 0
47 0 0
43 0 0
40 0 0
39 0 0
40 0 0
36 0 0
33 0 0
45 0 0
42 0 0
31 0 0
34 0 0
35 0 0
46 0 0
41 0 0
35 0 0
41 0 0
43 0 0
41 0 0
49 0 0
32 0 0
35 0 0
30 0 0
38 0 0
40 0 0
37 0 0
40 0 0
30 0 0
28 0 22
0 0 50
0 0 51
0 0 43
0 0 48
0 0 45
0 0 38
0 0 37
0 0 44
0 0 50
0 0 49
0 0 50
0 0 35
0 0 53
0 0 53
0 0 46
0 0 40
0 0 55
0 0 52
0 0 46
0 0 56
0 0 41
0 0 49
0 0 45
0 0 41
0 0 46
0 0 48
0 0 60
0 0 53
0 0 42
0 0 56
0 0 39
0 0 45
0 0 58
0 0 39
0 0 63
0 0 57
0 0 48
0 0 61
0 0 57
0 0 45
0 0 58
0 0 54
0 0 55
0 0 63
0 0 49
0 0 36
0 0 67
0 0 46
0 0 52
0 0 48
0 0 50
0 0 53
0 0 42
0 0 58
0 0 39
0 0 41
0 0 40
0 0 37
0 0 35
0 0 51
0 0 54
0 0 49
0 0 54
0 0 61
0 0 62
0 0 53
0 0 46
0 0 43
0 0 41
0 0 50
0 0 42
0 0 33
0 0 46
0 0 46
0 0 37
0 0 57
0 0 63
0 0 53
0 0 58
0 0 51
0 0 41
0 0 56
0 0 64
0 0 50
0 0 46
0 0 49
0 0 51
0 0 54
0 0 45
0 0 45
0 0 42
0 0 55
0 0 60
0 0 59
0 0 60
0 0 49
0 0 53
0 0 55
0 0 45
0 0 54
0 0 55
0 0 59
0 0 50
0 0 47
0 0 58
0 0 55
0 0 46
0 0 57
0 0 47
0 0 50
0 0 46
0 0 55
0 0 67
0 0 59
0 0 60
0 0 46
0 0 60
0 0 57
0 0 54
0 0 49
0 0 55
0 0 52
0 0 68
0 0 55
0 0 44
0 0 54
0 0 57
0 0 54
0 0 57
0 0 57
0 0 41
0 0 52
0 0 40
0 0 55
0 0 56
0 0 49
0 0 45
0 0 54
0 0 58
32 51 52
28 45 46
34 50 53
28 45 46
33 47 50
38 54 61
33 52 52
33 48 53
35 52 56
36 53 56
33 49 54
40 56 63
40 58 63
25 45 37
36 56 58
27 46 43
27 44 44
33 47 51
35 52 55
31 51 51
39 52 61
36 52 55
34 49 52
38 57 59
29 45 45
36 54 57
37 55 58
36 54 56
33 50 51
33 49 53
37 57 57
31 46 47
36 55 59
32 50 53
27 41 42
28 41 43
27 42 42
32 50 51
32 48 50
36 53 56
34 49 53
29 42 44
37 52 57
42 56 66
35 56 55
39 55 59
31 47 50
31 46 47
25 41 37
36 50 56
33 51 52
35 50 54
29 47 47
31 44 48
43 60 66
29 44 47
33 47 52
31 50 47
31 46 51
38 51 58
32 44 51
33 48 49
24 39 37
37 51 57
31 52 50
30 44 48
29 45 45
31 49 52
28 39 43
31 46 49
30 47 47
35 45 53
31 48 48
31 47 53
29 42 47
32 41 47
31 46 47
36 47 56
44 57 69
39 56 60
34 46 50
31 43 47
34 44 48
33 43 49
29 38 43
31 43 46
26 39 39
26 39 38
41 50 57
31 44 50
30 46 47
34 48 55
46 56 69
40 55 63
33 43 47
32 46 47
28 39 41
36 51 55
33 44 48
31 38 46
33 46 50
31 41 46
28 39 46
26 34 39
36 47 51
30 42 48
29 38 44
27 42 43
23 30 34
33 43 51
37 47 58
32 41 48
28 38 42
35 43 52
30 41 43
20 26 28
35 43 51
31 39 48
35 43 50
27 35 37
30 38 44
25 33 36
39 49 59
30 36 42
22 29 29
33 38 46
30 40 47
29 34 45
28 33 41
24 25 31
25 29 35
28 30 38
35 38 48
31 32 42
27 29 37
31 32 41
33 39 49
25 28 32
32 24 28
34 0 0
41 0 0
38 0 0
30 0 0
36 0 0
41 0 0
35 0 0
39 0 0
39 0 0
36 0 0
33 0 0
35 0 0
46 0 0
42 0 0
41 0 0
46 0 0
36 0 0
34 0 0
37 0 0
44 0 0
38 0 0
33 0 0
37 0 0
42 0 0
42 0 0
35 0 0
37 0 0
37 0 0
35 0 0
35 0 0
38 0 0
40 0 0
37 0 0
43 0 0
35 0 0
35 0 0
42 0 0
38 0 0
34 0 0
32 0 0
41 0 0
38 0 0
36 0 0
41 0 0
39 0 0
30 0 0
35 0 0
39 0 0
33 0 0
31 0 0
40 0 0
40 0 0
38 0 0
50 0 0
35 0 0
37 0 0
41 0 0
43 0 0
34 0 0
38 0 0
34 0 0
48 0 0
33 0 0
35 0 0
40 0 0
38 0 0
31 0 0
40 0 0
34 0 0
37 0 0
44 0 0
36 0 0
47 0 0
36 0 0
34 0 0
33 0 0
38 0 0
40 0 0
41 0 0
41 0 0
36 0 0
32 0 0
42 0 0
33 0 0
35 0 0
39 0 0
35 0 0
42 0 0
29 0 0
37 0 0
45 0 0
36 0 0
35 0 0
48 0 0
43 0 0
42 0 0
37 0 0
35 0 0
39 0 0
32 0 0
38 0 0
38 0 0
36 0 0
41 0 0
40 0 0
36 0 0
40 0 0
35 0 0
32 0 0
28 0 0
38 0 0
39 0 0
44 0 0
32 0 0
41 0 0
42 0 0
36 0 0
41 0 0
30 0 0
34 0 0
37 0 0
27 0 0
14 0 35
0 0 35
0 0 44
0 0 44
0 0 55
0 0 32
0 0 38
0 0 50
0 0 41
0 0 43
0 0 35
0 0 37
0 0 38
0 0 42
0 0 38
0 0 49
0 0 36
0 0 38
0 0 48
0 0 55
0 0 52
0 0 49
0 0 37
0 0 48
0 0 37
0 0 42
0 0 39
0 0 46
0 0 52
0 0 43
0 0 51
0 0 50
0 0 45
0 0 51
0 0 52
0 0 36
0 0 42
0 0 50
0 0 40
0 0 43
0 0 43
0 0 46
0 0 56
0 0 64
0 0 58
0 0 40
0 0 50
0 0 60
0 0 51
0 0 58
0 0 52
0 0 51
0 0 39
0 0 47
0 0 46
0 0 44
0 0 46
0 0 51
0 0 42
0 0 52
0 0 55
0 0 40
0 0 43
0 0 49
0 0 46
0 0 51
0 0 52
0 0 46
0 0 44
0 0 43
0 0 53
0 0 44
0 0 54
0 0 50
0 0 46
0 0 45
0 0 53
0 0 43
0 0 42
0 0 48
0 0 40
0 0 49
0 0 44
0 0 54
0 0 48
0 0 49
0 0 43
0 0 55
0 0 52
0 0 52
0 0 55
0 0 58
0 0 48
0 0 45
0 0 57
0 0 44
0 0 58
0 0 38
0 0 49
0 0 55
0 0 58
0 0 54
0 0 54
0 0 60
0 0 49
0 0 38
0 0 61
0 0 42
0 0 55
0 0 43
0 0 65
0 0 60
0 0 48
0 0 56
0 0 37
0 0 45
0 0 60
0 0 47
0 0 58
0 0 54
0 0 59
0 0 47
0 0 51
0 0 50
0 0 56
0 0 54
0 0 59
0 0 52
0 0 55
0 0 54
0 0 59
0 0 54
0 0 54
0 0 60
0 0 41
0 0 59
0 0 38
0 0 53
0 0 58
31 49 48
26 46 41
35 53 58
30 52 47
28 43 44
29 45 47
37 56 59
40 59 64
37 54 57
39 59 60
31 50 48
30 47 50
32 49 51
42 63 67
34 50 54
35 51 53
38 53 58
44 61 64
27 48 44
32 49 49
41 57 65
30 48 47
39 60 63
32 51 50
34 49 53
35 51 55
38 48 54
29 44 45
40 55 62
40 58 61
39 58 60
30 53 52
24 41 38
31 44 49
33 50 53
30 48 46
31 51 50
26 46 43
34 50 55
31 48 48
30 50 45
39 56 62
32 44 48
25 42 38
28 47 44
30 43 47
29 48 47
29 44 46
32 49 51
36 50 57
33 51 51
32 52 53
32 51 51
29 42 43
34 52 54
34 49 53
28 42 43
33 45 50
29 46 44
35 50 53
29 43 45
32 53 53
39 56 60
39 53 59
32 45 48
32 48 52
32 49 53
27 40 40
32 46 49
37 52 55
33 45 54
30 47 46
26 41 41
27 45 44
33 45 50
32 47 51
37 54 58
30 50 47
37 51 59
25 40 37
33 45 52
25 38 40
31 42 46
32 46 49
38 54 59
32 51 53
29 44 46
35 50 55
35 50 54
22 37 35
33 46 52
23 36 36
36 47 55
26 43 40
35 49 55
35 45 54
29 45 43
37 49 55
34 50 52
26 40 37
24 31 34
33 41 48
31 41 44
30 40 45
27 39 40
39 49 57
25 37 37
25 33 36
31 35 39
31 40 47
37 47 58
31 39 43
28 39 45
30 39 44
30 36 40
34 40 45
35 45 51
38 46 56
28 33 38
34 39 44
31 38 42
24 32 35
35 38 44
30 36 43
24 27 32
31 37 42
31 35 43
25 26 31
26 30 35
25 29 34
42 50 64
20 24 26
37 41 48
31 33 41
32 40 50
35 39 50
28 31 40
28 31 40
45 3 3
32 0 0
42 0 0
35 0 0
48 0 0
42 0 0
42 0 0
45 0 0
43 0 0
37 0 0
39 0 0
43 0 0
39 0 0
41 0 0
33 0 0
37 0 0
35 0 0
37 0 0
38 0 0
37 0 0
36 0 0
40 0 0
38 0 0
39 0 0
42 0 0
30 0 0
47 0 0
38 0 0
35 0 0
35 0 0
46 0 0
34 0 0
36 0 0
38 0 0
35 0 0
38 0 0
31 0 0
40 0 0
28 0 0
43 0 0
39 0 0
34 0 0
40 0 0
33 0 0
39 0 0
43 0 0
36 0 0
41 0 0
39 0 0
39 0 0
45 0 0
36 0 0
41 0 0
38 0 0
32 0 0
37 0 0
38 0 0
37 0 0
39 0 0
41 0 0
41 0 0
33 0 0
36 0 0
38 0 0
40 0 0
34 0 0
27 0 0
39 0 0
45 0 0
47 0 0
41 0 0
40 0 0
31 0 0
43 0 0
38 0 0
31 0 0
35 0 0
38 0 0
41 0 0
38 0 0
37 0 0
34 0 0
41 0 0
35 0 0
37 0 0
37 0 0
43 0 0
36 0 0
50 0 0
41 0 0
38 0 0
38 0 0
38 0 0
37 0 0
35 0 0
39 0 0
39 0 0
47 0 0
40 0 0
41 0 0
31 0 0
40 0 0
31 0 0
36 0 0
33 0 0
36 0 0
32 0 0
40 0 0
36 0 0
31 0 0
30 0 0
39 0 0
40 0 0
32 0 0
35 0 0
35 0 0
25 0 0
34 0 0
29 0 0
32 0 0
28 0 0
34 0 0
32 0 0
34 0 7
1 0 31
0 0 34
0 0 44
0 0 46
0 0 48
0 0 39
0 0 41
0 0 46
0 0 39
0 0 38
0 0 51
0 0 38
0 0 34
0 0 46
0 0 51
0 0 38
0 0 49
0 0 42
0 0 46
0 0 47
0 0 47
0 0 35
0 0 46
0 0 43
0 0 40
0 0 56
0 0 41
0 0 45
0 0 50
0 0 50
0 0 43
0 0 52
0 0 47
0 0 44
0 0 45
0 0 59
0 0 49
0 0 47
0 0 55
0 0 54
0 0 40
0 0 36
0 0 40
0 0 46
0 0 70
0 0 51
0 0 53
0 0 37
0 0 54
0 0 51
0 0 46
0 0 53
0 0 47
0 0 51
0 0 42
0 0 49
0 0 48
0 0 49
0 0 43
0 0 36
0 0 50
0 0 54
0 0 58
0 0 46
0 0 43
0 0 57
0 0 40
0 0 54
0 0 45
0 0 49
0 0 53
0 0 59
0 0 55
0 0 58
0 0 46
0 0 42
0 0 47
0 0 42
0 0 52
0 0 54
0 0 49
0 0 56
0 0 41
0 0 46
0 0 47
0 0 55
0 0 51
0 0 65
0 0 44
0 0 47
0 0 48
0 0 41
0 0 64
0 0 46
0 0 52
0 0 50
0 0 58
0 0 49
0 0 49
0 0 50
0 0 50
0 0 59
0 0 55
0 0 46
0 0 50
0 0 52
0 0 59
0 0 54
0 0 51
0 0 63
0 0 63
0 0 59
0 0 55
0 0 37
0 0 54
0 0 51
0 0 44
0 0 48
0 0 40
0 0 49
0 0 51
0 0 53
0 0 41
0 0 54
0 0 47
0 0 52
0 0 50
0 0 38
0 0 61
0 0 55
0 0 45
0 0 54
0 0 49
0 0 38
0 0 47
0 0 54
0 0 51
0 0 44
38 57 58
40 61 67
28 43 44
32 48 50
26 42 42
39 56 63
31 47 48
23 37 37
33 54 54
31 51 49
25 43 41
36 55 57
36 51 56
41 59 66
39 58 63
32 49 50
42 60 67
28 46 46
34 54 56
32 49 50
32 50 52
35 54 54
31 47 49
28 43 43
30 45 47
32 50 49
37 54 59
30 42 46
36 54 57
37 50 57
36 52 57
34 47 51
36 50 59
26 40 42
39 56 61
24 38 37
27 46 45
31 47 50
34 55 54
34 47 52
41 61 64
31 48 49
36 51 57
33 45 51
25 48 40
33 49 50
33 51 52
35 51 53
31 49 49
24 42 37
32 52 50
32 46 52
33 49 51
25 38 41
33 49 50
26 40 41
27 44 42
42 54 62
39 59 63
26 42 41
33 47 50
41 56 64
36 51 56
35 47 53
41 55 62
38 51 60
34 48 53
26 44 41
30 44 47
30 45 50
33 47 52
35 50 55
36 50 57
39 55 61
22 38 35
21 33 30
23 35 34
33 43 48
35 47 50
42 58 66
31 44 48
30 47 46
34 46 52
30 43 46
31 48 49
36 49 53
31 49 50
23 32 32
39 56 60
27 39 40
32 47 52
34 47 53
25 39 39
31 45 46
27 41 41
36 47 55
34 48 52
23 37 36
29 44 43
34 48 54
39 51 60
36 53 55
32 41 47
34 46 52
28 40 44
35 47 53
29 39 43
31 40 44
25 30 32
25 33 32
31 39 47
28 36 43
31 42 48
29 41 42
28 36 41
29 35 42
26 35 39
37 45 53
33 44 49
27 36 38
35 43 53
28 37 42
23 27 30
21 23 27
26 32 36
33 40 51
25 30 35
27 35 38
28 30 33
23 30 36
28 32 40
25 26 29
30 30 40
29 36 44
25 30 37
27 27 34
26 30 36
36 22 27
34 0 0
32 0 0
39 0 0
37 0 0
39 0 0
32 0 0
34 0 0
39 0 0
41 0 0
36 0 0
40 0 0
42 0 0
32 0 0
38 0 0
41 0 0
37 0 0
35 0 0
38 0 0
38 0 0
41 0 0
41 0 0
38 0 0
38 0 0
35 0 0
42 0 0
41 0 0
36 0 0
35 0 0
39 0 0
39 0 0
33 0 0
31 0 0
34 0 0
41 0 0
36 0 0
43 0 0
38 0 0
45 0 0
39 0 0
35 0 0
40 0 0
37 0 0
32 0 0
36 0 0
33 0 0
41 0 0
35 0 0
37 0 0
38 0 0
38 0 0
32 0 0
37 0 0
38 0 0
34 0 0
44 0 0
42 0 0
30 0 0
37 0 0
32 0 0
36 0 0
38 0 0
33 0 0
39 0 0
32 0 0
38 0 0
36 0 0
35 0 0
37 0 0
38 0 0
33 0 0
33 0 0
32 0 0
39 0 0
49 0 0
43 0 0
47 0 0
41 0 0
37 0 0
32 0 0
43 0 0
39 0 0
34 0 0
40 0 0
30 0 0
35 0 0
38 0 0
49 0 0
43 0 0
35 0 0
40 0 0
36 0 0
39 0 0
34 0 0
36 0 0
39 0 0
32 0 0
35 0 0
36 0 0
36 0 0
34 0 0
40 0 0
39 0 0
40 0 0
38 0 0
38 0 0
40 0 0
29 0 0
37 0 0
40 0 0
33 0 0
34 0 0
42 0 0
31 0 0
41 0 0
33 0 0
32 0 0
34 0 0
36 0 0
33 0 0
34 0 0
32 0 0
36 0 0
25 0 0
25 0 0
14 0 10
0 0 38
0 0 33
0 0 31
0 0 46
0 0 51
0 0 31
0 0 35
0 0 35
0 0 39
0 0 34
0 0 38
0 0 37
0 0 38
0 0 38
0 0 36
0 0 39
0 0 41
0 0 30
0 0 41
0 0 43
0 0 37
0 0 48
0 0 36
0 0 47
0 0 43
0 0 59
0 0 49
0 0 48
0 0 47
0 0 54
0 0 47
0 0 43
0 0 50
0 0 61
0 0 50
0 0 38
0 0 46
0 0 45
0 0 42
0 0 53
0 0 52
0 0 43
0 0 41
0 0 48
0 0 52
0 0 39
0 0 49
0 0 49
0 0 52
0 0 50
0 0 48
0 0 42
0 0 54
0 0 48
0 0 34
0 0 48
0 0 40
0 0 51
0 0 41
0 0 45
0 0 44
0 0 37
0 0 61
0 0 45
0 0 45
0 0 45
0 0 61
0 0 43
0 0 41
0 0 50
0 0 53
0 0 48
0 0 45
0 0 41
0 0 58
0 0 58
0 0 52
0 0 61
0 0 56
0 0 44
0 0 40
0 0 38
0 0 54
0 0 55
0 0 42
0 0 46
0 0 53
0 0 39
0 0 47
0 0 44
0 0 51
0 0 50
0 0 44
0 0 40
0 0 57
0 0 52
0 0 58
0 0 46
0 0 57
0 0 47
0 0 48
0 0 44
0 0 35
0 0 56
0 0 66
0 0 44
0 0 46
0 0 47
0 0 52
0 0 52
0 0 51
0 0 52
0 0 55
0 0 62
0 0 59
0 0 54
0 0 39
0 0 48
0 0 54
0 0 61
0 0 65
0 0 50
0 0 44
0 0 50
0 0 55
0 0 48
0 0 57
0 0 58
0 0 56
0 0 48
0 0 52
0 0 50
0 0 46
0 0 52
0 0 51
0 0 54
0 0 41
37 55 58
28 50 46
29 45 46
35 49 56
31 49 49
43 62 68
35 52 54
28 48 45
29 45 47
32 49 50
35 52 55
35 59 56
35 51 53
39 60 64
32 49 51
34 54 55
26 41 41
31 46 49
38 54 60
36 51 58
27 47 44
30 47 48
36 58 54
33 52 53
39 57 60
32 43 49
29 48 45
30 48 47
31 50 48
29 46 44
35 54 54
29 49 49
27 42 42
31 49 49
25 39 41
35 51 53
26 42 41
37 54 58
33 52 52
28 46 44
34 49 53
33 53 51
22 35 30
24 39 39
36 54 56
34 54 58
28 45 45
41 58 64
32 48 50
38 53 58
33 49 51
33 50 51
37 50 59
24 41 40
32 50 48
28 46 43
33 48 52
24 37 36
34 47 51
38 55 59
36 52 57
39 53 62
32 50 50
31 44 48
24 36 36
28 43 44
37 53 54
32 49 48
27 45 44
27 43 43
34 47 52
31 46 47
37 50 56
34 46 54
27 37 41
34 48 54
31 45 48
32 44 48
28 44 47
32 46 48
33 47 53
33 49 53
34 46 50
32 45 48
31 46 49
27 40 40
28 42 45
29 44 46
37 48 56
30 40 45
32 44 50
37 47 53
20 31 32
28 40 42
35 44 54
32 46 48
39 55 59
32 40 47
30 39 44
30 39 44
26 33 39
26 38 42
27 38 36
35 48 53
25 35 39
28 41 44
28 44 45
28 42 45
28 39 40
25 30 32
32 43 44
30 36 42
30 36 40
27 36 39
33 40 48
35 42 52
29 38 41
27 33 40
28 38 41
33 43 50
29 36 40
25 29 33
23 28 32
31 36 44
25 29 33
32 40 46
30 37 43
26 32 38
35 41 47
23 25 29
22 23 29
25 29 36
26 31 36
25 28 33
23 19 24
25 28 34
29 26 34
38 1 1
35 0 0
34 0 0
40 0 0
41 0 0
39 0 0
42 0 0
39 0 0
30 0 0
34 0 0
40 0 0
45 0 0
32 0 0
38 0 0
39 0 0
46 0 0
38 0 0
42 0 0
41 0 0
42 0 0
42 0 0
40 0 0
44 0 0
34 0 0
38 0 0
33 0 0
42 0 0
38 0 0
38 0 0
43 0 0
38 0 0
32 0 0
35 0 0
36 0 0
46 0 0
40 0 0
38 0 0
46 0 0
41 0 0
31 0 0
30 0 0
40 0 0
47 0 0
38 0 0
34 0 0
44 0 0
34 0 0
37 0 0
33 0 0
34 0 0
37 0 0
29 0 0
45 0 0
38 0 0
37 0 0
44 0 0
39 0 0
30 0 0
40 0 0
39 0 0
39 0 0
40 0 0
30 0 0
37 0 0
32 0 0
42 0 0
27 0 0
41 0 0
33 0 0
41 0 0
39 0 0
41 0 0
32 0 0
38 0 0
31 0 0
40 0 0
35 0 0
35 0 0
37 0 0
38 0 0
36 0 0
36 0 0
34 0 0
34 0 0
41 0 0
34 0 0
31 0 0
41 0 0
41 0 0
36 0 0
38 0 0
39 0 0
35 0 0
42 0 0
30 0 0
48 0 0
28 0 0
41 0 0
33 0 0
35 0 0
44 0 0
39 0 0
39 0 0
36 0 0
40 0 0
42 0 0
30 0 0
35 0 0
41 0 0
42 0 0
41 0 0
39 0 0
36 0 0
34 0 0
31 0 0
31 0 0
35 0 0
39 0 0
37 0 0
31 0 0
31 0 0
28 0 0
27 0 0
38 0 0
29 0 0
26 0 1
1 0 26
0 0 35
0 0 37
0 0 23
0 0 45
0 0 39
0 0 30
0 0 34
0 0 34
0 0 35
0 0 33
0 0 40
0 0 40
0 0 47
0 0 47
0 0 40
0 0 38
0 0 41
0 0 49
0 0 36
0 0 46
0 0 38
0 0 42
0 0 43
0 0 43
0 0 53
0 0 38
0 0 43
0 0 46
0 0 39
0 0 55
0 0 54
0 0 43
0 0 48
0 0 47
0 0 61
0 0 46
0 0 57
0 0 46
0 0 41
0 0 55
0 0 63
0 0 46
0 0 48
0 0 50
0 0 46
0 0 62
0 0 42
0 0 53
0 0 42
0 0 62
0 0 49
0 0 38
0 0 49
0 0 40
0 0 41
0 0 54
0 0 59
0 0 43
0 0 37
0 0 44
0 0 60
0 0 41
0 0 47
0 0 44
0 0 44
0 0 44
0 0 38
0 0 42
0 0 52
0 0 42
0 0 55
0 0 55
0 0 53
0 0 54
0 0 52
0 0 48
0 0 59
0 0 44
0 0 62
0 0 47
0 0 55
0 0 47
0 0 45
0 0 51
0 0 49
0 0 47
0 0 48
0 0 51
0 0 42
0 0 39
0 0 45
0 0 53
0 0 52
0 0 47
0 0 53
0 0 55
0 0 53
0 0 43
0 0 49
0 0 60
0 0 61
0 0 48
0 0 46
0 0 58
0 0 53
0 0 53
0 0 56
0 0 51
0 0 54
0 0 57
0 0 47
0 0 48
0 0 59
0 0 47
0 0 52
0 0 54
0 0 46
0 0 47
0 0 47
0 0 57
0 0 44
0 0 44
0 0 51
0 0 59
0 0 46
0 0 56
0 0 42
0 0 44
0 0 37
0 0 41
0 0 60
0 0 40
0 0 52
0 0 57
0 0 61
0 0 49
25 44 39
35 52 55
28 48 44
38 54 58
33 56 51
36 56 56
26 44 41
30 47 50
34 49 54
35 51 58
24 44 38
27 46 45
35 52 55
33 52 53
39 53 61
26 49 42
26 48 42
34 48 52
23 40 35
37 58 58
29 48 45
33 52 53
29 42 45
37 52 57
32 51 49
32 50 50
38 55 58
34 52 54
25 40 41
34 46 51
25 43 39
35 52 56
32 50 50
40 57 63
33 54 53
25 41 40
28 43 43
32 48 52
29 44 46
34 48 52
28 42 43
25 41 39
36 50 57
28 47 46
33 51 51
37 54 59
25 41 37
36 50 55
29 47 46
38 54 59
29 43 45
30 45 46
34 50 54
28 47 43
31 50 52
39 56 61
28 46 44
32 50 51
28 43 44
27 44 44
32 48 49
36 48 53
31 45 48
33 49 51
32 49 51
31 49 45
36 52 57
32 46 47
33 44 49
36 54 54
31 48 51
33 45 50
38 51 55
31 49 47
22 32 33
30 42 41
31 41 42
26 43 40
24 37 36
35 49 55
30 44 43
29 39 44
31 44 46
27 41 42
28 38 41
37 49 58
28 44 46
31 44 48
29 40 45
27 43 42
23 35 33
33 48 51
31 37 44
31 43 48
41 51 61
33 45 53
25 37 39
32 43 47
25 32 32
28 42 46
31 46 48
31 42 47
32 38 44
25 37 39
28 34 37
28 34 40
36 48 53
32 39 44
33 40 46
31 36 44
35 46 51
25 36 37
31 40 46
24 36 34
25 38 39
30 38 41
29 40 45
33 40 47
25 32 36
34 45 49
29 34 40
25 27 28
31 37 44
27 34 39
25 30 36
29 37 42
26 30 35
25 28 33
21 24 25
29 34 37
26 27 32
25 30 38
29 35 45
23 22 26
25 30 36
24 26 33
20 5 7
34 0 0
43 0 0
42 0 0
35 0 0
31 0 0
39 0 0
34 0 0
33 0 0
40 0 0
39 0 0
41 0 0
33 0 0
33 0 0
38 0 0
31 0 0
38 0 0
45 0 0
36 0 0
36 0 0
40 0 0
34 0 0
31 0 0
45 0 0
33 0 0
41 0 0
32 0 0
34 0 0
37 0 0
37 0 0
32 0 0
36 0 0
39 0 0
46 0 0
31 0 0
38 0 0
35 0 0
31 0 0
37 0 0
38 0 0
31 0 0
40 0 0
37 0 0
36 0 0
28 0 0
45 0 0
42 0 0
37 0 0
33 0 0
37 0 0
43 0 0
39 0 0
40 0 0
31 0 0
44 0 0
37 0 0
33 0 0
37 0 0
49 0 0
36 0 0
35 0 0
28 0 0
45 0 0
35 0 0
32 0 0
36 0 0
34 0 0
36 0 0
35 0 0
44 0 0
34 0 0
37 0 0
24 0 0
37 0 0
31 0 0
33 0 0
35 0 0
40 0 0
34 0 0
36 0 0
36 0 0
32 0 0
33 0 0
41 0 0
38 0 0
33 0 0
42 0 0
39 0 0
34 0 0
44 0 0
43 0 0
33 0 0
41 0 0
35 0 0
31 0 0
30 0 0
43 0 0
34 0 0
32 0 0
37 0 0
40 0 0
41 0 0
38 0 0
31 0 0
25 0 0
37 0 0
36 0 0
46 0 0
33 0 0
31 0 0
32 0 0
42 0 0
36 0 0
44 0 0
38 0 0
44 0 0
38 0 0
37 0 0
35 0 0
32 0 0
40 0 0
42 0 0
34 0 0
25 0 0
33 0 0
29 0 0
33 0 0
12 0 16
0 0 33
0 0 36
0 0 37
0 0 29
0 0 28
0 0 30
0 0 30
0 0 29
0 0 45
0 0 41
0 0 30
0 0 32
0 0 36
0 0 35
0 0 40
0 0 40
0 0 37
0 0 32
0 0 37
0 0 48
0 0 42
0 0 39
0 0 48
0 0 39
0 0 44
0 0 45
0 0 45
0 0 46
0 0 31
0 0 28
0 0 42
0 0 48
0 0 48
0 0 41
0 0 49
0 0 41
0 0 49
0 0 36
0 0 48
0 0 40
0 0 49
0 0 39
0 0 51
0 0 49
0 0 48
0 0 47
0 0 35
0 0 45
0 0 52
0 0 53
0 0 42
0 0 44
0 0 51
0 0 45
0 0 41
0 0 44
0 0 51
0 0 44
0 0 50
0 0 50
0 0 41
0 0 39
0 0 43
0 0 47
0 0 49
0 0 44
0 0 37
0 0 45
0 0 52
0 0 51
0 0 37
0 0 56
0 0 51
0 0 44
0 0 38
0 0 48
0 0 36
0 0 50
0 0 42
0 0 39
0 0 50
0 0 48
0 0 52
0 0 46
0 0 63
0 0 39
0 0 50
0 0 60
0 0 40
0 0 49
0 0 48
0 0 33
0 0 61
0 0 39
0 0 52
0 0 55
0 0 54
0 0 50
0 0 48
0 0 49
0 0 47
0 0 32
0 0 41
0 0 52
0 0 57
0 0 49
0 0 54
0 0 52
0 0 48
0 0 52
0 0 39
0 0 48
0 0 42
0 0 48
0 0 48
0 0 52
0 0 40
0 0 37
0 0 40
0 0 52
0 0 52
0 0 59
0 0 59
0 0 52
0 0 62
0 0 39
0 0 61
0 0 55
0 0 65
0 0 47
0 0 57
0 0 33
0 0 59
0 0 52
0 0 39
0 0 53
29 48 47
24 45 39
36 53 57
30 48 48
30 50 48
29 45 48
37 55 59
28 43 45
24 42 39
30 48 50
32 51 52
36 53 56
38 56 59
38 56 59
33 48 50
27 41 42
30 47 46
31 48 49
33 51 52
32 51 52
29 46 45
34 52 52
33 50 52
31 50 47
30 47 47
27 47 44
28 43 45
32 49 50
38 55 59
27 50 44
35 48 55
39 58 64
29 48 46
30 43 48
30 49 46
23 37 37
38 53 60
37 53 56
31 49 49
37 53 57
34 48 52
37 56 56
24 42 40
35 53 54
32 51 49
35 46 54
34 51 57
32 50 50
32 50 50
27 38 42
30 51 50
35 48 54
37 52 59
30 46 47
30 46 51
34 51 54
33 55 54
33 48 51
33 49 48
33 48 50
35 50 53
40 56 63
33 42 46
28 41 43
31 43 49
38 48 58
36 54 57
38 55 57
30 48 44
34 51 51
32 49 52
33 48 50
31 44 48
38 53 56
30 43 46
30 44 47
28 45 42
28 42 45
30 49 53
33 45 49
33 46 52
32 47 49
33 45 52
38 50 57
26 38 39
32 46 51
33 46 51
30 43 46
30 42 44
21 37 32
34 48 54
30 42 43
35 49 58
27 35 38
25 36 39
28 39 43
30 43 44
24 35 33
35 46 51
22 31 30
25 34 37
22 34 32
19 25 26
29 42 45
28 38 42
23 32 32
29 40 43
31 40 45
26 31 35
23 33 33
26 34 35
28 35 40
31 37 39
29 37 42
31 36 41
24 31 31
32 42 46
29 39 43
28 32 38
22 30 32
29 37 39
29 39 43
25 29 31
22 28 31
18 22 25
25 26 29
21 24 28
21 27 28
30 39 47
26 29 36
24 30 33
29 33 39
32 36 44
19 21 25
22 24 26
20 24 24
34 12 16
30 0 0
31 0 0
35 0 0
38 0 0
42 0 0
32 0 0
40 0 0
37 0 0
36 0 0
35 0 0
39 0 0
42 0 0
43 0 0
37 0 0
36 0 0
37 0 0
28 0 0
37 0 0
32 0 0
37 0 0
38 0 0
39 0 0
34 0 0
35 0 0
35 0 0
31 0 0
36 0 0
38 0 0
44 0 0
27 0 0
40 0 0
41 0 0
27 0 0
38 0 0
43 0 0
37 0 0
39 0 0
38 0 0
45 0 0
30 0 0
39 0 0
30 0 0
34 0 0
46 0 0
29 0 0
32 0 0
35 0 0
35 0 0
36 0 0
38 0 0
33 0 0
33 0 0
39 0 0
33 0 0
35 0 0
34 0 0
39 0 0
36 0 0
42 0 0
36 0 0
31 0 0
37 0 0
34 0 0
34 0 0
37 0 0
30 0 0
33 0 0
34 0 0
38 0 0
30 0 0
37 0 0
33 0 0
32 0 0
45 0 0
41 0 0
33 0 0
36 0 0
28 0 0
43 0 0
37 0 0
38 0 0
36 0 0
32 0 0
34 0 0
37 0 0
35 0 0
47 0 0
31 0 0
31 0 0
29 0 0
32 0 0
43 0 0
37 0 0
32 0 0
33 0 0
33 0 0
32 0 0
36 0 0
35 0 0
37 0 0
43 0 0
37 0 0
40 0 0
42 0 0
34 0 0
39 0 0
35 0 0
35 0 0
34 0 0
39 0 0
31 0 0
33 0 0
42 0 0
39 0 0
33 0 0
34 0 0
32 0 0
36 0 0
43 0 0
34 0 0
33 0 0
35 0 0
30 0 0
36 0 0
32 0 0
30 0 0
24 0 6
0 0 28
0 0 30
0 0 30
0 0 32
0 0 33
0 0 31
0 0 21
0 0 40
0 0 40
0 0 36
0 0 39
0 0 40
0 0 30
0 0 28
0 0 33
0 0 53
0 0 37
0 0 40
0 0 36
0 0 36
0 0 31
0 0 51
0 0 31
0 0 39
0 0 36
0 0 45
0 0 39
0 0 53
0 0 32
0 0 44
0 0 46
0 0 57
0 0 46
0 0 51
0 0 45
0 0 36
0 0 54
0 0 42
0 0 44
0 0 44
0 0 49
0 0 41
0 0 56
0 0 51
0 0 41
0 0 54
0 0 41
0 0 48
0 0 48
0 0 38
0 0 39
0 0 34
0 0 50
0 0 55
0 0 43
0 0 54
0 0 45
0 0 47
0 0 44
0 0 37
0 0 49
0 0 46
0 0 52
0 0 46
0 0 49
0 0 49
0 0 25
0 0 38
0 0 39
0 0 38
0 0 41
0 0 39
0 0 44
0 0 42
0 0 44
0 0 52
0 0 36
0 0 43
0 0 63
0 0 49
0 0 44
0 0 47
0 0 38
0 0 59
0 0 39
0 0 50
0 0 50
0 0 58
0 0 47
0 0 48
0 0 54
0 0 64
0 0 46
0 0 44
0 0 41
0 0 51
0 0 53
0 0 40
0 0 52
0 0 42
0 0 52
0 0 41
0 0 59
0 0 46
0 0 46
0 0 53
0 0 57
0 0 44
0 0 51
0 0 49
0 0 45
0 0 52
0 0 49
0 0 49
0 0 64
0 0 53
0 0 49
0 0 61
0 0 59
0 0 57
0 0 50
0 0 53
0 0 53
0 0 43
0 0 42
0 0 52
0 0 46
0 0 43
0 0 50
0 0 39
0 0 51
0 0 45
0 0 51
0 0 52
0 0 52
0 0 56
31 50 48
32 52 52
27 43 43
34 49 52
25 43 39
37 54 56
39 59 61
30 50 46
43 64 72
34 53 52
31 47 48
37 55 57
28 43 43
32 54 51
26 42 42
28 41 43
30 48 45
30 49 48
22 37 32
36 50 56
29 50 47
32 48 52
38 56 61
31 49 50
32 48 50
37 48 58
28 45 43
31 49 49
31 47 48
31 47 48
25 39 38
25 43 39
33 50 49
39 57 62
34 50 52
33 51 52
26 41 41
26 45 40
27 44 43
43 60 67
37 59 56
38 55 58
27 48 41
28 45 44
27 48 40
33 47 50
30 46 43
30 43 44
35 50 52
27 40 43
40 57 61
35 50 52
30 47 47
20 26 30
26 43 40
33 47 50
30 44 46
27 43 43
22 39 34
31 47 47
31 44 46
27 42 41
27 46 41
33 46 50
33 52 53
41 56 62
28 41 44
25 41 38
29 42 44
37 53 60
30 45 48
32 46 48
30 47 48
23 31 34
31 46 46
28 52 44
25 37 40
33 45 50
31 49 49
28 41 41
33 46 49
26 38 38
29 42 42
31 43 44
27 43 44
38 51 57
21 32 31
27 36 40
32 43 45
27 37 36
32 40 46
29 42 44
29 39 41
28 37 40
34 43 49
33 45 51
27 39 41
24 34 38
33 49 49
28 40 45
25 41 39
19 30 30
22 33 36
24 33 35
29 42 46
29 41 42
28 37 40
21 28 27
26 34 37
23 35 35
29 34 37
25 35 35
29 36 43
31 35 40
28 37 40
27 35 38
36 39 48
31 43 48
22 26 27
28 36 40
31 32 37
29 35 42
24 35 36
23 26 30
20 27 29
30 37 45
22 26 30
25 32 36
27 33 39
25 28 32
26 28 32
26 29 36
22 26 28
16 16 19
24 26 33
18 17 19
29 0 0
29 0 0
37 0 0
43 0 0
35 0 0
41 0 0
26 0 0
34 0 0
38 0 0
34 0 0
36 0 0
39 0 0
26 0 0
40 0 0
44 0 0
42 0 0
33 0 0
40 0 0
42 0 0
30 0 0
33 0 0
34 0 0
33 0 0
28 0 0
41 0 0
35 0 0
33 0 0
42 0 0
37 0 0
35 0 0
33 0 0
41 0 0
33 0 0
30 0 0
36 0 0
34 0 0
37 0 0
32 0 0
36 0 0
32 0 0
33 0 0
36 0 0
31 0 0
35 0 0
29 0 0
41 0 0
33 0 0
31 0 0
29 0 0
41 0 0
39 0 0
42 0 0
35 0 0
36 0 0
41 0 0
32 0 0
37 0 0
35 0 0
35 0 0
24 0 0
36 0 0
38 0 0
39 0 0
35 0 0
36 0 0
41 0 0
35 0 0
36 0 0
34 0 0
33 0 0
25 0 0
33 0 0
38 0 0
35 0 0
37 0 0
38 0 0
33 0 0
37 0 0
28 0 0
36 0 0
40 0 0
29 0 0
33 0 0
39 0 0
36 0 0
38 0 0
40 0 0
30 0 0
35 0 0
34 0 0
31 0 0
30 0 0
44 0 0
38 0 0
33 0 0
35 0 0
33 0 0
34 0 0
38 0 0
48 0 0
31 0 0
33 0 0
44 0 0
39 0 0
36 0 0
39 0 0
44 0 0
32 0 0
29 0 0
33 0 0
27 0 0
34 0 0
30 0 0
31 0 0
39 0 0
27 0 0
34 0 0
30 0 0
39 0 0
38 0 0
41 0 0
28 0 0
32 0 0
36 0 0
39 0 0
33 0 0
30 0 0
30 0 0
1 0 16
0 0 31
0 0 26
0 0 25
0 0 30
0 0 36
0 0 33
0 0 37
0 0 32
0 0 37
0 0 30
0 0 39
0 0 42
0 0 41
0 0 31
0 0 44
0 0 39
0 0 30
0 0 45
0 0 43
0 0 35
0 0 37
0 0 38
0 0 49
0 0 46
0 0 43
0 0 54
0 0 32
0 0 35
0 0 41
0 0 35
0 0 47
0 0 41
0 0 36
0 0 53
0 0 42
0 0 40
0 0 55
0 0 37
0 0 51
0 0 44
0 0 42
0 0 38
0 0 47
0 0 46
0 0 48
0 0 46
0 0 46
0 0 43
0 0 29
0 0 42
0 0 50
0 0 42
0 0 46
0 0 59
0 0 52
0 0 51
0 0 44
0 0 50
0 0 47
0 0 41
0 0 40
0 0 58
0 0 46
0 0 50
0 0 35
0 0 52
0 0 39
0 0 49
0 0 48
0 0 43
0 0 54
0 0 43
0 0 44
0 0 49
0 0 54
0 0 43
0 0 45
0 0 52
0 0 48
0 0 47
0 0 45
0 0 40
0 0 53
0 0 31
0 0 44
0 0 45
0 0 36
0 0 50
0 0 52
0 0 52
0 0 45
0 0 41
0 0 45
0 0 45
0 0 49
0 0 64
0 0 35
0 0 44
0 0 50
0 0 54
0 0 50
0 0 42
0 0 54
0 0 41
0 0 44
0 0 52
0 0 51
0 0 45
0 0 53
0 0 35
0 0 41
0 0 39
0 0 58
0 0 46
0 0 48
0 0 42
0 0 55
0 0 48
0 0 51
0 0 50
0 0 54
0 0 49
0 0 55
0 0 49
0 0 46
0 0 47
0 0 56
0 0 37
0 0 52
0 0 43
0 0 51
0 0 55
0 0 53
0 0 53
0 0 54
38 56 62
35 55 57
29 47 47
38 59 61
36 55 58
34 51 55
28 48 46
31 49 49
29 46 44
27 45 44
33 50 52
26 42 43
28 42 43
35 53 56
29 50 46
36 54 57
30 52 48
23 41 39
34 54 52
29 45 45
25 49 40
34 50 52
36 50 56
28 44 46
37 54 55
31 47 48
34 57 57
32 48 51
27 50 42
31 50 49
29 46 46
33 46 51
26 43 40
30 41 47
31 47 49
31 51 50
27 46 39
37 52 57
27 47 42
30 48 49
30 45 44
36 49 57
26 40 41
26 44 40
28 46 45
32 43 47
34 51 54
37 54 56
34 51 52
34 53 52
23 36 38
40 58 60
28 42 42
31 51 48
21 37 33
29 40 43
33 48 50
29 48 46
29 42 45
32 50 53
27 46 44
29 44 44
31 46 49
30 44 48
26 39 39
44 56 65
29 44 44
28 43 42
27 49 43
30 48 49
30 43 46
33 49 49
24 31 33
37 46 55
29 47 47
25 35 35
39 56 61
26 37 40
22 39 35
29 44 43
31 51 49
27 46 42
28 45 45
26 38 40
31 48 47
29 42 45
23 34 34
23 34 36
30 40 44
32 42 45
35 50 57
20 33 30
25 38 39
35 53 54
31 40 45
28 39 41
30 39 43
28 36 39
26 36 37
25 38 37
32 44 46
27 39 41
27 36 35
30 40 42
32 44 47
29 41 47
25 34 34
31 43 47
26 32 35
23 32 34
26 36 35
21 27 28
22 27 31
31 43 46
29 40 44
24 32 34
23 32 35
27 37 42
21 27 29
32 40 43
28 35 42
26 32 36
24 31 31
22 28 32
23 28 28
20 24 26
23 26 29
32 36 42
24 28 32
27 29 36
16 20 21
21 24 30
20 22 24
19 24 26
25 29 36
24 13 16
32 0 0
41 0 0
30 0 0
44 0 0
36 0 0
32 0 0
41 0 0
40 0 0
41 0 0
41 0 0
36 0 0
35 0 0
27 0 0
38 0 0
39 0 0
37 0 0
38 0 0
44 0 0
42 0 0
34 0 0
28 0 0
25 0 0
39 0 0
33 0 0
41 0 0
33 0 0
37 0 0
36 0 0
40 0 0
27 0 0
35 0 0
42 0 0
32 0 0
42 0 0
39 0 0
43 0 0
39 0 0
38 0 0
35 0 0
34 0 0
34 0 0
32 0 0
30 0 0
40 0 0
39 0 0
39 0 0
45 0 0
37 0 0
34 0 0
33 0 0
39 0 0
33 0 0
27 0 0
35 0 0
35 0 0
33 0 0
29 0 0
48 0 0
31 0 0
36 0 0
36 0 0
28 0 0
31 0 0
38 0 0
39 0 0
31 0 0
32 0 0
36 0 0
27 0 0
36 0 0
39 0 0
46 0 0
38 0 0
34 0 0
42 0 0
33 0 0
31 0 0
31 0 0
39 0 0
36 0 0
34 0 0
33 0 0
35 0 0
43 0 0
26 0 0
32 0 0
29 0 0
30 0 0
39 0 0
37 0 0
34 0 0
29 0 0
34 0 0
36 0 0
27 0 0
31 0 0
39 0 0
39 0 0
33 0 0
29 0 0
35 0 0
35 0 0
31 0 0
32 0 0
38 0 0
31 0 0
32 0 0
32 0 0
43 0 0
39 0 0
30 0 0
32 0 0
37 0 0
31 0 0
38 0 0
28 0 0
32 0 0
33 0 0
42 0 0
35 0 0
27 0 0
38 0 0
40 0 0
34 0 0
31 0 0
34 0 0
34 0 0
31 0 0
9 0 8
0 0 22
0 0 20
0 0 36
0 0 33
0 0 35
0 0 22
0 0 31
0 0 38
0 0 48
0 0 33
0 0 35
0 0 30
0 0 39
0 0 26
0 0 32
0 0 42
0 0 31
0 0 29
0 0 48
0 0 31
0 0 37
0 0 37
0 0 30
0 0 40
0 0 51
0 0 37
0 0 37
0 0 41
0 0 34
0 0 39
0 0 34
0 0 39
0 0 47
0 0 39
0 0 41
0 0 41
0 0 58
0 0 49
0 0 49
0 0 50
0 0 39
0 0 49
0 0 47
0 0 49
0 0 44
0 0 45
0 0 43
0 0 38
0 0 41
0 0 44
0 0 34
0 0 47
0 0 37
0 0 56
0 0 38
0 0 44
0 0 51
0 0 49
0 0 53
0 0 37
0 0 46
0 0 42
0 0 41
0 0 42
0 0 48
0 0 40
0 0 43
0 0 42
0 0 48
0 0 43
0 0 46
0 0 50
0 0 40
0 0 54
0 0 45
0 0 31
0 0 51
0 0 47
0 0 57
0 0 39
0 0 42
0 0 36
0 0 46
0 0 56
0 0 45
0 0 48
0 0 36
0 0 42
0 0 40
0 0 52
0 0 43
0 0 58
0 0 40
0 0 44
0 0 45
0 0 48
0 0 42
0 0 65
0 0 58
0 0 56
0 0 46
0 0 45
0 0 51
0 0 51
0 0 48
0 0 43
0 0 42
0 0 66
0 0 53
0 0 61
0 0 50
0 0 46
0 0 48
0 0 55
0 0 44
0 0 42
0 0 33
0 0 37
0 0 52
0 0 46
0 0 47
0 0 51
0 0 47
0 0 54
0 0 46
0 0 54
0 0 46
0 0 48
0 0 58
0 0 51
0 0 48
0 0 48
0 0 47
0 0 49
0 0 59
38 56 60
25 39 40
42 65 67
31 52 49
28 49 44
37 53 56
32 44 49
36 54 58
25 41 40
28 47 43
35 49 53
35 54 54
28 48 45
41 63 65
20 39 30
34 52 52
39 57 60
30 45 46
23 45 34
35 54 54
33 53 52
25 43 41
36 53 56
36 55 58
32 52 50
27 42 43
34 51 53
38 56 58
23 40 36
37 55 58
33 53 53
24 42 38
31 45 48
33 54 52
30 50 46
26 42 42
33 48 50
28 49 45
34 50 54
33 52 51
30 45 47
27 43 43
38 54 60
31 50 50
29 45 44
24 36 37
36 53 59
29 44 45
23 39 35
29 45 45
29 46 44
32 47 51
31 43 46
38 54 58
28 43 44
29 43 45
39 55 61
25 42 39
32 47 51
19 36 28
32 47 49
30 44 46
27 37 38
35 51 55
33 51 53
28 38 45
30 45 48
30 48 49
30 45 45
28 47 43
34 52 54
30 45 46
30 47 47
25 44 41
34 49 51
26 38 39
28 42 44
28 43 41
32 46 50
34 50 52
31 43 49
32 48 50
24 36 41
29 42 44
30 42 47
30 45 49
26 38 40
31 44 45
29 43 43
29 42 44
20 33 31
24 37 36
22 34 35
33 46 51
32 45 48
31 42 44
36 50 56
26 40 41
30 44 45
36 47 51
30 40 41
29 40 42
35 43 50
24 32 36
29 36 39
18 26 28
25 34 36
25 36 34
22 32 35
27 37 40
28 35 38
30 44 43
33 39 45
26 34 36
22 32 30
24 33 38
29 37 42
27 35 38
26 34 38
26 37 38
28 42 43
21 25 26
19 23 25
24 32 35
25 30 34
26 32 39
25 31 32
28 36 43
17 22 21
20 20 21
20 23 26
28 33 39
18 22 24
20 19 22
21 23 26
24 11 13
28 0 0
34 0 0
33 0 0
34 0 0
31 0 0
36 0 0
40 0 0
33 0 0
34 0 0
41 0 0
36 0 0
33 0 0
28 0 0
30 0 0
31 0 0
37 0 0
33 0 0
32 0 0
34 0 0
36 0 0
38 0 0
34 0 0
37 0 0
38 0 0
41 0 0
31 0 0
35 0 0
45 0 0
30 0 0
28 0 0
43 0 0
28 0 0
36 0 0
35 0 0
42 0 0
31 0 0
30 0 0
31 0 0
29 0 0
37 0 0
34 0 0
33 0 0
38 0 0
30 0 0
31 0 0
27 0 0
33 0 0
32 0 0
31 0 0
37 0 0
24 0 0
34 0 0
35 0 0
35 0 0
33 0 0
39 0 0
35 0 0
32 0 0
30 0 0
37 0 0
41 0 0
39 0 0
29 0 0
39 0 0
35 0 0
37 0 0
36 0 0
47 0 0
45 0 0
24 0 0
35 0 0
28 0 0
33 0 0
30 0 0
33 0 0
41 0 0
36 0 0
32 0 0
33 0 0
35 0 0
49 0 0
38 0 0
35 0 0
37 0 0
35 0 0
32 0 0
39 0 0
43 0 0
34 0 0
39 0 0
33 0 0
40 0 0
32 0 0
28 0 0
34 0 0
42 0 0
33 0 0
36 0 0
33 0 0
30 0 0
32 0 0
33 0 0
39 0 0
40 0 0
39 0 0
33 0 0
31 0 0
39 0 0
34 0 0
33 0 0
33 0 0
40 0 0
36 0 0
36 0 0
30 0 0
31 0 0
24 0 0
32 0 0
32 0 0
39 0 0
27 0 0
37 0 0
30 0 0
30 0 0
31 0 0
38 0 0
31 0 0
22 0 0
19 0 7
0 0 19
0 0 29
0 0 15
0 0 28
0 0 29
0 0 25
0 0 33
0 0 21
0 0 28
0 0 40
0 0 32
0 0 26
0 0 36
0 0 30
0 0 32
0 0 32
0 0 42
0 0 28
0 0 27
0 0 41
0 0 34
0 0 41
0 0 35
0 0 52
0 0 49
0 0 39
0 0 42
0 0 32
0 0 35
0 0 39
0 0 44
0 0 50
0 0 37
0 0 42
0 0 45
0 0 45
0 0 49
0 0 42
0 0 28
0 0 41
0 0 36
0 0 43
0 0 51
0 0 52
0 0 42
0 0 44
0 0 28
0 0 47
0 0 50
0 0 34
0 0 44
0 0 38
0 0 39
0 0 33
0 0 45
0 0 45
0 0 41
0 0 41
0 0 35
0 0 49
0 0 43
0 0 39
0 0 54
0 0 43
0 0 55
0 0 39
0 0 45
0 0 54
0 0 32
0 0 37
0 0 42
0 0 43
0 0 37
0 0 53
0 0 53
0 0 40
0 0 45
0 0 50
0 0 28
0 0 43
0 0 42
0 0 47
0 0 54
0 0 48
0 0 45
0 0 52
0 0 47
0 0 33
0 0 43
0 0 43
0 0 43
0 0 42
0 0 48
0 0 55
0 0 57
0 0 46
0 0 46
0 0 45
0 0 46
0 0 54
0 0 51
0 0 50
0 0 47
0 0 44
0 0 61
0 0 45
0 0 64
0 0 49
0 0 59
0 0 56
0 0 56
0 0 48
0 0 47
0 0 58
0 0 47
0 0 45
0 0 42
0 0 41
0 0 43
0 0 64
0 0 45
0 0 67
0 0 39
0 0 52
0 0 52
0 0 52
0 0 58
0 0 45
0 0 52
0 0 49
0 0 52
0 0 55
0 0 49
0 0 47
0 0 47
27 46 42
24 45 38
35 55 54
30 46 48
35 51 56
39 57 57
27 45 42
37 58 58
33 53 53
32 53 52
36 53 57
32 49 51
34 50 56
26 41 42
31 46 48
40 59 64
33 53 53
32 49 50
29 45 45
29 45 44
27 45 43
34 55 54
25 41 40
30 46 46
26 41 39
20 40 32
42 60 65
40 56 62
27 42 44
28 43 44
29 41 44
33 51 51
39 58 61
31 48 48
32 48 50
37 59 60
28 45 44
30 50 48
27 39 41
36 54 56
29 43 44
31 51 49
38 54 60
29 45 44
34 49 52
31 48 47
33 55 54
32 52 51
33 53 52
22 41 34
35 51 56
37 52 57
35 53 54
34 52 49
23 33 34
39 53 56
26 39 40
35 56 56
29 47 45
31 42 45
26 40 42
31 44 46
34 48 50
26 42 40
24 39 36
34 45 46
23 38 34
28 38 41
38 55 58
30 45 48
21 35 35
31 44 48
31 45 52
29 39 42
31 47 44
33 48 52
31 44 48
24 38 34
32 44 49
28 38 38
21 31 31
22 36 35
30 47 46
27 41 43
31 39 44
29 41 42
33 47 52
27 44 42
25 37 38
32 43 46
34 46 52
29 44 45
26 42 41
25 39 38
24 38 32
29 38 42
26 43 41
33 41 45
23 34 32
33 45 50
29 39 44
25 36 39
24 37 36
27 40 40
26 36 38
23 31 33
29 40 42
24 35 37
24 33 37
29 38 41
26 36 35
24 28 32
32 38 43
30 40 44
24 39 36
31 37 42
24 34 34
32 40 48
20 30 28
22 32 34
22 26 29
22 34 33
13 20 19
18 24 23
20 31 29
23 27 30
22 24 25
26 30 35
20 22 23
22 27 33
26 30 34
15 14 16
26 30 37
19 19 23
18 22 24
18 3 3
37 0 0
32 0 0
34 0 0
31 0 0
30 0 0
32 0 0
33 0 0
38 0 0
42 0 0
33 0 0
37 0 0
40 0 0
39 0 0
45 0 0
35 0 0
35 0 0
38 0 0
31 0 0
37 0 0
42 0 0
37 0 0
45 0 0
37 0 0
35 0 0
38 0 0
26 0 0
26 0 0
44 0 0
37 0 0
38 0 0
35 0 0
36 0 0
33 0 0
41 0 0
40 0 0
32 0 0
41 0 0
37 0 0
31 0 0
32 0 0
29 0 0
35 0 0
39 0 0
39 0 0
32 0 0
34 0 0
32 0 0
32 0 0
39 0 0
26 0 0
32 0 0
30 0 0
29 0 0
36 0 0
34 0 0
34 0 0
37 0 0
33 0 0
30 0 0
39 0 0
38 0 0
32 0 0
39 0 0
34 0 0
35 0 0
30 0 0
35 0 0
33 0 0
34 0 0
32 0 0
29 0 0
34 0 0
27 0 0
32 0 0
35 0 0
42 0 0
40 0 0
35 0 0
31 0 0
34 0 0
35 0 0
34 0 0
45 0 0
34 0 0
31 0 0
36 0 0
32 0 0
29 0 0
36 0 0
34 0 0
35 0 0
32 0 0
35 0 0
38 0 0
32 0 0
36 0 0
33 0 0
36 0 0
33 0 0
34 0 0
35 0 0
41 0 0
32 0 0
31 0 0
35 0 0
30 0 0
32 0 0
34 0 0
34 0 0
33 0 0
28 0 0
34 0 0
35 0 0
33 0 0
35 0 0
29 0 0
30 0 0
34 0 0
31 0 0
38 0 0
27 0 0
34 0 0
31 0 0
33 0 0
37 0 0
25 0 0
25 0 0
34 0 0
19 0 9
0 0 23
0 0 22
0 0 30
0 0 20
0 0 17
0 0 23
0 0 23
0 0 30
0 0 27
0 0 24
0 0 32
0 0 25
0 0 34
0 0 36
0 0 31
0 0 42
0 0 23
0 0 39
0 0 31
0 0 38
0 0 25
0 0 35
0 0 29
0 0 32
0 0 30
0 0 43
0 0 32
0 0 37
0 0 38
0 0 40
0 0 37
0 0 40
0 0 32
0 0 34
0 0 44
0 0 44
0 0 39
0 0 43
0 0 52
0 0 38
0 0 42
0 0 49
0 0 45
0 0 46
0 0 38
0 0 41
0 0 38
0 0 42
0 0 43
0 0 50
0 0 35
0 0 30
0 0 47
0 0 47
0 0 37
0 0 44
0 0 41
0 0 48
0 0 49
0 0 48
0 0 30
0 0 37
0 0 42
0 0 41
0 0 35
0 0 34
0 0 48
0 0 40
0 0 48
0 0 55
0 0 46
0 0 45
0 0 46
0 0 45
0 0 37
0 0 34
0 0 44
0 0 50
0 0 39
0 0 36
0 0 39
0 0 46
0 0 49
0 0 49
0 0 48
0 0 48
0 0 41
0 0 40
0 0 53
0 0 49
0 0 58
0 0 53
0 0 44
0 0 40
0 0 43
0 0 30
0 0 43
0 0 52
0 0 37
0 0 44
0 0 53
0 0 48
0 0 50
0 0 36
0 0 63
0 0 46
0 0 68
0 0 39
0 0 57
0 0 45
0 0 59
0 0 38
0 0 50
0 0 49
0 0 56
0 0 36
0 0 43
0 0 48
0 0 53
0 0 40
0 0 49
0 0 46
0 0 44
0 0 48
0 0 52
0 0 43
0 0 38
0 0 39
0 0 46
0 0 50
0 0 42
0 0 50
0 0 66
0 0 56
0 0 51
28 42 45
32 50 52
30 49 48
32 44 50
27 43 43
34 54 53
35 53 55
34 49 52
33 47 51
31 45 46
33 54 53
32 50 51
26 44 42
31 49 48
34 48 50
27 45 40
37 54 58
32 46 51
24 41 37
29 50 45
21 34 31
27 44 43
29 47 44
35 54 55
32 51 50
25 40 38
36 54 54
27 50 44
29 47 47
30 52 48
27 42 43
23 38 36
30 50 48
37 51 56
37 54 58
35 48 55
28 49 44
35 53 56
38 54 58
20 38 31
26 44 39
26 44 40
25 40 40
33 44 47
31 48 46
31 46 48
35 53 57
33 49 49
32 50 50
29 41 45
34 50 53
26 44 41
25 42 36
25 43 41
25 42 37
23 40 35
22 41 35
25 38 38
29 46 46
32 46 47
28 41 45
29 45 45
23 41 35
32 44 48
42 57 61
35 48 54
28 38 43
30 46 48
27 39 39
28 42 42
29 44 46
28 41 37
35 50 56
31 44 48
27 38 36
33 48 51
25 36 37
23 34 35
29 41 42
36 44 54
30 48 49
26 40 41
27 43 38
29 41 41
21 29 29
25 39 37
27 45 41
29 38 41
24 33 35
30 47 49
22 32 29
33 47 53
32 43 48
28 40 40
34 46 46
26 43 40
28 38 43
23 35 35
21 31 29
22 36 36
28 42 41
30 44 45
28 37 40
23 35 33
23 33 36
28 35 38
21 28 31
27 44 44
28 38 38
25 35 37
28 35 39
25 37 37
18 34 28
24 31 32
21 29 29
26 29 34
27 33 39
24 33 34
25 36 37
20 28 30
24 29 29
24 32 37
21 26 27
15 24 23
14 22 17
18 24 24
24 32 32
20 25 27
22 26 32
23 29 33
23 25 28
20 21 25
15 19 19
21 21 25
18 19 18
32 0 1
24 0 0
28 0 0
31 0 0
33 0 0
34 0 0
39 0 0
29 0 0
33 0 0
38 0 0
33 0 0
29 0 0
35 0 0
36 0 0
28 0 0
31 0 0
33 0 0
39 0 0
37 0 0
37 0 0
35 0 0
39 0 0
34 0 0
36 0 0
33 0 0
34 0 0
37 0 0
39 0 0
41 0 0
35 0 0
34 0 0
38 0 0
31 0 0
30 0 0
34 0 0
42 0 0
32 0 0
38 0 0
31 0 0
43 0 0
40 0 0
33 0 0
34 0 0
39 0 0
34 0 0
28 0 0
30 0 0
24 0 0
34 0 0
28 0 0
43 0 0
27 0 0
38 0 0
40 0 0
38 0 0
36 0 0
35 0 0
24 0 0
34 0 0
41 0 0
37 0 0
34 0 0
39 0 0
37 0 0
28 0 0
41 0 0
40 0 0
29 0 0
40 0 0
38 0 0
33 0 0
30 0 0
34 0 0
32 0 0
40 0 0
39 0 0
33 0 0
31 0 0
30 0 0
36 0 0
30 0 0
40 0 0
32 0 0
25 0 0
32 0 0
31 0 0
34 0 0
33 0 0
37 0 0
33 0 0
25 0 0
34 0 0
36 0 0
41 0 0
42 0 0
37 0 0
37 0 0
35 0 0
35 0 0
34 0 0
24 0 0
39 0 0
38 0 0
35 0 0
30 0 0
31 0 0
35 0 0
32 0 0
30 0 0
35 0 0
38 0 0
36 0 0
29 0 0
38 0 0
26 0 0
34 0 0
30 0 0
31 0 0
35 0 0
32 0 0
42 0 0
35 0 0
25 0 0
34 0 0
26 0 0
32 0 0
32 0 0
27 0 0
28 0 0
25 0 4
0 0 21
0 0 19
0 0 23
0 0 22
0 0 31
0 0 30
0 0 22
0 0 22
0 0 31
0 0 29
0 0 31
0 0 22
0 0 33
0 0 32
0 0 26
0 0 41
0 0 23
0 0 32
0 0 46
0 0 37
0 0 28
0 0 37
0 0 26
0 0 53
0 0 41
0 0 38
0 0 45
0 0 28
0 0 33
0 0 26
0 0 31
0 0 36
0 0 37
0 0 40
0 0 43
0 0 39
0 0 46
0 0 40
0 0 42
0 0 35
0 0 31
0 0 39
0 0 39
0 0 49
0 0 44
0 0 61
0 0 35
0 0 33
0 0 48
0 0 46
0 0 39
0 0 28
0 0 35
0 0 39
0 0 45
0 0 41
0 0 46
0 0 48
0 0 37
0 0 39
0 0 35
0 0 37
0 0 50
0 0 43
0 0 47
0 0 50
0 0 37
0 0 51
0 0 43
0 0 43
0 0 44
0 0 58
0 0 40
0 0 53
0 0 41
0 0 38
0 0 41
0 0 44
0 0 40
0 0 46
0 0 45
0 0 40
0 0 49
0 0 38
0 0 53
0 0 49
0 0 48
0 0 44
0 0 43
0 0 52
0 0 47
0 0 54
0 0 41
0 0 43
0 0 48
0 0 42
0 0 37
0 0 49
0 0 49
0 0 37
0 0 44
0 0 39
0 0 36
0 0 52
0 0 48
0 0 45
0 0 46
0 0 41
0 0 52
0 0 33
0 0 40
0 0 39
0 0 33
0 0 52
0 0 50
0 0 54
0 0 49
0 0 34
0 0 51
0 0 34
0 0 57
0 0 37
0 0 56
0 0 53
0 0 35
0 0 51
0 0 49
0 0 51
0 0 57
0 0 53
0 0 54
0 0 58
0 0 43
0 0 45
0 0 49
27 48 44
29 48 44
26 42 41
35 52 55
36 51 54
30 45 45
34 52 53
36 57 56
32 51 48
30 49 47
34 54 53
32 50 49
19 35 28
35 54 54
45 63 68
22 44 34
32 52 51
43 60 67
30 47 48
29 43 47
32 50 49
32 49 49
36 52 55
34 51 51
24 40 37
33 42 51
30 48 45
31 51 47
23 38 35
40 58 67
26 41 41
40 59 62
27 41 42
29 45 47
28 50 47
32 49 49
35 51 55
29 45 41
31 48 48
36 55 54
19 38 28
30 52 47
22 39 35
31 44 48
27 37 41
27 45 42
22 37 34
33 47 50
26 41 41
40 52 61
27 42 39
36 50 56
28 46 44
30 44 45
28 42 45
34 50 54
22 39 36
27 37 40
35 49 56
20 35 28
29 46 46
31 48 46
27 44 41
38 56 56
27 42 43
24 37 37
19 36 29
26 39 37
24 39 36
28 44 43
32 47 49
32 50 51
27 42 40
33 50 52
26 37 35
28 38 40
30 42 46
32 45 48
24 40 36
27 45 41
30 44 45
31 45 49
28 39 43
34 46 47
25 40 38
27 40 40
22 33 34
35 48 54
33 47 53
23 36 34
27 39 42
31 41 46
20 29 27
22 35 35
28 46 41
22 34 35
32 48 51
16 30 25
24 37 37
31 43 45
27 41 42
31 42 41
32 43 48
25 38 36
30 43 46
17 29 23
27 35 39
23 31 32
30 42 42
18 25 24
28 41 41
31 45 47
21 27 27
23 35 32
19 30 27
27 37 40
26 32 36
29 38 41
22 30 27
22 28 29
21 24 27
23 30 32
23 29 31
18 25 27
18 27 25
20 24 25
23 29 31
19 22 23
22 29 32
18 20 19
14 20 21
15 19 21
18 23 25
18 23 23
14 21 17
31 1 1
26 0 0
33 0 0
27 0 0
29 0 0
33 0 0
39 0 0
27 0 0
26 0 0
34 0 0
40 0 0
34 0 0
29 0 0
34 0 0
22 0 0
30 0 0
35 0 0
37 0 0
34 0 0
34 0 0
35 0 0
36 0 0
47 0 0
36 0 0
24 0 0
38 0 0
37 0 0
31 0 0
34 0 0
40 0 0
37 0 0
34 0 0
37 0 0
33 0 0
33 0 0
40 0 0
39 0 0
31 0 0
45 0 0
36 0 0
29 0 0
27 0 0
40 0 0
31 0 0
29 0 0
34 0 0
33 0 0
27 0 0
30 0 0
35 0 0
28 0 0
38 0 0
31 0 0
33 0 0
38 0 0
46 0 0
43 0 0
44 0 0
34 0 0
30 0 0
28 0 0
33 0 0
33 0 0
33 0 0
32 0 0
28 0 0
31 0 0
32 0 0
38 0 0
31 0 0
35 0 0
30 0 0
39 0 0
36 0 0
35 0 0
32 0 0
31 0 0
38 0 0
30 0 0
33 0 0
33 0 0
34 0 0
37 0 0
31 0 0
31 0 0
43 0 0
33 0 0
32 0 0
32 0 0
40 0 0
33 0 0
37 0 0
37 0 0
37 0 0
31 0 0
34 0 0
34 0 0
29 0 0
32 0 0
31 0 0
38 0 0
36 0 0
33 0 0
34 0 0
39 0 0
30 0 0
34 0 0
35 0 0
32 0 0
40 0 0
35 0 0
30 0 0
39 0 0
30 0 0
33 0 0
32 0 0
27 0 0
31 0 0
37 0 0
29 0 0
30 0 0
26 0 0
31 0 0
30 0 0
27 0 0
30 0 0
29 0 0
32 0 0
28 0 0
21 0 1
0 0 23
0 0 18
0 0 32
0 0 17
0 0 23
0 0 31
0 0 20
0 0 27
0 0 15
0 0 31
0 0 16
0 0 31
0 0 40
0 0 30
0 0 32
0 0 37
0 0 33
0 0 42
0 0 35
0 0 34
0 0 28
0 0 36
0 0 37
0 0 29
0 0 38
0 0 31
0 0 27
0 0 29
0 0 37
0 0 40
0 0 36
0 0 26
0 0 29
0 0 28
0 0 42
0 0 39
0 0 32
0 0 40
0 0 30
0 0 50
0 0 28
0 0 36
0 0 40
0 0 43
0 0 40
0 0 44
0 0 49
0 0 56
0 0 33
0 0 53
0 0 42
0 0 32
0 0 49
0 0 48
0 0 38
0 0 37
0 0 27
0 0 45
0 0 30
0 0 48
0 0 39
0 0 48
0 0 31
0 0 44
0 0 44
0 0 41
0 0 32
0 0 40
0 0 50
0 0 48
0 0 47
0 0 52
0 0 39
0 0 54
0 0 35
0 0 39
0 0 43
0 0 43
0 0 45
0 0 38
0 0 43
0 0 46
0 0 44
0 0 40
0 0 38
0 0 54
0 0 45
0 0 49
0 0 39
0 0 37
0 0 54
0 0 54
0 0 41
0 0 58
0 0 56
0 0 30
0 0 45
0 0 49
0 0 51
0 0 31
0 0 47
0 0 42
0 0 38
0 0 37
0 0 43
0 0 45
0 0 59
0 0 40
0 0 48
0 0 60
0 0 47
0 0 41
0 0 46
0 0 48
0 0 44
0 0 44
0 0 54
0 0 51
0 0 52
0 0 51
0 0 45
0 0 50
0 0 47
0 0 45
0 0 44
0 0 46
0 0 45
0 0 49
0 0 45
0 0 60
0 0 41
0 0 41
0 0 49
0 0 48
0 0 48
25 46 40
32 51 51
36 53 57
34 51 54
36 55 56
30 46 44
32 49 50
31 51 48
26 47 40
27 50 43
36 54 53
34 51 53
22 40 35
34 47 52
23 43 37
30 46 48
27 43 43
33 48 52
30 45 47
38 56 58
31 53 50
36 58 57
27 44 42
20 39 31
32 50 51
20 38 31
24 41 37
27 44 40
31 50 46
38 56 59
32 49 51
24 44 38
27 43 42
44 60 70
30 49 47
35 49 54
30 44 46
30 47 46
32 51 51
38 56 57
35 53 54
35 55 52
31 47 49
27 42 41
32 48 50
31 41 46
28 46 44
31 49 48
28 44 43
27 41 40
21 35 32
36 54 54
22 35 34
25 38 38
25 42 39
29 45 45
32 48 47
30 48 47
30 49 45
32 48 51
29 46 44
27 42 43
29 46 44
30 44 45
26 38 41
28 40 42
33 51 52
30 44 45
29 45 45
30 43 45
34 51 52
24 34 33
27 37 41
26 41 40
22 40 35
20 34 31
25 35 36
27 42 44
22 35 36
30 41 45
31 51 49
28 42 45
29 44 43
33 47 50
25 42 37
33 43 49
27 42 37
25 35 35
32 44 46
22 37 33
26 35 37
31 39 46
16 25 20
25 35 38
25 34 36
26 42 40
21 36 31
34 48 51
24 32 34
27 39 39
23 34 31
23 28 31
24 33 36
19 31 27
27 38 38
25 37 33
21 29 31
29 42 44
25 33 36
27 40 41
19 32 30
24 33 36
29 39 43
19 28 26
26 33 37
19 29 32
26 36 39
20 28 28
26 36 37
21 28 30
23 29 29
17 26 25
20 32 29
22 29 31
26 31 36
26 32 34
18 25 22
13 16 16
13 17 16
19 26 24
19 24 25
26 27 31
18 22 24
15 17 19
18 22 24
29 0 0
31 0 0
25 0 0
34 0 0
33 0 0
40 0 0
33 0 0
35 0 0
33 0 0
37 0 0
36 0 0
40 0 0
33 0 0
44 0 0
31 0 0
30 0 0
39 0 0
32 0 0
38 0 0
32 0 0
32 0 0
32 0 0
34 0 0
30 0 0
36 0 0
36 0 0
30 0 0
39 0 0
29 0 0
26 0 0
33 0 0
41 0 0
34 0 0
35 0 0
37 0 0
31 0 0
39 0 0
32 0 0
35 0 0
35 0 0
36 0 0
32 0 0
33 0 0
39 0 0
39 0 0
30 0 0
25 0 0
34 0 0
41 0 0
35 0 0
36 0 0
33 0 0
33 0 0
33 0 0
33 0 0
37 0 0
26 0 0
33 0 0
36 0 0
32 0 0
37 0 0
38 0 0
30 0 0
41 0 0
36 0 0
32 0 0
33 0 0
43 0 0
35 0 0
35 0 0
28 0 0
36 0 0
36 0 0
26 0 0
29 0 0
32 0 0
38 0 0
33 0 0
37 0 0
29 0 0
30 0 0
36 0 0
31 0 0
33 0 0
40 0 0
34 0 0
33 0 0
33 0 0
27 0 0
25 0 0
38 0 0
33 0 0
31 0 0
28 0 0
38 0 0
36 0 0
36 0 0
30 0 0
37 0 0
25 0 0
36 0 0
38 0 0
30 0 0
32 0 0
43 0 0
34 0 0
37 0 0
29 0 0
38 0 0
34 0 0
26 0 0
30 0 0
32 0 0
29 0 0
45 0 0
35 0 0
36 0 0
37 0 0
26 0 0
34 0 0
35 0 0
25 0 0
28 0 0
26 0 0
28 0 0
33 0 0
28 0 0
30 0 0
30 0 0
26 0 0
0 0 23
0 0 18
0 0 25
0 0 20
0 0 20
0 0 28
0 0 26
0 0 23
0 0 31
0 0 24
0 0 37
0 0 28
0 0 27
0 0 34
0 0 25
0 0 16
0 0 41
0 0 30
0 0 32
0 0 39
0 0 27
0 0 44
0 0 26
0 0 33
0 0 45
0 0 46
0 0 26
0 0 36
0 0 37
0 0 27
0 0 32
0 0 36
0 0 37
0 0 27
0 0 32
0 0 44
0 0 44
0 0 38
0 0 32
0 0 41
0 0 39
0 0 40
0 0 42
0 0 36
0 0 32
0 0 43
0 0 42
0 0 43
0 0 34
0 0 48
0 0 29
0 0 39
0 0 48
0 0 37
0 0 29
0 0 28
0 0 39
0 0 45
0 0 39
0 0 33
0 0 41
0 0 33
0 0 36
0 0 36
0 0 46
0 0 42
0 0 41
0 0 43
0 0 44
0 0 33
0 0 38
0 0 47
0 0 34
0 0 31
0 0 42
0 0 25
0 0 47
0 0 43
0 0 41
0 0 50
0 0 41
0 0 43
0 0 37
0 0 46
0 0 42
0 0 47
0 0 44
0 0 42
0 0 37
0 0 36
0 0 39
0 0 39
0 0 54
0 0 52
0 0 43
0 0 40
0 0 33
0 0 44
0 0 47
0 0 56
0 0 38
0 0 52
0 0 54
0 0 56
0 0 44
0 0 42
0 0 42
0 0 39
0 0 43
0 0 41
0 0 40
0 0 39
0 0 39
0 0 41
0 0 47
0 0 43
0 0 46
0 0 39
0 0 51
0 0 55
0 0 55
0 0 51
0 0 49
0 0 40
0 0 48
0 0 57
0 0 36
0 0 54
0 0 50
0 0 51
0 0 51
0 0 59
0 0 50
0 0 35
0 0 51
27 44 39
27 47 41
32 48 51
29 47 47
32 50 51
33 51 52
36 53 56
29 46 46
31 48 45
33 49 51
31 47 47
26 47 41
29 47 45
31 46 49
34 55 54
33 56 52
27 48 42
24 42 37
33 50 50
30 47 44
36 56 57
22 38 36
33 50 51
27 46 44
28 43 42
24 41 36
33 51 53
29 44 46
26 46 42
33 50 52
34 51 55
18 37 28
33 49 50
27 44 42
28 43 42
29 47 45
34 53 53
30 44 47
28 42 43
32 51 53
30 44 47
34 49 53
20 36 31
34 53 54
32 47 49
32 46 52
31 50 47
40 54 59
32 52 53
29 44 44
25 42 39
30 45 48
31 48 49
31 48 48
33 45 49
31 45 45
36 51 56
30 47 47
27 40 42
27 45 42
31 46 47
24 39 38
26 46 39
29 43 45
31 43 44
24 37 36
30 48 45
29 40 42
23 37 35
28 40 41
29 42 43
30 47 46
27 38 38
36 52 56
28 40 39
21 32 30
28 41 43
25 43 39
28 42 41
28 45 43
20 31 29
23 33 35
30 41 44
29 41 41
27 37 36
26 37 38
26 44 40
24 41 39
22 39 36
26 39 39
27 41 40
23 38 33
34 50 51
24 41 35
26 35 36
27 41 37
27 41 40
24 36 36
28 39 41
29 45 46
21 29 31
21 30 31
20 29 29
28 42 46
23 39 35
24 36 35
29 40 42
18 25 26
35 44 48
18 33 27
21 33 33
28 39 44
25 39 39
15 19 16
27 38 39
19 28 28
16 25 23
21 29 28
14 21 21
25 29 30
22 31 30
18 22 23
20 26 25
21 28 30
17 26 25
27 38 42
20 28 28
12 16 10
19 24 27
18 22 24
14 19 18
20 22 24
15 19 19
18 22 26
13 20 19
26 0 0
25 0 0
29 0 0
31 0 0
27 0 0
29 0 0
37 0 0
34 0 0
33 0 0
34 0 0
37 0 0
25 0 0
38 0 0
36 0 0
36 0 0
36 0 0
26 0 0
37 0 0
33 0 0
35 0 0
27 0 0
35 0 0
38 0 0
27 0 0
38 0 0
30 0 0
31 0 0
36 0 0
41 0 0
35 0 0
36 0 0
29 0 0
45 0 0
31 0 0
39 0 0
34 0 0
30 0 0
38 0 0
26 0 0
29 0 0
28 0 0
31 0 0
33 0 0
33 0 0
31 0 0
22 0 0
31 0 0
36 0 0
38 0 0
35 0 0
36 0 0
30 0 0
34 0 0
32 0 0
27 0 0
34 0 0
34 0 0
26 0 0
37 0 0
32 0 0
31 0 0
29 0 0
38 0 0
34 0 0
40 0 0
37 0 0
41 0 0
35 0 0
30 0 0
37 0 0
30 0 0
30 0 0
35 0 0
33 0 0
37 0 0
32 0 0
33 0 0
27 0 0
44 0 0
24 0 0
41 0 0
32 0 0
31 0 0
33 0 0
33 0 0
41 0 0
24 0 0
32 0 0
40 0 0
32 0 0
25 0 0
36 0 0
30 0 0
37 0 0
37 0 0
29 0 0
24 0 0
41 0 0
32 0 0
34 0 0
32 0 0
36 0 0
35 0 0
33 0 0
33 0 0
44 0 0
32 0 0
29 0 0
35 0 0
35 0 0
29 0 0
36 0 0
34 0 0
37 0 0
31 0 0
31 0 0
37 0 0
32 0 0
24 0 0
32 0 0
36 0 0
28 0 0
30 0 0
33 0 0
27 0 0
26 0 0
28 0 0
26 0 0
17 0 0
25 0 1
0 0 14
0 0 20
0 0 11
0 0 13
0 0 19
0 0 28
0 0 19
0 0 22
0 0 16
0 0 30
0 0 25
0 0 32
0 0 17
0 0 33
0 0 30
0 0 31
0 0 38
0 0 25
0 0 28
0 0 28
0 0 25
0 0 31
0 0 28
0 0 29
0 0 31
0 0 35
0 0 25
0 0 39
0 0 30
0 0 36
0 0 35
0 0 31
0 0 43
0 0 44
0 0 41
0 0 37
0 0 34
0 0 42
0 0 40
0 0 42
0 0 42
0 0 36
0 0 35
0 0 25
0 0 46
0 0 37
0 0 41
0 0 33
0 0 54
0 0 35
0 0 25
0 0 54
0 0 43
0 0 32
0 0 39
0 0 40
0 0 45
0 0 42
0 0 33
0 0 39
0 0 43
0 0 44
0 0 40
0 0 47
0 0 41
0 0 38
0 0 36
0 0 37
0 0 28
0 0 41
0 0 38
0 0 50
0 0 43
0 0 39
0 0 34
0 0 40
0 0 39
0 0 41
0 0 44
0 0 29
0 0 47
0 0 44
0 0 42
0 0 41
0 0 39
0 0 52
0 0 48
0 0 41
0 0 43
0 0 43
0 0 52
0 0 34
0 0 47
0 0 42
0 0 40
0 0 50
0 0 56
0 0 40
0 0 44
0 0 39
0 0 45
0 0 36
0 0 46
0 0 40
0 0 60
0 0 26
0 0 53
0 0 43
0 0 44
0 0 46
0 0 59
0 0 38
0 0 46
0 0 56
0 0 43
0 0 51
0 0 39
0 0 41
0 0 39
0 0 32
0 0 41
0 0 43
0 0 51
0 0 40
0 0 32
0 0 46
0 0 54
0 0 51
0 0 57
0 0 51
0 0 40
0 0 56
0 0 47
0 0 58
0 0 38
36 59 58
27 52 44
38 53 58
24 39 38
29 47 47
27 46 44
33 53 52
33 49 53
32 50 49
37 53 56
27 46 41
23 39 36
30 47 48
31 49 50
26 41 40
32 52 48
31 48 50
35 53 53
26 41 40
27 45 41
31 48 51
29 44 46
34 50 52
23 43 37
31 49 50
26 44 41
31 47 49
31 49 47
36 52 54
31 46 49
31 51 49
25 44 40
39 55 60
29 49 46
28 46 45
33 49 53
29 51 46
30 49 47
22 35 34
29 48 46
23 38 34
27 49 43
34 52 54
25 37 36
27 45 43
25 41 40
26 43 42
25 41 38
23 41 37
26 40 40
26 41 40
25 41 38
21 39 33
25 40 36
28 39 39
21 36 32
24 39 34
27 43 43
36 52 54
23 37 38
26 42 40
29 44 45
21 35 33
31 43 45
31 47 47
32 47 50
24 34 36
31 47 50
30 44 47
38 58 59
28 44 39
31 50 50
33 48 49
29 42 43
36 53 54
23 32 33
27 43 41
25 41 35
23 36 36
21 35 34
28 42 43
21 34 32
28 42 40
29 43 43
22 35 35
25 40 36
21 37 33
36 48 52
27 40 41
29 40 44
25 41 36
27 38 39
31 45 47
26 44 39
24 32 35
19 30 26
31 45 45
30 40 45
25 37 37
30 40 39
30 45 45
31 46 46
24 36 34
31 39 44
27 40 40
23 41 34
27 41 41
26 35 34
21 33 31
25 34 34
28 40 40
25 32 34
22 36 35
19 31 31
22 28 29
21 27 30
19 24 26
24 34 36
22 28 29
30 37 41
19 25 25
21 32 30
21 30 28
13 20 18
18 25 24
14 15 14
16 21 19
18 23 22
24 29 32
16 15 17
12 20 15
8 12 8
18 19 22
15 16 14
7 8 9
22 0 0
29 0 0
20 0 0
28 0 0
26 0 0
32 0 0
29 0 0
29 0 0
31 0 0
28 0 0
32 0 0
35 0 0
28 0 0
34 0 0
34 0 0
29 0 0
32 0 0
42 0 0
40 0 0
33 0 0
32 0 0
34 0 0
28 0 0
22 0 0
26 0 0
35 0 0
36 0 0
37 0 0
39 0 0
33 0 0
34 0 0
33 0 0
25 0 0
34 0 0
31 0 0
30 0 0
29 0 0
29 0 0
36 0 0
27 0 0
35 0 0
30 0 0
28 0 0
30 0 0
28 0 0
30 0 0
37 0 0
29 0 0
27 0 0
40 0 0
34 0 0
42 0 0
35 0 0
35 0 0
43 0 0
33 0 0
37 0 0
31 0 0
32 0 0
35 0 0
33 0 0
30 0 0
31 0 0
32 0 0
32 0 0
38 0 0
29 0 0
30 0 0
29 0 0
28 0 0
31 0 0
26 0 0
36 0 0
25 0 0
36 0 0
44 0 0
34 0 0
38 0 0
37 0 0
27 0 0
39 0 0
33 0 0
31 0 0
36 0 0
28 0 0
33 0 0
39 0 0
33 0 0
33 0 0
33 0 0
29 0 0
32 0 0
28 0 0
31 0 0
35 0 0
31 0 0
34 0 0
32 0 0
33 0 0
32 0 0
32 0 0
39 0 0
36 0 0
29 0 0
27 0 0
31 0 0
25 0 0
29 0 0
39 0 0
29 0 0
39 0 0
35 0 0
35 0 0
30 0 0
37 0 0
29 0 0
33 0 0
28 0 0
33 0 0
38 0 0
23 0 0
34 0 0
27 0 0
35 0 0
28 0 0
31 0 0
35 0 0
23 0 0
26 0 0
19 0 0
0 0 18
0 0 12
0 0 18
0 0 17
0 0 30
0 0 16
0 0 17
0 0 15
0 0 20
0 0 20
0 0 25
0 0 28
0 0 23
0 0 30
0 0 18
0 0 29
0 0 27
0 0 37
0 0 34
0 0 34
0 0 33
0 0 31
0 0 43
0 0 38
0 0 41
0 0 29
0 0 31
0 0 30
0 0 24
0 0 35
0 0 27
0 0 34
0 0 36
0 0 40
0 0 35
0 0 37
0 0 36
0 0 42
0 0 38
0 0 35
0 0 49
0 0 28
0 0 44
0 0 35
0 0 42
0 0 46
0 0 38
0 0 35
0 0 39
0 0 32
0 0 38
0 0 50
0 0 36
0 0 34
0 0 47
0 0 51
0 0 46
0 0 27
0 0 41
0 0 50
0 0 39
0 0 46
0 0 44
0 0 48
0 0 35
0 0 42
0 0 37
0 0 32
0 0 43
0 0 38
0 0 36
0 0 46
0 0 39
0 0 31
0 0 30
0 0 62
0 0 43
0 0 47
0 0 36
0 0 51
0 0 47
0 0 36
0 0 45
0 0 48
0 0 38
0 0 52
0 0 48
0 0 37
0 0 49
0 0 43
0 0 32
0 0 48
0 0 45
0 0 39
0 0 43
0 0 56
0 0 45
0 0 46
0 0 43
0 0 43
0 0 40
0 0 43
0 0 43
0 0 41
0 0 37
0 0 27
0 0 43
0 0 42
0 0 36
0 0 26
0 0 50
0 0 38
0 0 33
0 0 58
0 0 46
0 0 45
0 0 48
0 0 41
0 0 43
0 0 49
0 0 41
0 0 48
0 0 46
0 0 47
0 0 38
0 0 57
0 0 48
0 0 51
0 0 49
0 0 53
0 0 57
0 0 42
0 0 50
0 0 42
0 0 44
26 41 42
33 51 50
25 42 39
32 50 51
27 45 42
35 56 56
18 36 28
33 51 52
23 38 35
29 48 44
24 40 37
32 48 50
26 43 42
30 48 45
35 51 55
33 49 53
31 55 49
30 49 44
31 51 50
24 41 37
34 51 52
35 46 51
32 52 51
29 45 45
27 50 44
30 47 47
27 46 43
30 46 46
23 46 35
27 40 42
32 51 52
26 43 43
30 42 44
31 45 48
32 46 50
29 51 44
31 46 48
27 43 41
32 48 51
26 47 41
29 43 44
25 42 37
25 41 37
25 39 38
33 50 52
19 35 30
27 40 39
32 52 50
28 47 43
31 45 48
29 45 44
21 37 32
27 42 41
27 44 42
25 41 39
26 41 38
31 47 49
27 44 42
22 37 34
23 35 36
24 42 37
29 49 46
24 36 33
30 48 47
30 44 46
35 49 51
24 40 39
22 37 32
32 45 48
28 39 40
36 55 56
24 39 33
27 36 38
22 37 33
29 42 43
23 36 36
25 39 39
31 46 47
28 41 41
24 42 36
26 42 43
21 30 28
22 34 34
32 48 48
23 31 33
26 36 38
26 39 39
21 31 32
29 42 42
26 41 40
21 33 30
27 40 38
26 35 37
24 37 36
30 44 43
27 35 34
27 37 40
31 43 47
21 35 30
27 38 40
21 32 30
22 34 33
25 39 37
20 35 31
24 36 35
23 34 35
27 35 38
24 33 37
26 39 38
19 22 22
23 33 33
24 36 38
24 37 34
24 31 32
20 25 23
17 25 23
19 25 26
17 25 23
24 33 35
16 22 19
15 19 16
19 26 26
15 23 20
20 29 28
19 26 25
17 20 18
22 31 32
23 30 30
20 28 28
13 17 16
16 20 22
15 17 18
11 13 9
17 19 20
8 14 12
23 4 5
28 0 0
26 0 0
24 0 0
25 0 0
38 0 0
32 0 0
34 0 0
29 0 0
32 0 0
36 0 0
31 0 0
36 0 0
34 0 0
32 0 0
34 0 0
31 0 0
28 0 0
36 0 0
31 0 0
43 0 0
25 0 0
27 0 0
30 0 0
40 0 0
35 0 0
39 0 0
33 0 0
40 0 0
39 0 0
25 0 0
31 0 0
34 0 0
37 0 0
28 0 0
33 0 0
37 0 0
34 0 0
31 0 0
33 0 0
33 0 0
32 0 0
28 0 0
26 0 0
37 0 0
33 0 0
29 0 0
29 0 0
30 0 0
28 0 0
32 0 0
36 0 0
38 0 0
34 0 0
33 0 0
29 0 0
32 0 0
29 0 0
36 0 0
33 0 0
24 0 0
32 0 0
36 0 0
34 0 0
35 0 0
33 0 0
34 0 0
36 0 0
38 0 0
28 0 0
24 0 0
26 0 0
28 0 0
37 0 0
29 0 0
32 0 0
34 0 0
31 0 0
36 0 0
23 0 0
29 0 0
32 0 0
37 0 0
35 0 0
36 0 0
36 0 0
29 0 0
35 0 0
28 0 0
33 0 0
41 0 0
29 0 0
34 0 0
33 0 0
27 0 0
30 0 0
31 0 0
28 0 0
37 0 0
31 0 0
31 0 0
22 0 0
39 0 0
33 0 0
31 0 0
31 0 0
34 0 0
33 0 0
29 0 0
34 0 0
28 0 0
33 0 0
28 0 0
26 0 0
35 0 0
35 0 0
34 0 0
36 0 0
33 0 0
30 0 0
32 0 0
22 0 0
41 0 0
33 0 0
28 0 0
24 0 0
29 0 0
26 0 0
32 0 0
20 0 2
0 0 21
0 0 21
0 0 9
0 0 23
0 0 17
0 0 17
0 0 23
0 0 25
0 0 20
0 0 15
0 0 26
0 0 36
0 0 20
0 0 22
0 0 32
0 0 31
0 0 27
0 0 34
0 0 30
0 0 37
0 0 31
0 0 31
0 0 37
0 0 29
0 0 34
0 0 28
0 0 20
0 0 39
0 0 26
0 0 39
0 0 35
0 0 29
0 0 29
0 0 39
0 0 30
0 0 36
0 0 38
0 0 27
0 0 39
0 0 44
0 0 42
0 0 39
0 0 42
0 0 32
0 0 41
0 0 40
0 0 46
0 0 37
0 0 39
0 0 49
0 0 40
0 0 39
0 0 32
0 0 27
0 0 48
0 0 40
0 0 49
0 0 31
0 0 45
0 0 31
0 0 27
0 0 39
0 0 43
0 0 41
0 0 41
0 0 40
0 0 35
0 0 45
0 0 38
0 0 35
0 0 39
0 0 39
0 0 38
0 0 38
0 0 46
0 0 52
0 0 44
0 0 51
0 0 50
0 0 41
0 0 47
0 0 37
0 0 53
0 0 48
0 0 40
0 0 51
0 0 44
0 0 36
0 0 39
0 0 29
0 0 47
0 0 39
0 0 33
0 0 44
0 0 49
0 0 39
0 0 36
0 0 39
0 0 47
0 0 56
0 0 37
0 0 46
0 0 53
0 0 44
0 0 51
0 0 35
0 0 43
0 0 50
0 0 38
0 0 29
0 0 40
0 0 37
0 0 28
0 0 42
0 0 41
0 0 52
0 0 42
0 0 46
0 0 53
0 0 48
0 0 47
0 0 45
0 0 43
0 0 39
0 0 41
0 0 47
0 0 39
0 0 41
0 0 49
0 0 40
0 0 51
0 0 34
0 0 55
0 0 34
0 0 52
29 47 44
31 51 50
26 44 40
35 50 54
29 47 44
25 47 39
39 56 61
36 53 56
37 62 57
26 43 41
31 48 48
29 50 48
25 44 38
30 48 47
25 42 39
24 41 38
32 49 50
32 52 52
18 36 27
25 38 38
33 53 51
19 39 32
36 55 57
32 53 49
27 44 41
38 52 56
31 50 49
30 49 47
34 52 53
28 46 45
25 41 39
28 41 43
26 41 39
34 52 55
19 35 28
26 38 39
33 50 52
33 50 49
31 49 47
23 37 36
30 44 46
34 49 51
30 49 47
27 42 39
27 45 41
30 47 48
28 44 44
27 42 42
26 39 38
29 44 46
26 39 39
25 37 36
22 39 34
33 52 52
30 43 44
24 38 36
29 44 42
32 47 52
27 42 40
29 47 46
30 43 46
29 40 44
25 40 37
28 43 43
31 50 49
22 42 35
25 40 35
29 42 45
21 40 34
31 50 49
34 51 53
26 43 39
19 35 29
33 47 47
27 44 39
30 48 47
33 44 48
21 34 34
29 40 42
23 38 34
23 34 35
29 44 46
27 36 39
27 41 41
29 44 41
20 38 29
26 36 38
23 37 34
23 40 32
26 37 38
27 40 40
30 45 46
31 43 45
24 37 37
21 32 30
18 32 28
27 41 38
26 36 41
18 28 26
25 40 38
24 33 32
23 33 30
22 32 32
20 27 27
27 37 38
18 31 28
29 41 41
19 33 28
22 33 32
26 40 37
19 27 24
19 28 26
17 26 26
15 29 23
21 27 26
15 22 18
17 27 23
22 29 29
21 31 27
25 31 32
18 27 26
17 23 22
21 27 31
16 23 23
24 30 31
14 19 19
18 22 21
15 20 20
13 16 15
14 18 16
14 19 19
11 18 15
12 17 17
14 20 15
12 19 14
18 6 6
33 0 0
22 0 0
24 0 0
31 0 0
36 0 0
34 0 0
34 0 0
38 0 0
40 0 0
38 0 0
29 0 0
36 0 0
27 0 0
38 0 0
28 0 0
34 0 0
32 0 0
27 0 0
34 0 0
35 0 0
27 0 0
28 0 0
30 0 0
38 0 0
26 0 0
29 0 0
27 0 0
41 0 0
30 0 0
31 0 0
43 0 0
27 0 0
36 0 0
39 0 0
32 0 0
34 0 0
35 0 0
28 0 0
34 0 0
40 0 0
32 0 0
41 0 0
30 0 0
34 0 0
29 0 0
32 0 0
31 0 0
30 0 0
34 0 0
43 0 0
33 0 0
28 0 0
39 0 0
35 0 0
31 0 0
28 0 0
33 0 0
42 0 0
29 0 0
29 0 0
36 0 0
33 0 0
36 0 0
32 0 0
30 0 0
29 0 0
41 0 0
28 0 0
38 0 0
43 0 0
32 0 0
28 0 0
33 0 0
31 0 0
39 0 0
33 0 0
29 0 0
32 0 0
32 0 0
25 0 0
31 0 0
25 0 0
39 0 0
36 0 0
35 0 0
36 0 0
28 0 0
28 0 0
33 0 0
25 0 0
32 0 0
25 0 0
38 0 0
24 0 0
29 0 0
32 0 0
33 0 0
35 0 0
37 0 0
26 0 0
35 0 0
29 0 0
34 0 0
33 0 0
28 0 0
29 0 0
37 0 0
27 0 0
34 0 0
40 0 0
31 0 0
27 0 0
30 0 0
25 0 0
36 0 0
34 0 0
36 0 0
35 0 0
39 0 0
31 0 0
37 0 0
30 0 0
28 0 0
25 0 0
26 0 0
26 0 0
33 0 0
25 0 0
14 0 4
0 0 18
0 0 16
0 0 27
0 0 15
0 0 14
0 0 15
0 0 16
0 0 23
0 0 24
0 0 23
0 0 18
0 0 21
0 0 22
0 0 26
0 0 24
0 0 35
0 0 19
0 0 22
0 0 28
0 0 27
0 0 23
0 0 28
0 0 28
0 0 40
0 0 31
0 0 26
0 0 35
0 0 28
0 0 43
0 0 24
0 0 36
0 0 37
0 0 44
0 0 30
0 0 37
0 0 36
0 0 44
0 0 28
0 0 53
0 0 32
0 0 32
0 0 31
0 0 57
0 0 51
0 0 44
0 0 36
0 0 39
0 0 50
0 0 42
0 0 31
0 0 34
0 0 40
0 0 32
0 0 34
0 0 29
0 0 40
0 0 37
0 0 56
0 0 58
0 0 40
0 0 27
0 0 41
0 0 33
0 0 36
0 0 33
0 0 35
0 0 34
0 0 43
0 0 46
0 0 43
0 0 45
0 0 22
0 0 46
0 0 47
0 0 42
0 0 45
0 0 42
0 0 47
0 0 35
0 0 40
0 0 40
0 0 45
0 0 47
0 0 45
0 0 36
0 0 46
0 0 39
0 0 42
0 0 46
0 0 42
0 0 41
0 0 49
0 0 39
0 0 37
0 0 41
0 0 35
0 0 44
0 0 31
0 0 52
0 0 39
0 0 47
0 0 45
0 0 43
0 0 53
0 0 40
0 0 51
0 0 46
0 0 42
0 0 59
0 0 46
0 0 37
0 0 49
0 0 49
0 0 57
0 0 49
0 0 47
0 0 45
0 0 40
0 0 45
0 0 36
0 0 55
0 0 46
0 0 39
0 0 48
0 0 40
0 0 49
0 0 34
0 0 55
0 0 37
0 0 53
0 0 37
0 0 45
0 0 43
0 0 45
0 0 55
36 55 57
30 49 49
33 49 51
28 49 41
31 47 48
27 44 43
29 51 45
26 42 40
28 47 44
26 43 41
34 55 52
29 46 45
25 46 38
26 40 40
26 42 40
29 47 46
25 46 39
24 44 37
29 45 44
33 54 52
30 49 47
34 50 53
21 37 34
24 44 37
28 48 45
17 36 26
31 45 48
21 39 33
25 44 38
28 43 42
23 39 36
34 52 52
29 45 45
24 43 38
33 49 54
20 37 31
30 44 49
25 44 40
30 46 46
27 48 42
23 36 35
30 48 46
20 37 32
35 52 56
33 47 50
36 53 54
34 51 52
24 40 38
25 39 39
27 41 38
29 42 45
28 43 43
28 45 43
24 39 37
28 41 42
32 45 48
24 39 36
30 45 46
28 43 44
27 42 39
26 42 39
27 41 44
31 48 48
30 43 43
24 40 36
22 38 34
27 44 42
26 43 38
30 43 46
24 43 39
27 38 40
34 50 53
29 43 44
27 45 44
24 39 37
30 45 46
21 38 33
28 42 40
28 41 40
21 36 36
27 41 41
15 28 23
36 48 54
27 41 40
23 35 36
30 47 43
27 40 39
28 38 40
30 39 42
21 33 30
25 35 31
28 43 42
24 41 35
22 35 33
23 35 35
27 38 38
31 47 45
31 41 46
24 37 35
27 39 37
19 28 28
23 36 36
26 39 40
19 31 28
22 33 30
20 33 31
22 31 31
18 23 22
19 31 29
16 31 25
24 31 33
22 31 32
23 30 34
18 28 22
23 33 34
15 24 20
21 27 28
21 27 26
16 24 21
21 28 28
16 30 24
15 27 21
18 26 25
15 24 18
12 20 15
17 18 19
14 21 17
13 21 19
11 18 14
10 15 12
10 14 10
15 21 22
11 13 13
9 14 11
11 15 15
17 14 14
29 0 0
24 0 0
36 0 0
31 0 0
32 0 0
30 0 0
24 0 0
23 0 0
31 0 0
32 0 0
41 0 0
32 0 0
26 0 0
29 0 0
26 0 0
32 0 0
37 0 0
26 0 0
36 0 0
41 0 0
27 0 0
43 0 0
24 0 0
33 0 0
35 0 0
30 0 0
30 0 0
37 0 0
35 0 0
31 0 0
30 0 0
30 0 0
30 0 0
34 0 0
37 0 0
28 0 0
36 0 0
29 0 0
23 0 0
27 0 0
34 0 0
31 0 0
35 0 0
35 0 0
29 0 0
43 0 0
32 0 0
30 0 0
30 0 0
26 0 0
43 0 0
37 0 0
34 0 0
30 0 0
27 0 0
36 0 0
38 0 0
36 0 0
28 0 0
34 0 0
33 0 0
25 0 0
36 0 0
35 0 0
34 0 0
32 0 0
36 0 0
32 0 0
39 0 0
29 0 0
31 0 0
30 0 0
25 0 0
28 0 0
35 0 0
30 0 0
35 0 0
26 0 0
37 0 0
35 0 0
35 0 0
25 0 0
31 0 0
28 0 0
31 0 0
35 0 0
31 0 0
29 0 0
35 0 0
29 0 0
41 0 0
27 0 0
31 0 0
28 0 0
36 0 0
38 0 0
28 0 0
32 0 0
26 0 0
27 0 0
31 0 0
30 0 0
23 0 0
30 0 0
29 0 0
21 0 0
32 0 0
35 0 0
30 0 0
28 0 0
32 0 0
25 0 0
34 0 0
23 0 0
33 0 0
31 0 0
32 0 0
22 0 0
31 0 0
24 0 0
35 0 0
34 0 0
33 0 0
27 0 0
33 0 0
38 0 0
25 0 0
23 0 0
5 0 12
0 0 11
0 0 14
0 0 10
0 0 11
0 0 23
0 0 24
0 0 14
0 0 17
0 0 18
0 0 18
0 0 18
0 0 31
0 0 23
0 0 21
0 0 23
0 0 30
0 0 26
0 0 17
0 0 19
0 0 25
0 0 25
0 0 30
0 0 28
0 0 32
0 0 39
0 0 29
0 0 23
0 0 32
0 0 34
0 0 32
0 0 26
0 0 32
0 0 32
0 0 24
0 0 40
0 0 38
0 0 34
0 0 34
0 0 39
0 0 32
0 0 31
0 0 38
0 0 25
0 0 35
0 0 42
0 0 34
0 0 39
0 0 34
0 0 41
0 0 29
0 0 38
0 0 43
0 0 31
0 0 43
0 0 40
0 0 41
0 0 35
0 0 43
0 0 36
0 0 35
0 0 33
0 0 23
0 0 37
0 0 44
0 0 34
0 0 41
0 0 35
0 0 41
0 0 38
0 0 38
0 0 39
0 0 35
0 0 42
0 0 46
0 0 28
0 0 49
0 0 42
0 0 41
0 0 32
0 0 39
0 0 33
0 0 48
0 0 46
0 0 40
0 0 33
0 0 45
0 0 31
0 0 41
0 0 29
0 0 48
0 0 41
0 0 52
0 0 45
0 0 29
0 0 44
0 0 35
0 0 41
0 0 41
0 0 43
0 0 40
0 0 39
0 0 41
0 0 43
0 0 43
0 0 51
0 0 36
0 0 41
0 0 47
0 0 48
0 0 52
0 0 29
0 0 32
0 0 44
0 0 45
0 0 48
0 0 33
0 0 42
0 0 53
0 0 45
0 0 43
0 0 48
0 0 40
0 0 37
0 0 47
0 0 42
0 0 48
0 0 33
0 0 49
0 0 43
0 0 28
0 0 48
0 0 41
0 0 51
0 0 59
0 0 50
30 49 47
28 50 43
27 39 41
26 45 42
22 39 34
26 49 40
24 40 37
33 48 50
25 44 38
30 50 45
26 43 41
27 45 42
17 33 28
29 45 44
34 51 51
35 51 55
25 41 39
37 50 56
32 49 50
28 49 43
28 50 43
36 58 57
34 51 52
33 48 51
20 33 30
38 54 57
32 50 52
33 49 50
27 47 41
32 49 51
29 42 45
22 36 32
35 50 52
32 48 48
31 43 47
28 47 41
23 40 35
25 40 40
25 44 41
24 41 37
26 45 41
30 46 45
24 42 37
27 46 41
26 41 41
28 48 42
34 49 53
26 42 41
33 47 50
28 42 43
24 38 34
32 49 50
28 43 43
23 42 34
38 51 55
29 46 42
25 45 39
31 46 45
30 44 47
24 42 37
24 39 38
22 41 34
18 36 28
26 37 36
19 34 29
22 37 34
34 44 47
23 37 35
28 41 43
24 38 35
33 50 49
25 39 36
26 40 39
25 38 33
18 28 29
36 51 54
33 48 48
28 46 42
26 35 39
35 48 51
29 46 47
22 36 35
24 33 34
22 35 33
25 41 36
24 39 35
23 36 31
21 33 32
31 46 47
25 37 38
26 38 38
28 38 40
19 31 29
20 33 30
19 31 30
30 40 42
21 31 30
21 31 27
20 26 26
25 38 38
28 38 39
27 43 41
19 30 27
17 27 27
22 31 30
29 40 40
25 37 35
21 26 30
24 37 35
19 38 30
24 30 32
23 29 29
21 34 30
25 33 36
13 17 18
20 29 24
18 27 22
21 37 31
19 23 23
24 35 33
17 21 23
19 30 24
20 27 26
20 21 24
16 24 24
18 26 25
19 24 22
14 19 16
20 30 27
13 17 14
15 20 19
14 19 15
11 17 16
14 21 19
10 16 13
10 15 9
25 0 0
28 0 0
26 0 0
19 0 0
31 0 0
30 0 0
38 0 0
30 0 0
33 0 0
33 0 0
29 0 0
33 0 0
35 0 0
35 0 0
34 0 0
30 0 0
34 0 0
40 0 0
35 0 0
37 0 0
39 0 0
38 0 0
30 0 0
32 0 0
34 0 0
28 0 0
26 0 0
26 0 0
40 0 0
35 0 0
28 0 0
34 0 0
40 0 0
40 0 0
33 0 0
29 0 0
30 0 0
36 0 0
27 0 0
27 0 0
30 0 0
31 0 0
33 0 0
37 0 0
37 0 0
29 0 0
31 0 0
31 0 0
32 0 0
32 0 0
28 0 0
30 0 0
35 0 0
28 0 0
33 0 0
30 0 0
37 0 0
31 0 0
31 0 0
37 0 0
34 0 0
28 0 0
35 0 0
31 0 0
34 0 0
29 0 0
26 0 0
29 0 0
33 0 0
35 0 0
36 0 0
36 0 0
25 0 0
27 0 0
34 0 0
33 0 0
30 0 0
28 0 0
31 0 0
26 0 0
36 0 0
28 0 0
32 0 0
30 0 0
31 0 0
30 0 0
33 0 0
38 0 0
33 0 0
36 0 0
29 0 0
32 0 0
25 0 0
31 0 0
37 0 0
36 0 0
29 0 0
37 0 0
26 0 0
33 0 0
29 0 0
34 0 0
39 0 0
36 0 0
27 0 0
36 0 0
30 0 0
39 0 0
34 0 0
33 0 0
28 0 0
22 0 0
25 0 0
32 0 0
35 0 0
29 0 0
24 0 0
30 0 0
27 0 0
25 0 0
31 0 0
34 0 0
25 0 0
26 0 0
29 0 0
21 0 0
23 0 0
16 0 0
3 0 7
0 0 12
0 0 14
0 0 15
0 0 10
0 0 12
0 0 12
0 0 26
0 0 18
0 0 16
0 0 14
0 0 20
0 0 14
0 0 28
0 0 27
0 0 17
0 0 20
0 0 21
0 0 25
0 0 31
0 0 29
0 0 29
0 0 26
0 0 28
0 0 31
0 0 30
0 0 20
0 0 32
0 0 26
0 0 35
0 0 30
0 0 36
0 0 36
0 0 30
0 0 27
0 0 38
0 0 28
0 0 33
0 0 35
0 0 42
0 0 33
0 0 30
0 0 24
0 0 35
0 0 31
0 0 42
0 0 35
0 0 38
0 0 32
0 0 30
0 0 38
0 0 24
0 0 40
0 0 37
0 0 29
0 0 38
0 0 26
0 0 24
0 0 40
0 0 38
0 0 36
0 0 25
0 0 32
0 0 34
0 0 38
0 0 38
0 0 45
0 0 30
0 0 37
0 0 37
0 0 31
0 0 40
0 0 47
0 0 30
0 0 43
0 0 30
0 0 40
0 0 43
0 0 44
0 0 42
0 0 39
0 0 27
0 0 32
0 0 39
0 0 38
0 0 49
0 0 46
0 0 46
0 0 36
0 0 44
0 0 46
0 0 37
0 0 35
0 0 41
0 0 41
0 0 43
0 0 44
0 0 40
0 0 41
0 0 36
0 0 55
0 0 49
0 0 43
0 0 45
0 0 28
0 0 42
0 0 50
0 0 42
0 0 35
0 0 34
0 0 42
0 0 39
0 0 26
0 0 46
0 0 44
0 0 38
0 0 50
0 0 48
0 0 56
0 0 32
0 0 43
0 0 45
0 0 57
0 0 49
0 0 46
0 0 46
0 0 41
0 0 52
0 0 47
0 0 39
0 0 46
0 0 52
0 0 43
0 0 47
0 0 55
0 0 50
31 51 49
30 49 47
22 37 36
24 43 36
34 54 52
23 43 37
26 46 40
25 43 38
33 53 52
33 55 50
34 51 51
30 48 47
18 33 29
30 48 46
31 53 48
28 47 43
23 41 37
23 40 35
27 45 42
29 49 44
37 55 57
31 49 48
29 44 44
23 41 37
32 53 52
37 55 58
27 46 40
30 44 46
27 43 43
24 42 36
28 48 43
29 45 44
33 50 53
27 45 43
25 45 37
31 47 49
31 41 49
25 40 37
36 55 57
23 40 37
22 37 33
25 43 38
28 45 40
29 48 45
32 48 49
26 39 38
34 54 53
26 45 40
23 34 33
28 41 43
30 53 46
22 36 35
29 42 44
22 39 36
27 42 42
27 40 42
26 45 42
25 39 39
23 38 36
30 46 47
18 31 29
28 42 44
27 46 41
29 43 47
27 40 42
27 42 40
29 47 45
22 37 34
24 41 37
30 41 44
23 40 34
26 40 37
22 39 32
26 38 41
21 33 32
23 34 33
18 33 26
25 41 39
22 36 33
25 40 38
29 42 43
25 38 38
19 32 27
27 40 42
19 34 28
27 39 39
20 31 31
28 42 44
27 37 37
21 31 28
22 35 34
31 44 49
20 32 30
22 33 31
28 43 42
24 38 36
25 39 40
20 30 30
27 41 39
18 25 25
25 38 38
24 34 33
24 36 36
26 36 34
26 37 39
14 24 21
19 30 27
16 21 22
18 31 29
15 27 22
21 29 27
19 31 28
20 32 27
28 41 40
27 40 38
15 23 20
18 26 22
19 34 26
14 24 19
15 25 20
13 20 17
17 25 22
13 19 18
16 23 22
16 20 21
15 28 22
14 22 18
14 19 16
12 21 16
12 22 18
13 20 17
10 16 12
15 20 19
14 17 14
18 23 21
10 13 12
22 1 0
22 0 0
28 0 0
30 0 0
39 0 0
41 0 0
27 0 0
21 0 0
24 0 0
45 0 0
30 0 0
33 0 0
38 0 0
31 0 0
30 0 0
26 0 0
26 0 0
36 0 0
37 0 0
28 0 0
22 0 0
33 0 0
28 0 0
32 0 0
31 0 0
28 0 0
27 0 0
31 0 0
36 0 0
20 0 0
29 0 0
35 0 0
27 0 0
26 0 0
44 0 0
37 0 0
27 0 0
40 0 0
21 0 0
27 0 0
29 0 0
31 0 0
35 0 0
30 0 0
41 0 0
39 0 0
24 0 0
23 0 0
36 0 0
28 0 0
32 0 0
35 0 0
23 0 0
33 0 0
32 0 0
37 0 0
31 0 0
33 0 0
28 0 0
31 0 0
37 0 0
30 0 0
31 0 0
28 0 0
33 0 0
23 0 0
39 0 0
28 0 0
34 0 0
37 0 0
36 0 0
35 0 0
30 0 0
29 0 0
32 0 0
35 0 0
39 0 0
40 0 0
31 0 0
29 0 0
40 0 0
26 0 0
30 0 0
30 0 0
28 0 0
36 0 0
38 0 0
27 0 0
26 0 0
31 0 0
30 0 0
36 0 0
23 0 0
33 0 0
31 0 0
26 0 0
34 0 0
26 0 0
32 0 0
22 0 0
32 0 0
36 0 0
18 0 0
32 0 0
33 0 0
36 0 0
25 0 0
35 0 0
26 0 0
30 0 0
35 0 0
26 0 0
30 0 0
32 0 0
30 0 0
34 0 0
26 0 0
38 0 0
24 0 0
30 0 0
24 0 0
28 0 0
26 0 0
17 0 0
21 0 0
25 0 0
24 0 0
14 0 5
0 0 8
0 0 15
0 0 12
0 0 16
0 0 11
0 0 15
0 0 18
0 0 23
0 0 19
0 0 22
0 0 17
0 0 14
0 0 26
0 0 18
0 0 25
0 0 18
0 0 25
0 0 22
0 0 21
0 0 15
0 0 31
0 0 19
0 0 31
0 0 29
0 0 22
0 0 30
0 0 21
0 0 23
0 0 23
0 0 29
0 0 30
0 0 37
0 0 32
0 0 35
0 0 32
0 0 39
0 0 33
0 0 33
0 0 37
0 0 28
0 0 36
0 0 40
0 0 42
0 0 36
0 0 40
0 0 35
0 0 32
0 0 27
0 0 30
0 0 39
0 0 36
0 0 20
0 0 32
0 0 35
0 0 31
0 0 34
0 0 38
0 0 35
0 0 49
0 0 36
0 0 36
0 0 38
0 0 36
0 0 35
0 0 31
0 0 24
0 0 35
0 0 43
0 0 31
0 0 35
0 0 26
0 0 43
0 0 30
0 0 42
0 0 34
0 0 31
0 0 41
0 0 46
0 0 44
0 0 31
0 0 48
0 0 35
0 0 42
0 0 38
0 0 35
0 0 35
0 0 32
0 0 36
0 0 36
0 0 45
0 0 45
0 0 47
0 0 37
0 0 45
0 0 39
0 0 42
0 0 39
0 0 42
0 0 34
0 0 35
0 0 48
0 0 35
0 0 38
0 0 44
0 0 44
0 0 38
0 0 43
0 0 36
0 0 40
0 0 37
0 0 48
0 0 31
0 0 43
0 0 29
0 0 48
0 0 45
0 0 44
0 0 41
0 0 33
0 0 30
0 0 41
0 0 41
0 0 38
0 0 43
0 0 43
0 0 38
0 0 38
0 0 29
0 0 52
0 0 54
0 0 50
0 0 50
0 0 35
0 0 34
0 0 46
0 0 46
33 55 52
37 55 56
24 47 38
32 48 48
28 49 42
34 49 53
29 50 48
22 41 33
30 46 46
26 46 40
29 48 45
31 52 50
27 45 43
32 54 51
23 43 36
28 46 44
22 39 34
30 51 48
32 47 49
21 41 34
30 47 46
28 49 42
34 55 51
30 47 47
34 53 53
29 48 44
33 51 50
34 51 52
27 44 42
24 47 39
27 49 44
29 45 42
25 43 39
33 45 48
22 39 32
31 49 47
21 39 32
24 42 36
33 53 52
31 47 49
29 49 46
29 53 46
28 47 42
20 37 29
28 48 43
20 37 31
28 46 42
27 44 43
32 43 48
21 42 35
35 52 55
28 44 42
19 32 27
24 38 36
24 41 37
23 46 36
29 47 43
27 39 41
27 40 42
32 43 46
16 23 20
29 48 45
25 38 36
25 39 38
23 38 35
36 53 56
22 37 31
21 33 28
24 40 36
24 41 38
24 41 39
27 43 42
33 48 49
28 40 38
23 36 32
21 40 35
31 44 47
22 37 32
22 37 33
19 32 28
32 48 50
28 45 42
24 40 37
29 43 43
26 43 41
19 33 29
28 40 41
23 31 33
22 36 33
29 40 40
22 38 34
23 40 38
21 30 29
26 40 37
19 30 27
19 31 25
25 41 38
25 36 38
16 31 23
27 42 41
23 32 32
20 31 30
23 35 31
21 36 31
17 31 26
24 32 32
21 32 30
17 31 22
20 30 29
22 32 29
13 28 21
19 34 28
28 40 40
17 23 22
18 27 24
15 21 17
17 26 22
15 27 22
17 31 26
15 21 20
20 23 21
22 33 30
12 21 13
20 31 30
17 28 22
11 17 12
15 19 18
15 21 20
13 18 15
15 23 20
10 17 13
11 16 15
14 19 19
10 15 11
14 18 16
12 17 14
15 9 4
30 0 0
23 0 0
19 0 0
34 0 0
30 0 0
36 0 0
31 0 0
41 0 0
27 0 0
29 0 0
35 0 0
27 0 0
34 0 0
34 0 0
33 0 0
35 0 0
26 0 0
29 0 0
25 0 0
29 0 0
34 0 0
24 0 0
39 0 0
25 0 0
28 0 0
34 0 0
24 0 0
27 0 0
26 0 0
30 0 0
30 0 0
34 0 0
41 0 0
29 0 0
31 0 0
33 0 0
29 0 0
34 0 0
39 0 0
29 0 0
31 0 0
28 0 0
20 0 0
32 0 0
28 0 0
32 0 0
30 0 0
28 0 0
25 0 0
32 0 0
34 0 0
31 0 0
29 0 0
34 0 0
29 0 0
37 0 0
34 0 0
29 0 0
25 0 0
26 0 0
26 0 0
26 0 0
30 0 0
30 0 0
28 0 0
37 0 0
33 0 0
35 0 0
32 0 0
31 0 0
31 0 0
40 0 0
31 0 0
32 0 0
35 0 0
34 0 0
39 0 0
31 0 0
35 0 0
36 0 0
32 0 0
25 0 0
29 0 0
38 0 0
38 0 0
33 0 0
30 0 0
30 0 0
25 0 0
29 0 0
29 0 0
38 0 0
28 0 0
37 0 0
38 0 0
32 0 0
37 0 0
34 0 0
31 0 0
34 0 0
32 0 0
36 0 0
30 0 0
34 0 0
30 0 0
28 0 0
34 0 0
21 0 0
27 0 0
23 0 0
31 0 0
32 0 0
32 0 0
29 0 0
26 0 0
24 0 0
27 0 0
25 0 0
27 0 0
26 0 0
30 0 0
35 0 0
13 0 0
32 0 0
22 0 0
25 0 0
8 0 9
0 0 8
0 0 8
0 0 17
0 0 10
0 0 11
0 0 18
0 0 9
0 0 16
0 0 17
0 0 23
0 0 18
0 0 14
0 0 25
0 0 22
0 0 28
0 0 24
0 0 28
0 0 19
0 0 29
0 0 25
0 0 25
0 0 26
0 0 25
0 0 32
0 0 24
0 0 20
0 0 34
0 0 26
0 0 34
0 0 24
0 0 45
0 0 29
0 0 34
0 0 28
0 0 24
0 0 38
0 0 31
0 0 30
0 0 40
0 0 33
0 0 36
0 0 32
0 0 33
0 0 34
0 0 33
0 0 39
0 0 43
0 0 28
0 0 39
0 0 38
0 0 24
0 0 37
0 0 26
0 0 46
0 0 29
0 0 45
0 0 35
0 0 32
0 0 28
0 0 38
0 0 34
0 0 32
0 0 40
0 0 38
0 0 37
0 0 44
0 0 39
0 0 42
0 0 43
0 0 31
0 0 54
0 0 33
0 0 37
0 0 37
0 0 46
0 0 40
0 0 24
0 0 39
0 0 40
0 0 36
0 0 25
0 0 31
0 0 38
0 0 33
0 0 38
0 0 38
0 0 31
0 0 41
0 0 38
0 0 42
0 0 45
0 0 51
0 0 44
0 0 48
0 0 35
0 0 42
0 0 35
0 0 41
0 0 34
0 0 39
0 0 36
0 0 38
0 0 39
0 0 35
0 0 38
0 0 41
0 0 37
0 0 34
0 0 29
0 0 29
0 0 35
0 0 43
0 0 33
0 0 43
0 0 44
0 0 47
0 0 34
0 0 31
0 0 40
0 0 43
0 0 52
0 0 45
0 0 38
0 0 44
0 0 34
0 0 46
0 0 36
0 0 56
0 0 34
0 0 41
0 0 46
0 0 43
0 0 34
0 0 35
0 0 51
0 0 39
17 37 25
34 54 53
18 38 29
24 41 37
24 43 36
20 37 31
23 42 37
24 38 37
26 43 40
25 43 39
28 48 43
29 45 43
26 46 42
30 51 47
21 34 32
28 49 45
35 55 54
27 46 41
25 45 38
30 49 47
30 48 45
29 42 44
24 44 39
32 48 50
20 36 33
21 38 31
20 43 31
27 44 41
27 46 40
26 42 41
27 43 41
17 36 26
23 37 34
28 44 42
30 48 47
31 46 44
23 36 35
30 45 45
28 47 43
31 49 46
19 39 30
27 41 40
23 40 36
29 47 45
25 38 39
23 39 36
25 43 40
26 43 41
30 48 47
20 34 32
23 40 36
31 42 47
33 49 50
23 36 35
22 38 33
18 33 29
21 40 32
29 48 43
24 43 39
23 40 35
20 35 30
29 47 46
28 46 44
32 46 49
25 42 41
17 32 27
27 41 40
30 43 41
28 43 41
27 41 41
34 47 50
21 37 32
29 42 45
21 34 31
18 29 25
28 42 41
30 46 44
20 37 30
32 50 48
22 33 31
26 38 37
23 35 33
26 37 39
21 35 31
26 42 39
12 29 18
25 41 37
18 30 27
29 41 43
21 35 32
21 33 31
25 38 36
25 36 39
20 32 28
20 34 31
19 30 24
24 36 35
18 32 27
19 36 26
21 33 35
16 26 23
27 38 36
25 36 34
17 32 25
23 33 34
20 30 28
18 28 23
24 33 34
17 33 27
14 23 17
23 33 32
20 32 26
21 33 28
24 34 33
24 32 35
20 33 30
22 28 28
13 21 16
15 29 20
25 30 31
17 27 24
15 20 19
16 29 21
11 19 15
12 20 16
11 22 14
14 20 15
14 23 20
8 20 10
15 19 16
8 10 8
12 19 16
7 16 10
12 15 11
10 15 15
8 14 11
10 14 12
29 0 0
28 0 0
22 0 0
25 0 0
32 0 0
29 0 0
28 0 0
28 0 0
38 0 0
29 0 0
23 0 0
28 0 0
28 0 0
24 0 0
36 0 0
29 0 0
36 0 0
32 0 0
28 0 0
32 0 0
35 0 0
32 0 0
34 0 0
26 0 0
28 0 0
41 0 0
31 0 0
34 0 0
37 0 0
18 0 0
24 0 0
31 0 0
31 0 0
34 0 0
35 0 0
33 0 0
35 0 0
29 0 0
32 0 0
43 0 0
27 0 0
30 0 0
27 0 0
28 0 0
37 0 0
22 0 0
32 0 0
36 0 0
31 0 0
27 0 0
32 0 0
20 0 0
28 0 0
33 0 0
34 0 0
23 0 0
22 0 0
27 0 0
31 0 0
22 0 0
27 0 0
34 0 0
32 0 0
29 0 0
32 0 0
35 0 0
25 0 0
26 0 0
30 0 0
32 0 0
25 0 0
28 0 0
30 0 0
30 0 0
30 0 0
31 0 0
38 0 0
37 0 0
39 0 0
34 0 0
32 0 0
25 0 0
26 0 0
39 0 0
34 0 0
29 0 0
31 0 0
25 0 0
32 0 0
31 0 0
34 0 0
31 0 0
35 0 0
30 0 0
35 0 0
28 0 0
26 0 0
28 0 0
21 0 0
31 0 0
28 0 0
33 0 0
30 0 0
29 0 0
30 0 0
26 0 0
27 0 0
29 0 0
39 0 0
35 0 0
32 0 0
29 0 0
27 0 0
41 0 0
18 0 0
28 0 0
24 0 0
18 0 0
32 0 0
26 0 0
23 0 0
32 0 0
22 0 0
25 0 0
17 0 0
16 0 0
1 0 8
0 0 4
0 0 7
0 0 9
0 0 13
0 0 9
0 0 18
0 0 17
0 0 20
0 0 9
0 0 18
0 0 17
0 0 20
0 0 21
0 0 16
0 0 17
0 0 21
0 0 24
0 0 25
0 0 31
0 0 22
0 0 20
0 0 17
0 0 20
0 0 24
0 0 31
0 0 25
0 0 19
0 0 26
0 0 31
0 0 23
0 0 27
0 0 26
0 0 32
0 0 37
0 0 28
0 0 26
0 0 38
0 0 36
0 0 34
0 0 26
0 0 40
0 0 22
0 0 33
0 0 35
0 0 26
0 0 23
0 0 30
0 0 32
0 0 39
0 0 36
0 0 33
0 0 35
0 0 40
0 0 41
0 0 40
0 0 45
0 0 39
0 0 44
0 0 38
0 0 40
0 0 33
0 0 21
0 0 33
0 0 30
0 0 45
0 0 41
0 0 38
0 0 32
0 0 44
0 0 44
0 0 41
0 0 41
0 0 38
0 0 41
0 0 40
0 0 37
0 0 36
0 0 39
0 0 25
0 0 31
0 0 44
0 0 32
0 0 39
0 0 34
0 0 33
0 0 46
0 0 51
0 0 47
0 0 31
0 0 41
0 0 32
0 0 31
0 0 35
0 0 47
0 0 34
0 0 33
0 0 45
0 0 42
0 0 35
0 0 40
0 0 40
0 0 40
0 0 38
0 0 42
0 0 43
0 0 32
0 0 34
0 0 46
0 0 47
0 0 57
0 0 56
0 0 41
0 0 29
0 0 42
0 0 37
0 0 44
0 0 42
0 0 38
0 0 40
0 0 37
0 0 46
0 0 43
0 0 48
0 0 38
0 0 48
0 0 30
0 0 57
0 0 42
0 0 39
0 0 42
0 0 41
0 0 40
0 0 31
0 0 47
0 0 41
0 0 36
30 46 46
33 49 50
23 43 36
35 54 54
32 46 47
26 42 41
23 42 35
35 52 52
36 51 53
29 49 46
40 57 61
24 40 39
35 55 55
29 47 44
26 45 43
26 49 41
35 57 52
34 58 54
21 34 32
34 52 51
32 52 51
22 37 34
29 45 45
18 37 29
25 44 38
24 48 37
32 49 47
22 37 33
28 44 43
27 43 42
23 41 35
36 53 54
38 53 57
26 43 38
28 45 43
31 48 49
23 39 35
23 42 34
24 37 37
23 38 36
24 42 39
32 46 49
22 40 35
29 47 45
22 39 34
26 44 40
23 43 36
23 42 36
22 40 32
30 46 46
20 33 31
33 52 49
33 46 48
24 35 34
24 38 35
23 38 34
25 42 39
26 39 41
22 35 33
21 34 30
25 43 39
29 45 44
21 33 32
22 37 34
27 43 42
25 40 37
26 40 40
29 42 41
29 42 42
25 39 37
21 38 33
22 36 34
24 39 36
18 30 27
23 41 35
26 36 37
18 34 27
24 31 32
23 39 37
21 34 32
21 36 30
26 42 41
23 41 34
26 48 39
30 44 45
30 42 42
15 27 21
24 38 36
22 35 32
26 40 39
26 39 40
20 29 30
21 39 33
19 36 29
21 40 32
18 29 26
25 39 36
18 31 28
23 32 33
16 31 21
22 34 33
22 35 33
14 26 20
22 30 27
16 26 21
21 32 30
17 29 22
19 29 25
14 26 20
21 33 30
22 32 35
15 26 20
14 28 18
17 27 23
18 32 23
24 40 36
19 28 26
26 32 35
11 21 14
14 25 16
13 20 16
14 23 19
12 21 16
13 22 16
13 24 19
15 25 20
13 20 16
8 13 10
12 22 18
11 14 13
8 15 11
11 19 15
7 17 8
6 14 7
10 14 12
5 12 7
11 14 12
7 4 1
23 0 0
29 0 0
33 0 0
18 0 0
25 0 0
28 0 0
24 0 0
31 0 0
26 0 0
25 0 0
29 0 0
35 0 0
28 0 0
25 0 0
29 0 0
31 0 0
29 0 0
28 0 0
34 0 0
32 0 0
34 0 0
33 0 0
39 0 0
39 0 0
29 0 0
30 0 0
34 0 0
27 0 0
30 0 0
32 0 0
36 0 0
34 0 0
39 0 0
28 0 0
35 0 0
27 0 0
30 0 0
32 0 0
37 0 0
29 0 0
20 0 0
39 0 0
29 0 0
37 0 0
26 0 0
39 0 0
33 0 0
26 0 0
31 0 0
37 0 0
28 0 0
28 0 0
28 0 0
33 0 0
36 0 0
30 0 0
34 0 0
30 0 0
26 0 0
28 0 0
32 0 0
40 0 0
36 0 0
31 0 0
35 0 0
33 0 0
31 0 0
32 0 0
36 0 0
31 0 0
35 0 0
24 0 0
35 0 0
28 0 0
29 0 0
34 0 0
30 0 0
25 0 0
32 0 0
34 0 0
41 0 0
34 0 0
40 0 0
26 0 0
23 0 0
23 0 0
34 0 0
30 0 0
31 0 0
30 0 0
28 0 0
24 0 0
35 0 0
23 0 0
31 0 0
36 0 0
28 0 0
28 0 0
30 0 0
28 0 0
29 0 0
40 0 0
31 0 0
32 0 0
23 0 0
24 0 0
33 0 0
29 0 0
32 0 0
31 0 0
25 0 0
30 0 0
29 0 0
21 0 0
26 0 0
23 0 0
24 0 0
26 0 0
26 0 0
32 0 0
22 0 0
30 0 0
16 0 0
27 0 0
9 0 6
0 0 2
0 0 6
0 0 15
0 0 6
0 0 16
0 0 14
0 0 16
0 0 18
0 0 18
0 0 16
0 0 23
0 0 14
0 0 21
0 0 15
0 0 24
0 0 21
0 0 32
0 0 27
0 0 17
0 0 22
0 0 20
0 0 18
0 0 13
0 0 14
0 0 22
0 0 30
0 0 25
0 0 25
0 0 22
0 0 44
0 0 24
0 0 14
0 0 24
0 0 27
0 0 33
0 0 27
0 0 25
0 0 30
0 0 37
0 0 32
0 0 26
0 0 32
0 0 32
0 0 36
0 0 38
0 0 40
0 0 41
0 0 38
0 0 47
0 0 41
0 0 33
0 0 38
0 0 32
0 0 31
0 0 40
0 0 29
0 0 34
0 0 36
0 0 39
0 0 25
0 0 25
0 0 26
0 0 41
0 0 39
0 0 34
0 0 31
0 0 34
0 0 46
0 0 42
0 0 39
0 0 35
0 0 24
0 0 34
0 0 34
0 0 35
0 0 44
0 0 35
0 0 44
0 0 34
0 0 28
0 0 40
0 0 43
0 0 23
0 0 35
0 0 52
0 0 31
0 0 37
0 0 39
0 0 37
0 0 34
0 0 30
0 0 33
0 0 39
0 0 35
0 0 37
0 0 43
0 0 39
0 0 46
0 0 45
0 0 41
0 0 36
0 0 35
0 0 44
0 0 35
0 0 43
0 0 37
0 0 34
0 0 47
0 0 36
0 0 32
0 0 50
0 0 39
0 0 37
0 0 38
0 0 35
0 0 38
0 0 26
0 0 44
0 0 44
0 0 26
0 0 38
0 0 41
0 0 39
0 0 44
0 0 46
0 0 35
0 0 52
0 0 38
0 0 51
0 0 32
0 0 38
0 0 40
0 0 45
0 0 54
0 0 39
0 0 41
0 0 38
34 56 51
26 43 42
24 42 36
25 41 39
23 41 35
23 42 36
23 39 35
33 46 50
30 52 46
31 50 49
29 45 45
26 47 40
21 43 33
23 44 35
34 46 51
31 46 47
28 50 46
31 51 48
32 52 49
25 45 38
23 45 35
35 55 53
32 50 50
22 39 34
22 41 35
29 45 47
25 41 38
22 41 36
22 42 35
28 48 44
25 43 39
32 50 48
28 45 41
25 40 37
25 40 39
29 50 45
26 44 41
21 41 33
34 49 50
24 43 37
33 50 52
22 38 34
23 39 36
29 46 43
22 38 35
32 49 49
28 48 43
30 46 45
28 44 42
26 44 39
26 40 40
25 38 38
17 40 28
20 41 31
21 36 30
18 30 26
23 36 33
28 47 43
23 42 37
27 41 41
23 42 33
29 44 44
23 39 36
24 39 35
32 49 47
22 28 28
27 39 40
21 32 33
18 31 25
27 43 40
19 37 26
27 42 39
27 41 43
22 33 32
24 36 34
30 50 47
21 41 30
25 39 37
22 40 33
16 32 24
18 30 27
22 36 32
27 45 40
17 34 27
26 43 40
29 41 42
22 31 32
31 45 43
18 30 25
22 36 33
22 34 29
23 36 34
22 38 30
24 39 36
28 41 42
19 32 26
17 29 23
21 35 31
15 27 24
23 35 33
18 28 27
17 33 25
23 36 32
21 35 28
23 39 34
20 29 26
18 31 27
23 33 32
19 26 25
23 35 31
22 34 30
22 32 29
21 33 29
19 30 25
11 21 14
15 25 20
23 30 29
20 30 27
13 27 18
13 23 19
16 31 22
14 18 14
14 21 20
11 21 17
15 27 22
10 18 10
16 29 21
13 22 16
13 20 19
9 18 11
7 14 9
14 20 17
11 17 12
8 15 9
9 22 13
10 17 12
3 10 4
5 10 6
16 0 0
18 0 0
24 0 0
26 0 0
27 0 0
29 0 0
33 0 0
25 0 0
28 0 0
33 0 0
32 0 0
25 0 0
32 0 0
25 0 0
32 0 0
19 0 0
30 0 0
32 0 0
39 0 0
25 0 0
30 0 0
29 0 0
32 0 0
34 0 0
23 0 0
25 0 0
33 0 0
26 0 0
18 0 0
37 0 0
29 0 0
26 0 0
33 0 0
29 0 0
28 0 0
31 0 0
32 0 0
28 0 0
26 0 0
31 0 0
30 0 0
34 0 0
30 0 0
29 0 0
37 0 0
26 0 0
26 0 0
27 0 0
34 0 0
25 0 0
34 0 0
25 0 0
30 0 0
31 0 0
36 0 0
38 0 0
33 0 0
33 0 0
36 0 0
27 0 0
24 0 0
36 0 0
26 0 0
33 0 0
29 0 0
28 0 0
34 0 0
24 0 0
32 0 0
36 0 0
30 0 0
29 0 0
36 0 0
44 0 0
34 0 0
32 0 0
28 0 0
27 0 0
36 0 0
34 0 0
33 0 0
30 0 0
32 0 0
41 0 0
35 0 0
39 0 0
23 0 0
36 0 0
37 0 0
28 0 0
37 0 0
29 0 0
28 0 0
31 0 0
44 0 0
26 0 0
44 0 0
33 0 0
30 0 0
29 0 0
28 0 0
38 0 0
29 0 0
32 0 0
32 0 0
38 0 0
30 0 0
31 0 0
28 0 0
26 0 0
24 0 0
28 0 0
30 0 0
30 0 0
29 0 0
23 0 0
27 0 0
18 0 0
22 0 0
30 0 0
17 0 0
17 0 0
23 0 0
18 0 0
0 0 5
0 0 10
0 0 8
0 0 9
0 0 19
0 0 7
0 0 10
0 0 13
0 0 22
0 0 15
0 0 16
0 0 18
0 0 16
0 0 24
0 0 13
0 0 16
0 0 19
0 0 23
0 0 19
0 0 21
0 0 23
0 0 25
0 0 20
0 0 25
0 0 30
0 0 24
0 0 33
0 0 33
0 0 22
0 0 29
0 0 24
0 0 29
0 0 29
0 0 27
0 0 28
0 0 25
0 0 27
0 0 41
0 0 28
0 0 30
0 0 43
0 0 32
0 0 40
0 0 42
0 0 36
0 0 43
0 0 29
0 0 24
0 0 30
0 0 37
0 0 34
0 0 34
0 0 30
0 0 32
0 0 19
0 0 34
0 0 31
0 0 33
0 0 28
0 0 31
0 0 27
0 0 39
0 0 37
0 0 28
0 0 34
0 0 40
0 0 40
0 0 36
0 0 36
0 0 33
0 0 29
0 0 31
0 0 32
0 0 30
0 0 43
0 0 39
0 0 38
0 0 33
0 0 31
0 0 36
0 0 44
0 0 45
0 0 35
0 0 36
0 0 33
0 0 38
0 0 33
0 0 30
0 0 32
0 0 40
0 0 34
0 0 44
0 0 37
0 0 41
0 0 45
0 0 41
0 0 37
0 0 37
0 0 44
0 0 41
0 0 28
0 0 43
0 0 38
0 0 42
0 0 45
0 0 38
0 0 47
0 0 33
0 0 38
0 0 45
0 0 40
0 0 47
0 0 24
0 0 41
0 0 49
0 0 48
0 0 33
0 0 38
0 0 38
0 0 38
0 0 43
0 0 33
0 0 34
0 0 45
0 0 37
0 0 53
0 0 35
0 0 33
0 0 45
0 0 37
0 0 34
0 0 43
0 0 46
0 0 40
0 0 39
0 0 30
0 0 39
0 0 50
25 46 38
29 49 45
26 42 40
34 52 53
23 43 35
28 45 43
34 52 51
29 45 45
28 46 42
34 51 51
29 44 45
28 45 41
33 56 51
30 48 46
28 46 41
25 40 39
28 46 44
25 44 39
28 46 42
36 54 54
30 49 47
23 37 35
25 40 40
29 49 45
29 47 46
17 35 27
24 42 36
21 34 32
31 51 46
24 46 38
31 45 47
30 46 47
24 39 35
20 38 31
30 46 47
29 44 45
39 55 60
35 52 52
19 31 30
29 47 45
24 38 34
21 38 32
26 45 41
26 40 35
24 42 37
20 33 30
21 36 31
32 50 50
20 38 31
20 35 30
22 37 33
19 33 29
29 43 46
30 42 43
17 36 24
25 39 38
22 38 34
23 39 33
30 47 47
18 32 27
27 41 43
24 41 37
26 40 39
21 36 31
20 37 31
27 41 40
27 39 40
23 37 36
16 28 24
14 27 20
29 42 41
30 44 47
17 29 26
20 38 31
18 31 29
18 33 26
26 37 37
28 39 39
25 39 38
22 38 31
19 34 29
31 50 49
18 27 25
18 30 22
15 31 21
26 38 39
28 42 42
14 27 20
24 37 32
25 31 33
26 41 38
24 40 36
16 32 24
22 33 32
18 35 26
22 34 34
19 34 30
14 29 20
21 35 30
31 41 43
23 35 34
20 32 30
17 29 26
19 31 26
15 29 24
19 27 27
17 28 25
18 30 27
19 30 26
16 23 19
16 28 22
17 25 23
18 26 25
17 27 20
21 27 28
15 22 20
13 26 18
13 20 16
14 26 20
21 30 30
12 16 14
10 19 12
16 22 20
12 14 13
17 25 24
10 23 12
14 23 21
10 18 14
10 20 13
8 18 12
6 12 7
15 21 19
11 17 11
8 20 11
9 17 11
4 14 3
5 14 5
6 14 8
9 8 4
24 0 0
25 0 0
29 0 0
21 0 0
28 0 0
20 0 0
30 0 0
25 0 0
29 0 0
29 0 0
23 0 0
35 0 0
27 0 0
34 0 0
32 0 0
41 0 0
29 0 0
30 0 0
32 0 0
33 0 0
30 0 0
35 0 0
32 0 0
30 0 0
31 0 0
32 0 0
28 0 0
32 0 0
25 0 0
35 0 0
27 0 0
30 0 0
26 0 0
38 0 0
28 0 0
29 0 0
28 0 0
29 0 0
26 0 0
27 0 0
33 0 0
25 0 0
30 0 0
31 0 0
32 0 0
27 0 0
29 0 0
32 0 0
28 0 0
35 0 0
39 0 0
27 0 0
24 0 0
31 0 0
32 0 0
39 0 0
35 0 0
31 0 0
31 0 0
17 0 0
25 0 0
28 0 0
32 0 0
34 0 0
32 0 0
27 0 0
31 0 0
37 0 0
32 0 0
32 0 0
28 0 0
35 0 0
31 0 0
29 0 0
30 0 0
24 0 0
37 0 0
31 0 0
31 0 0
31 0 0
31 0 0
24 0 0
27 0 0
41 0 0
35 0 0
31 0 0
28 0 0
38 0 0
34 0 0
32 0 0
31 0 0
25 0 0
38 0 0
29 0 0
36 0 0
31 0 0
33 0 0
31 0 0
33 0 0
29 0 0
21 0 0
39 0 0
37 0 0
37 0 0
15 0 0
32 0 0
25 0 0
28 0 0
31 0 0
28 0 0
30 0 0
25 0 0
28 0 0
27 0 0
20 0 0
32 0 0
20 0 0
23 0 0
25 0 0
30 0 0
19 0 0
18 0 0
4 0 7
0 0 9
0 0 10
0 0 8
0 0 10
0 0 7
0 0 2
0 0 12
0 0 5
0 0 16
0 0 16
0 0 12
0 0 12
0 0 13
0 0 14
0 0 28
0 0 12
0 0 24
0 0 28
0 0 18
0 0 18
0 0 22
0 0 13
0 0 25
0 0 19
0 0 25
0 0 27
0 0 27
0 0 22
0 0 28
0 0 14
0 0 25
0 0 38
0 0 26
0 0 23
0 0 26
0 0 38
0 0 25
0 0 37
0 0 26
0 0 42
0 0 25
0 0 23
0 0 29
0 0 33
0 0 36
0 0 33
0 0 28
0 0 31
0 0 27
0 0 42
0 0 32
0 0 21
0 0 25
0 0 29
0 0 33
0 0 30
0 0 29
0 0 33
0 0 24
0 0 32
0 0 37
0 0 29
0 0 27
0 0 36
0 0 33
0 0 23
0 0 28
0 0 28
0 0 38
0 0 36
0 0 32
0 0 33
0 0 30
0 0 35
0 0 24
0 0 34
0 0 33
0 0 46
0 0 32
0 0 47
0 0 35
0 0 41
0 0 38
0 0 30
0 0 34
0 0 42
0 0 38
0 0 53
0 0 37
0 0 32
0 0 41
0 0 27
0 0 37
0 0 47
0 0 39
0 0 46
0 0 46
0 0 38
0 0 39
0 0 36
0 0 32
0 0 46
0 0 46
0 0 22
0 0 39
0 0 40
0 0 33
0 0 36
0 0 41
0 0 42
0 0 35
0 0 48
0 0 38
0 0 49
0 0 44
0 0 46
0 0 38
0 0 42
0 0 46
0 0 48
0 0 36
0 0 42
0 0 45
0 0 51
0 0 44
0 0 39
0 0 47
0 0 36
0 0 25
0 0 40
0 0 38
0 0 39
0 0 36
0 0 49
0 0 48
0 0 45
0 0 39
0 0 48
26 42 41
29 46 44
27 45 41
22 42 35
26 48 41
40 59 61
23 41 35
31 50 47
30 51 48
34 52 53
20 36 30
25 45 39
25 45 38
23 42 36
24 40 37
27 50 43
28 42 44
24 39 37
31 45 46
27 42 40
26 48 41
27 45 42
28 45 45
24 40 38
28 42 44
31 46 46
30 49 46
32 49 48
31 50 48
24 46 37
25 45 37
27 46 42
23 37 34
28 44 44
24 43 37
29 47 44
25 42 38
34 53 50
28 47 40
23 38 35
32 48 47
23 39 35
23 42 35
19 36 31
24 41 36
35 51 56
28 45 44
22 38 35
35 50 52
19 33 29
28 44 45
20 33 30
24 42 37
34 51 52
25 40 39
20 36 31
21 38 31
27 42 40
26 39 41
28 41 40
17 33 27
27 41 38
23 41 34
25 45 38
18 31 28
21 33 29
31 45 48
20 34 31
22 36 31
23 36 34
29 43 44
23 41 37
26 41 38
26 44 42
30 49 45
22 37 34
19 35 29
18 32 28
21 41 31
20 33 28
20 32 28
17 30 25
23 40 34
24 41 34
23 38 36
18 33 27
23 39 36
13 27 21
30 44 45
26 42 39
30 43 44
20 35 28
21 31 30
25 38 34
24 35 37
18 32 24
22 33 31
14 25 22
22 36 34
19 30 26
19 26 27
17 30 26
23 36 33
21 35 32
23 34 33
19 35 28
14 23 19
15 24 21
25 35 37
21 33 30
21 28 29
11 26 16
18 29 25
14 24 19
10 21 13
15 25 22
12 23 18
10 21 15
17 28 24
14 20 18
17 30 22
12 25 19
12 23 14
12 16 13
12 21 16
9 19 12
10 17 13
12 19 16
7 13 8
4 13 5
10 13 10
4 10 6
11 20 14
13 20 16
6 12 7
7 11 7
6 12 8
7 15 9
7 11 8
10 2 1
27 0 0
24 0 0
28 0 0
20 0 0
24 0 0
23 0 0
21 0 0
24 0 0
31 0 0
29 0 0
34 0 0
26 0 0
29 0 0
29 0 0
25 0 0
30 0 0
33 0 0
24 0 0
21 0 0
32 0 0
30 0 0
25 0 0
31 0 0
33 0 0
35 0 0
36 0 0
22 0 0
25 0 0
29 0 0
27 0 0
26 0 0
37 0 0
29 0 0
29 0 0
26 0 0
30 0 0
32 0 0
30 0 0
21 0 0
35 0 0
28 0 0
31 0 0
22 0 0
38 0 0
35 0 0
26 0 0
35 0 0
36 0 0
33 0 0
29 0 0
33 0 0
35 0 0
30 0 0
34 0 0
28 0 0
28 0 0
34 0 0
30 0 0
36 0 0
24 0 0
16 0 0
28 0 0
35 0 0
31 0 0
44 0 0
36 0 0
32 0 0
32 0 0
33 0 0
30 0 0
23 0 0
28 0 0
42 0 0
27 0 0
24 0 0
32 0 0
35 0 0
24 0 0
30 0 0
36 0 0
26 0 0
28 0 0
38 0 0
36 0 0
35 0 0
31 0 0
31 0 0
28 0 0
27 0 0
26 0 0
24 0 0
35 0 0
27 0 0
29 0 0
24 0 0
28 0 0
23 0 0
29 0 0
27 0 0
35 0 0
29 0 0
30 0 0
29 0 0
31 0 0
30 0 0
29 0 0
26 0 0
26 0 0
32 0 0
33 0 0
27 0 0
35 0 0
27 0 0
34 0 0
28 0 0
23 0 0
32 0 0
19 0 0
22 0 0
28 0 0
12 0 5
0 0 11
0 0 5
0 0 10
0 0 11
0 0 8
0 0 12
0 0 13
0 0 11
0 0 9
0 0 13
0 0 16
0 0 14
0 0 16
0 0 16
0 0 15
0 0 16
0 0 18
0 0 15
0 0 14
0 0 25
0 0 15
0 0 17
0 0 20
0 0 21
0 0 23
0 0 25
0 0 24
0 0 19
0 0 12
0 0 19
0 0 26
0 0 32
0 0 37
0 0 34
0 0 18
0 0 27
0 0 19
0 0 26
0 0 29
0 0 26
0 0 29
0 0 16
0 0 28
0 0 35
0 0 27
0 0 37
0 0 40
0 0 25
0 0 35
0 0 34
0 0 38
0 0 30
0 0 29
0 0 29
0 0 16
0 0 38
0 0 43
0 0 31
0 0 28
0 0 38
0 0 34
0 0 29
0 0 30
0 0 31
0 0 38
0 0 37
0 0 44
0 0 34
0 0 34
0 0 28
0 0 30
0 0 39
0 0 41
0 0 36
0 0 46
0 0 32
0 0 32
0 0 27
0 0 37
0 0 42
0 0 27
0 0 32
0 0 29
0 0 39
0 0 32
0 0 36
0 0 35
0 0 24
0 0 43
0 0 44
0 0 37
0 0 38
0 0 36
0 0 39
0 0 42
0 0 38
0 0 34
0 0 40
0 0 36
0 0 40
0 0 24
0 0 36
0 0 37
0 0 34
0 0 41
0 0 34
0 0 46
0 0 37
0 0 38
0 0 40
0 0 47
0 0 44
0 0 38
0 0 36
0 0 46
0 0 33
0 0 32
0 0 49
0 0 31
0 0 36
0 0 30
0 0 44
0 0 37
0 0 45
0 0 49
0 0 44
0 0 42
0 0 50
0 0 43
0 0 38
0 0 37
0 0 40
0 0 36
0 0 45
0 0 41
0 0 44
0 0 36
0 0 40
0 0 46
32 51 49
31 51 49
25 41 40
23 47 34
36 51 54
34 53 51
24 43 37
29 47 45
17 37 29
32 54 50
30 50 46
24 41 38
34 52 52
31 48 47
26 44 40
25 45 39
26 48 38
23 42 35
26 41 39
29 44 47
27 39 40
27 48 43
21 37 34
31 47 48
26 41 37
25 42 38
19 36 28
25 43 39
28 44 44
31 52 47
23 41 36
35 56 53
27 46 42
27 43 42
25 43 38
28 45 41
27 44 40
19 34 29
29 42 44
26 44 39
33 52 51
19 36 30
31 46 48
23 41 34
24 39 36
22 42 32
27 44 42
20 40 29
28 45 43
22 42 35
27 43 42
28 48 44
21 36 32
18 30 26
22 40 35
25 38 38
29 44 44
26 44 39
28 43 41
26 42 40
20 34 29
31 49 48
19 35 28
19 35 30
21 37 31
20 37 30
27 40 40
26 40 41
22 31 33
24 40 38
30 43 43
18 33 29
24 40 38
22 38 35
27 40 41
17 32 26
27 41 39
29 43 45
17 31 26
26 37 37
21 39 30
31 41 44
19 31 27
14 24 21
20 31 30
19 33 29
23 37 35
25 41 37
24 35 35
29 40 44
18 31 24
19 33 29
20 39 31
21 37 32
20 29 28
18 28 26
25 39 38
20 33 26
24 38 37
27 36 38
29 40 40
14 29 21
19 32 28
17 29 23
18 31 24
13 23 19
22 30 30
17 28 24
12 23 16
21 33 29
22 35 33
15 23 19
19 28 24
14 25 20
12 22 18
12 25 18
14 26 18
16 25 24
10 16 11
14 21 18
17 24 24
11 23 14
11 18 14
9 18 9
12 21 15
8 16 10
11 19 14
10 19 9
9 13 9
4 12 6
11 20 15
7 15 9
4 11 5
8 16 9
12 17 13
7 17 8
7 16 10
9 15 11
12 22 15
13 15 9
14 0 0
24 0 0
29 0 0
25 0 0
27 0 0
27 0 0
22 0 0
37 0 0
25 0 0
32 0 0
23 0 0
33 0 0
30 0 0
24 0 0
30 0 0
29 0 0
32 0 0
24 0 0
27 0 0
27 0 0
22 0 0
30 0 0
32 0 0
29 0 0
29 0 0
33 0 0
20 0 0
25 0 0
36 0 0
28 0 0
29 0 0
27 0 0
36 0 0
33 0 0
31 0 0
26 0 0
33 0 0
30 0 0
29 0 0
26 0 0
33 0 0
26 0 0
18 0 0
37 0 0
24 0 0
26 0 0
28 0 0
33 0 0
35 0 0
25 0 0
26 0 0
30 0 0
37 0 0
33 0 0
30 0 0
23 0 0
31 0 0
25 0 0
32 0 0
26 0 0
32 0 0
29 0 0
28 0 0
30 0 0
31 0 0
30 0 0
29 0 0
30 0 0
34 0 0
30 0 0
36 0 0
32 0 0
34 0 0
33 0 0
35 0 0
28 0 0
30 0 0
29 0 0
23 0 0
30 0 0
31 0 0
29 0 0
36 0 0
28 0 0
28 0 0
30 0 0
29 0 0
34 0 0
32 0 0
30 0 0
26 0 0
24 0 0
30 0 0
23 0 0
26 0 0
32 0 0
30 0 0
28 0 0
32 0 0
26 0 0
28 0 0
32 0 0
27 0 0
35 0 0
25 0 0
27 0 0
25 0 0
23 0 0
29 0 0
28 0 0
25 0 0
23 0 0
30 0 0
25 0 0
18 0 0
36 0 0
22 0 0
28 0 0
18 0 0
19 0 0
0 0 9
0 0 6
0 0 12
0 0 13
0 0 5
0 0 14
0 0 16
0 0 18
0 0 9
0 0 15
0 0 7
0 0 13
0 0 16
0 0 17
0 0 19
0 0 22
0 0 20
0 0 14
0 0 12
0 0 24
0 0 22
0 0 28
0 0 21
0 0 23
0 0 19
0 0 17
0 0 22
0 0 30
0 0 17
0 0 26
0 0 33
0 0 22
0 0 19
0 0 21
0 0 24
0 0 25
0 0 25
0 0 31
0 0 41
0 0 28
0 0 29
0 0 29
0 0 20
0 0 34
0 0 24
0 0 30
0 0 27
0 0 36
0 0 28
0 0 41
0 0 41
0 0 39
0 0 32
0 0 22
0 0 21
0 0 31
0 0 39
0 0 24
0 0 39
0 0 25
0 0 26
0 0 21
0 0 36
0 0 34
0 0 32
0 0 25
0 0 28
0 0 34
0 0 30
0 0 34
0 0 25
0 0 40
0 0 30
0 0 27
0 0 23
0 0 42
0 0 41
0 0 38
0 0 31
0 0 33
0 0 36
0 0 47
0 0 48
0 0 43
0 0 41
0 0 34
0 0 33
0 0 30
0 0 50
0 0 30
0 0 30
0 0 32
0 0 35
0 0 31
0 0 26
0 0 44
0 0 42
0 0 41
0 0 45
0 0 34
0 0 40
0 0 42
0 0 28
0 0 47
0 0 38
0 0 44
0 0 34
0 0 40
0 0 34
0 0 41
0 0 37
0 0 38
0 0 37
0 0 50
0 0 39
0 0 37
0 0 48
0 0 24
0 0 53
0 0 43
0 0 52
0 0 40
0 0 38
0 0 36
0 0 45
0 0 34
0 0 25
0 0 40
0 0 42
0 0 32
0 0 40
0 0 32
0 0 29
0 0 27
0 0 43
0 0 37
0 0 39
0 0 31
0 0 47
0 0 35
28 50 42
27 43 43
19 34 30
32 46 49
33 47 51
29 46 47
29 45 44
27 45 41
21 37 33
19 39 30
25 45 39
26 48 40
38 60 60
22 39 33
20 40 30
25 41 38
24 39 37
26 44 41
25 42 38
27 44 41
29 46 45
25 39 37
18 36 29
25 42 38
26 47 42
16 34 25
19 39 28
25 42 38
40 56 61
30 47 47
27 47 41
34 54 53
29 46 44
23 43 36
20 38 30
27 39 40
23 39 34
26 47 38
24 40 36
31 46 49
28 46 43
32 49 49
23 40 34
28 44 43
32 49 51
18 33 26
27 44 44
26 41 42
28 43 43
22 34 32
26 42 41
22 39 35
22 41 35
23 34 35
20 30 28
30 47 44
25 38 36
19 36 29
27 48 41
28 47 45
26 39 37
24 39 37
22 35 31
19 37 29
18 36 28
25 42 37
26 40 41
26 38 38
25 36 37
28 44 43
21 37 35
21 35 32
21 34 31
23 33 33
21 34 31
17 31 26
20 40 31
22 39 33
15 28 22
25 43 39
17 28 23
22 33 32
20 31 30
17 30 25
14 27 20
16 27 21
23 33 34
22 34 31
22 33 30
27 44 41
20 36 32
16 28 21
16 30 22
20 39 30
23 39 32
18 33 25
13 28 19
21 34 27
22 39 35
14 26 19
17 29 24
17 26 22
20 40 32
15 29 23
14 28 19
20 33 30
17 27 25
19 33 25
17 29 24
23 41 34
12 26 18
18 32 25
11 23 13
13 23 17
14 29 21
11 23 14
11 21 15
14 25 20
18 24 21
15 25 21
16 26 19
16 28 23
13 20 17
14 21 19
9 22 13
8 17 11
13 21 16
6 14 7
9 17 10
7 17 10
6 10 4
5 10 5
4 14 7
3 12 2
9 14 12
7 15 6
5 16 8
10 20 15
7 17 8
12 20 14
9 43 5
21 2 0
14 0 0
23 0 0
23 0 0
29 0 0
21 0 0
20 0 0
23 0 0
25 0 0
24 0 0
28 0 0
32 0 0
34 0 0
34 0 0
32 0 0
25 0 0
26 0 0
34 0 0
32 0 0
37 0 0
24 0 0
33 0 0
33 0 0
37 0 0
37 0 0
25 0 0
40 0 0
25 0 0
26 0 0
28 0 0
32 0 0
23 0 0
36 0 0
33 0 0
28 0 0
35 0 0
24 0 0
26 0 0
23 0 0
30 0 0
26 0 0
31 0 0
26 0 0
24 0 0
24 0 0
28 0 0
26 0 0
30 0 0
33 0 0
18 0 0
30 0 0
22 0 0
31 0 0
28 0 0
25 0 0
27 0 0
37 0 0
26 0 0
33 0 0
34 0 0
31 0 0
30 0 0
23 0 0
30 0 0
28 0 0
32 0 0
32 0 0
29 0 0
28 0 0
29 0 0
30 0 0
33 0 0
24 0 0
29 0 0
23 0 0
26 0 0
29 0 0
34 0 0
32 0 0
32 0 0
30 0 0
30 0 0
39 0 0
29 0 0
22 0 0
25 0 0
24 0 0
25 0 0
29 0 0
34 0 0
30 0 0
28 0 0
27 0 0
26 0 0
28 0 0
21 0 0
26 0 0
25 0 0
24 0 0
25 0 0
24 0 0
22 0 0
33 0 0
25 0 0
28 0 0
34 0 0
26 0 0
31 0 0
26 0 0
20 0 0
27 0 0
26 0 0
19 0 0
23 0 0
24 0 0
21 0 0
19 0 0
20 1 0
4 33 3
0 0 9
0 0 13
0 0 7
0 0 9
0 0 7
0 0 15
0 0 5
0 0 16
0 0 8
0 0 12
0 0 10
0 0 18
0 0 18
0 0 25
0 0 20
0 0 15
0 0 18
0 0 15
0 0 25
0 0 17
0 0 15
0 0 19
0 0 14
0 0 18
0 0 26
0 0 19
0 0 12
0 0 16
0 0 30
0 0 27
0 0 26
0 0 31
0 0 19
0 0 27
0 0 16
0 0 26
0 0 18
0 0 22
0 0 24
0 0 19
0 0 30
0 0 33
0 0 32
0 0 15
0 0 39
0 0 31
0 0 24
0 0 28
0 0 29
0 0 23
0 0 20
0 0 30
0 0 26
0 0 27
0 0 26
0 0 35
0 0 37
0 0 37
0 0 36
0 0 27
0 0 34
0 0 30
0 0 21
0 0 32
0 0 31
0 0 32
0 0 29
0 0 41
0 0 22
0 0 31
0 0 36
0 0 27
0 0 36
0 0 30
0 0 44
0 0 37
0 0 38
0 0 37
0 0 45
0 0 30
0 0 37
0 0 35
0 0 33
0 0 27
0 0 27
0 0 49
0 0 41
0 0 33
0 0 35
0 0 34
0 0 35
0 0 28
0 0 37
0 0 27
0 0 51
0 0 45
0 0 36
0 0 36
0 0 52
0 0 44
0 0 25
0 0 36
0 0 38
0 0 42
0 0 30
0 0 32
0 0 43
0 0 42
0 0 43
0 0 41
0 0 49
0 0 42
0 0 35
0 0 34
0 0 36
0 0 48
0 0 41
0 0 39
0 0 40
0 0 28
0 0 43
0 0 45
0 0 41
0 0 36
0 0 39
0 0 27
0 0 45
0 0 36
0 0 33
0 0 44
0 0 34
0 0 28
0 0 36
0 0 51
0 0 39
0 0 40
0 0 40
0 0 42
0 0 46
0 0 48
29 49 45
27 45 42
26 45 39
23 42 36
29 48 45
20 45 31
28 45 44
31 47 47
27 46 43
31 50 46
28 47 43
25 43 38
26 46 41
23 41 35
25 42 39
24 41 34
23 46 38
23 43 33
19 36 30
27 46 42
19 37 30
25 43 38
21 39 33
27 46 43
28 47 44
29 46 44
27 45 42
23 37 35
27 41 40
21 37 34
18 37 29
30 47 44
23 39 36
21 36 33
25 44 39
14 32 22
30 45 45
33 50 51
24 46 35
30 48 46
19 38 28
20 35 27
29 47 44
22 37 34
17 35 26
24 38 37
21 34 32
21 37 33
19 33 28
19 34 29
24 44 37
33 49 49
28 47 44
25 41 37
22 41 35
20 36 28
18 33 27
18 37 29
30 44 43
13 31 22
22 35 31
26 45 39
18 29 26
16 33 25
28 42 43
27 45 42
21 37 33
26 45 37
21 31 29
19 35 28
22 37 33
19 31 28
26 37 36
24 38 35
15 32 22
29 43 42
24 42 37
21 37 29
15 30 22
16 31 24
21 37 30
18 30 28
20 37 31
22 38 35
21 35 29
19 37 28
18 33 26
24 37 37
23 36 31
28 42 38
20 36 30
17 31 24
19 33 29
17 31 25
24 37 35
19 36 28
19 29 25
19 33 24
19 34 26
15 24 17
17 33 24
16 31 25
17 31 24
13 22 17
13 31 21
17 27 22
19 33 29
12 22 17
15 28 21
20 32 27
19 26 26
17 26 25
13 27 18
19 23 20
14 25 19
13 24 19
19 29 25
8 17 10
8 16 11
16 29 20
14 25 20
16 28 20
14 23 20
9 19 11
11 21 14
12 25 17
8 19 11
8 21 12
13 25 18
12 24 17
4 15 5
10 20 13
8 17 12
8 16 9
8 15 9
6 14 6
3 9 5
10 20 10
7 25 9
2 64 3
0 83 0
10 41 0
32 1 0
19 0 0
30 0 0
28 0 0
26 0 0
29 0 0
20 0 0
23 0 0
24 0 0
25 0 0
26 0 0
21 0 0
26 0 0
26 0 0
28 0 0
20 0 0
26 0 0
26 0 0
23 0 0
30 0 0
26 0 0
30 0 0
32 0 0
25 0 0
22 0 0
33 0 0
25 0 0
24 0 0
28 0 0
30 0 0
29 0 0
25 0 0
29 0 0
28 0 0
27 0 0
28 0 0
41 0 0
33 0 0
31 0 0
22 0 0
36 0 0
26 0 0
28 0 0
27 0 0
29 0 0
25 0 0
33 0 0
26 0 0
28 0 0
33 0 0
31 0 0
28 0 0
29 0 0
29 0 0
26 0 0
25 0 0
28 0 0
33 0 0
41 0 0
39 0 0
33 0 0
25 0 0
24 0 0
32 0 0
35 0 0
28 0 0
25 0 0
33 0 0
21 0 0
23 0 0
33 0 0
32 0 0
30 0 0
26 0 0
25 0 0
29 0 0
30 0 0
26 0 0
23 0 0
27 0 0
20 0 0
31 0 0
31 0 0
30 0 0
25 0 0
23 0 0
39 0 0
15 0 0
29 0 0
29 0 0
32 0 0
32 0 0
23 0 0
29 0 0
32 0 0
33 0 0
26 0 0
29 0 0
26 0 0
31 0 0
28 0 0
21 0 0
15 0 0
34 0 0
24 0 0
28 0 0
25 0 0
16 0 0
26 0 0
25 0 0
26 0 0
25 0 0
26 0 0
24 0 0
14 0 0
15 0 0
8 46 0
0 85 0
0 67 1
0 8 1
0 0 16
0 0 17
0 0 8
0 0 10
0 0 11
0 0 5
0 0 10
0 0 11
0 0 9
0 0 8
0 0 5
0 0 9
0 0 17
0 0 15
0 0 11
0 0 16
0 0 10
0 0 12
0 0 13
0 0 17
0 0 22
0 0 20
0 0 20
0 0 14
0 0 20
0 0 22
0 0 28
0 0 23
0 0 17
0 0 25
0 0 28
0 0 26
0 0 26
0 0 36
0 0 23
0 0 19
0 0 20
0 0 30
0 0 16
0 0 29
0 0 31
0 0 34
0 0 46
0 0 27
0 0 34
0 0 29
0 0 30
0 0 31
0 0 33
0 0 32
0 0 35
0 0 16
0 0 22
0 0 21
0 0 25
0 0 45
0 0 37
0 0 32
0 0 38
0 0 26
0 0 43
0 0 21
0 0 28
0 0 20
0 0 29
0 0 28
0 0 40
0 0 33
0 0 39
0 0 40
0 0 34
0 0 21
0 0 31
0 0 28
0 0 31
0 0 42
0 0 32
0 0 36
0 0 44
0 0 31
0 0 39
0 0 34
0 0 32
0 0 43
0 0 23
0 0 33
0 0 33
0 0 39
0 0 31
0 0 23
0 0 28
0 0 42
0 0 37
0 0 29
0 0 44
0 0 34
0 0 36
0 0 26
0 0 33
0 0 46
0 0 32
0 0 44
0 0 33
0 0 42
0 0 36
0 0 40
0 0 42
0 0 39
0 0 40
0 0 36
0 0 38
0 0 40
0 0 34
0 0 44
0 0 46
0 0 45
0 0 36
0 0 35
0 0 41
0 0 30
0 0 33
0 0 46
0 0 48
0 0 42
0 0 40
0 0 41
0 0 37
0 0 46
0 0 32
0 0 36
0 0 35
0 0 46
0 0 41
0 0 37
0 0 45
0 0 36
0 0 38
0 0 32
25 40 36
30 49 46
21 37 32
28 50 43
22 39 35
32 54 49
26 40 39
23 40 36
28 46 41
26 45 39
31 52 47
34 55 54
25 44 39
23 43 35
28 44 45
19 37 29
24 39 38
28 48 42
20 35 28
29 49 43
22 41 34
25 40 37
26 45 39
29 47 44
24 45 37
19 35 27
25 42 37
22 46 34
22 39 34
25 40 38
19 35 29
24 42 38
24 44 37
25 48 38
32 49 48
21 32 33
24 41 32
17 31 27
13 29 18
24 41 35
28 48 43
27 42 38
24 39 34
21 38 33
24 39 36
23 40 36
24 38 37
27 43 42
24 41 37
23 38 33
29 39 41
18 38 29
25 35 36
25 43 41
31 51 48
24 41 37
30 45 44
27 39 38
17 30 25
21 37 31
19 36 30
20 35 31
21 40 33
26 43 38
22 38 33
25 41 38
26 43 40
21 34 29
25 38 38
14 28 21
25 40 37
30 46 46
20 36 30
24 42 36
19 36 29
24 41 37
14 29 22
20 35 29
18 29 27
16 30 23
23 35 35
21 38 32
16 28 23
17 32 25
28 40 37
22 35 33
19 33 27
25 36 35
16 28 24
17 35 26
23 37 33
16 26 23
20 34 29
22 39 33
13 28 21
16 29 21
19 32 29
20 36 30
17 28 23
14 31 22
20 33 28
17 32 24
9 24 12
13 23 16
16 29 23
19 31 26
15 26 21
15 25 23
12 28 18
12 27 17
18 33 27
14 24 20
14 24 21
17 29 28
18 32 25
14 30 17
10 22 14
14 28 21
14 27 19
14 25 18
14 28 20
14 25 19
16 23 22
14 26 19
12 21 16
8 17 12
9 17 11
10 18 12
11 21 14
11 25 15
11 25 14
5 12 5
7 19 11
8 17 11
11 19 14
11 22 15
10 23 14
5 35 8
1 73 1
0 72 0
0 81 0
0 80 0
6 48 0
27 0 0
21 0 0
25 0 0
22 0 0
20 0 0
24 0 0
28 0 0
28 0 0
26 0 0
23 0 0
23 0 0
25 0 0
33 0 0
31 0 0
19 0 0
31 0 0
30 0 0
34 0 0
35 0 0
28 0 0
39 0 0
30 0 0
29 0 0
31 0 0
30 0 0
15 0 0
31 0 0
26 0 0
28 0 0
31 0 0
29 0 0
40 0 0
40 0 0
30 0 0
27 0 0
29 0 0
29 0 0
21 0 0
36 0 0
24 0 0
36 0 0
29 0 0
27 0 0
23 0 0
32 0 0
29 0 0
26 0 0
31 0 0
32 0 0
34 0 0
33 0 0
29 0 0
31 0 0
33 0 0
30 0 0
25 0 0
34 0 0
35 0 0
31 0 0
39 0 0
28 0 0
28 0 0
31 0 0
34 0 0
34 0 0
22 0 0
27 0 0
24 0 0
29 0 0
34 0 0
35 0 0
25 0 0
20 0 0
27 0 0
32 0 0
26 0 0
25 0 0
28 0 0
26 0 0
19 0 0
23 0 0
34 0 0
36 0 0
35 0 0
26 0 0
29 0 0
29 0 0
26 0 0
31 0 0
30 0 0
23 0 0
29 0 0
19 0 0
28 0 0
27 0 0
21 0 0
29 0 0
26 0 0
31 0 0
20 0 0
25 0 0
38 0 0
26 0 0
25 0 0
33 0 0
24 0 0
29 0 0
23 0 0
24 0 0
30 0 0
23 0 0
21 0 0
18 0 0
23 0 0
11 38 0
0 75 0
0 73 0
0 80 0
0 67 3
0 25 9
0 0 11
0 0 10
0 0 12
0 0 6
0 0 9
0 0 14
0 0 11
0 0 10
0 0 9
0 0 9
0 0 18
0 0 15
0 0 11
0 0 22
0 0 17
0 0 11
0 0 13
0 0 20
0 0 15
0 0 18
0 0 19
0 0 16
0 0 21
0 0 11
0 0 16
0 0 23
0 0 20
0 0 29
0 0 28
0 0 28
0 0 25
0 0 25
0 0 15
0 0 20
0 0 33
0 0 22
0 0 17
0 0 30
0 0 29
0 0 22
0 0 35
0 0 24
0 0 23
0 0 21
0 0 27
0 0 31
0 0 23
0 0 30
0 0 26
0 0 20
0 0 33
0 0 24
0 0 26
0 0 28
0 0 30
0 0 33
0 0 20
0 0 35
0 0 23
0 0 29
0 0 30
0 0 39
0 0 35
0 0 25
0 0 33
0 0 29
0 0 44
0 0 24
0 0 24
0 0 25
0 0 25
0 0 35
0 0 38
0 0 40
0 0 33
0 0 38
0 0 28
0 0 30
0 0 31
0 0 40
0 0 43
0 0 40
0 0 35
0 0 31
0 0 44
0 0 28
0 0 35
0 0 32
0 0 44
0 0 39
0 0 31
0 0 45
0 0 35
0 0 36
0 0 31
0 0 35
0 0 46
0 0 41
0 0 39
0 0 31
0 0 37
0 0 40
0 0 26
0 0 34
0 0 30
0 0 29
0 0 41
0 0 35
0 0 41
0 0 34
0 0 30
0 0 40
0 0 33
0 0 39
0 0 39
0 0 35
0 0 30
0 0 32
0 0 35
0 0 31
0 0 31
0 0 41
0 0 34
0 0 40
0 0 45
0 0 36
0 0 44
0 0 34
0 0 35
0 0 38
0 0 39
0 0 48
0 0 34
0 0 38
0 0 43
0 0 34
0 0 35
27 45 40
26 43 41
29 45 41
21 35 30
28 44 45
24 43 38
23 41 36
27 46 40
26 43 40
29 49 43
29 49 46
25 45 40
23 38 35
30 49 46
23 39 36
24 47 37
28 48 42
25 40 37
26 46 41
30 53 46
28 50 44
27 48 41
19 33 26
21 44 35
22 41 34
34 49 49
19 38 29
23 42 37
21 37 32
28 48 42
18 33 28
20 37 32
22 41 35
19 35 30
20 35 30
17 28 24
23 44 35
20 39 32
20 32 28
29 48 45
29 42 43
27 47 40
26 41 38
23 39 35
21 33 30
31 48 47
20 36 29
24 40 37
23 39 34
22 39 32
27 41 41
20 35 29
20 36 30
26 49 39
24 39 37
19 37 29
21 37 29
24 40 36
21 41 31
22 34 31
19 37 30
19 40 30
17 32 27
15 29 24
20 43 31
14 32 22
23 42 35
20 35 31
19 32 28
24 40 36
19 30 29
14 32 19
22 37 33
19 34 27
17 33 24
24 36 33
23 41 35
17 31 25
16 26 22
21 36 31
18 30 26
30 42 41
23 40 35
23 39 36
15 29 22
10 25 15
22 32 32
15 29 22
23 39 36
24 38 33
13 28 21
22 33 33
21 37 32
20 37 30
10 29 16
18 36 27
18 35 25
16 32 25
19 34 28
17 29 24
17 30 23
12 27 17
20 31 28
13 27 21
16 27 22
14 26 21
17 27 23
22 35 30
12 29 18
17 27 23
14 29 22
14 22 21
10 21 12
10 23 14
10 21 15
10 19 13
13 23 16
17 25 21
9 16 11
10 20 14
12 24 16
13 24 18
7 18 9
13 25 17
5 18 7
8 17 9
7 15 9
10 23 13
6 22 8
9 18 13
12 24 17
6 17 7
10 20 15
8 18 10
7 16 10
6 16 7
2 54 3
0 84 0
0 77 0
0 81 0
0 77 0
0 72 0
0 71 0
4 37 0
19 0 0
21 0 0
19 0 0
27 0 0
23 0 0
28 0 0
30 0 0
24 0 0
28 0 0
26 0 0
16 0 0
34 0 0
25 0 0
26 0 0
23 0 0
23 0 0
27 0 0
28 0 0
30 0 0
21 0 0
31 0 0
31 0 0
33 0 0
34 0 0
27 0 0
31 0 0
24 0 0
29 0 0
24 0 0
32 0 0
27 0 0
24 0 0
28 0 0
24 0 0
29 0 0
28 0 0
33 0 0
21 0 0
32 0 0
33 0 0
29 0 0
30 0 0
26 0 0
23 0 0
27 0 0
30 0 0
28 0 0
32 0 0
21 0 0
36 0 0
31 0 0
26 0 0
28 0 0
26 0 0
26 0 0
24 0 0
24 0 0
25 0 0
21 0 0
27 0 0
26 0 0
30 0 0
28 0 0
24 0 0
28 0 0
30 0 0
28 0 0
32 0 0
33 0 0
35 0 0
35 0 0
28 0 0
34 0 0
29 0 0
28 0 0
28 0 0
35 0 0
25 0 0
30 0 0
27 0 0
26 0 0
22 0 0
27 0 0
27 0 0
30 0 0
25 0 0
27 0 0
22 0 0
28 0 0
30 0 0
26 0 0
33 0 0
28 0 0
27 0 0
28 0 0
29 0 0
32 0 0
27 0 0
24 0 0
26 0 0
18 0 0
24 0 0
24 0 0
21 0 0
25 0 0
27 0 0
25 0 0
26 0 0
27 0 0
20 0 0
21 0 0
18 0 0
14 40 0
0 78 0
0 71 0
0 70 0
0 68 0
0 80 0
0 69 0
0 33 4
0 2 12
0 0 12
0 0 8
0 0 14
0 0 9
0 0 10
0 0 4
0 0 14
0 0 11
0 0 14
0 0 11
0 0 10
0 0 15
0 0 12
0 0 15
0 0 19
0 0 19
0 0 12
0 0 20
0 0 15
0 0 18
0 0 18
0 0 23
0 0 24
0 0 15
0 0 15
0 0 24
0 0 14
0 0 28
0 0 20
0 0 28
0 0 24
0 0 19
0 0 30
0 0 34
0 0 27
0 0 23
0 0 24
0 0 32
0 0 28
0 0 38
0 0 24
0 0 39
0 0 27
0 0 32
0 0 27
0 0 17
0 0 36
0 0 28
0 0 28
0 0 35
0 0 29
0 0 20
0 0 34
0 0 30
0 0 32
0 0 39
0 0 44
0 0 35
0 0 22
0 0 37
0 0 35
0 0 31
0 0 37
0 0 25
0 0 29
0 0 43
0 0 34
0 0 31
0 0 26
0 0 30
0 0 27
0 0 24
0 0 41
0 0 26
0 0 36
0 0 35
0 0 30
0 0 34
0 0 31
0 0 32
0 0 27
0 0 39
0 0 34
0 0 42
0 0 37
0 0 40
0 0 43
0 0 35
0 0 36
0 0 21
0 0 26
0 0 42
0 0 35
0 0 35
0 0 54
0 0 40
0 0 36
0 0 38
0 0 30
0 0 40
0 0 28
0 0 40
0 0 37
0 0 33
0 0 40
0 0 34
0 0 41
0 0 29
0 0 46
0 0 47
0 0 43
0 0 40
0 0 46
0 0 33
0 0 37
0 0 33
0 0 40
0 0 40
0 0 29
0 0 37
0 0 37
0 0 36
0 0 35
0 0 30
0 0 36
0 0 44
0 0 45
0 0 37
0 0 39
0 0 25
0 0 33
0 0 35
0 0 35
0 0 48
0 0 44
23 37 36
25 51 39
29 47 44
20 44 32
25 42 38
22 44 34
29 48 45
26 45 41
22 46 35
27 43 41
24 41 37
27 45 40
25 50 39
19 41 30
24 41 37
26 46 41
25 44 37
30 47 47
25 44 38
22 36 34
19 31 29
22 38 35
27 40 40
27 46 42
29 43 45
12 28 19
23 42 35
24 43 37
19 33 30
35 51 52
30 50 45
22 39 34
22 37 34
27 45 42
30 43 44
21 37 32
18 35 27
26 43 38
19 36 29
18 31 25
21 40 32
18 35 27
25 42 37
23 38 35
18 37 28
21 38 32
23 36 35
24 43 39
16 33 25
25 43 39
21 40 33
21 40 28
27 42 40
18 39 28
21 41 32
18 33 27
20 37 29
23 38 36
25 36 38
27 43 41
26 39 38
18 35 26
25 41 38
23 37 36
15 34 22
18 30 27
19 30 29
18 35 27
18 32 29
22 39 32
16 33 25
19 33 28
24 40 37
16 31 24
15 31 21
15 34 22
19 33 28
18 29 25
26 40 36
29 48 44
24 40 35
24 39 36
19 32 27
20 35 31
14 27 19
17 31 23
17 31 24
16 28 24
20 32 29
14 28 20
27 37 37
14 26 21
15 28 21
21 37 31
24 39 37
14 24 20
18 29 27
16 29 22
15 30 22
20 32 30
14 29 20
13 26 19
10 21 12
18 26 25
17 30 24
12 24 16
19 32 25
17 32 26
13 27 20
15 25 20
10 20 13
13 26 19
13 21 17
14 26 21
14 28 20
15 24 18
10 21 13
5 19 7
9 24 12
12 24 15
9 21 13
7 22 10
12 25 18
9 17 11
9 23 11
13 22 15
8 16 9
10 19 10
8 17 9
12 23 16
6 20 8
6 19 5
6 13 6
8 19 10
4 38 5
2 66 3
0 70 0
0 85 0
0 72 0
0 74 0
0 69 0
0 62 0
0 69 0
0 76 0
7 36 0
18 0 0
24 0 0
18 0 0
31 0 0
18 0 0
22 0 0
31 0 0
19 0 0
25 0 0
26 0 0
27 0 0
27 0 0
23 0 0
33 0 0
28 0 0
36 0 0
29 0 0
27 0 0
29 0 0
24 0 0
36 0 0
30 0 0
28 0 0
26 0 0
24 0 0
35 0 0
22 0 0
22 0 0
25 0 0
25 0 0
38 0 0
31 0 0
30 0 0
29 0 0
35 0 0
26 0 0
32 0 0
26 0 0
28 0 0
30 0 0
23 0 0
27 0 0
24 0 0
31 0 0
23 0 0
18 0 0
32 0 0
28 0 0
25 0 0
36 0 0
28 0 0
33 0 0
26 0 0
27 0 0
27 0 0
19 0 0
28 0 0
31 0 0
23 0 0
33 0 0
28 0 0
31 0 0
35 0 0
31 0 0
31 0 0
25 0 0
26 0 0
34 0 0
19 0 0
23 0 0
26 0 0
30 0 0
25 0 0
28 0 0
29 0 0
26 0 0
31 0 0
30 0 0
21 0 0
26 0 0
32 0 0
32 0 0
27 0 0
28 0 0
27 0 0
17 0 0
26 0 0
27 0 0
32 0 0
31 0 0
25 0 0
25 0 0
25 0 0
28 0 0
30 0 0
32 0 0
20 0 0
26 0 0
22 0 0
27 0 0
30 0 0
31 0 0
29 0 0
18 0 0
32 0 0
20 0 0
14 0 0
22 0 0
22 0 0
22 0 0
8 39 0
0 62 0
0 76 0
0 80 0
0 74 0
0 65 0
0 71 0
0 74 0
0 75 0
0 58 0
0 21 8
0 1 11
0 0 9
0 0 12
0 0 9
0 0 1
0 0 12
0 0 17
0 0 20
0 0 14
0 0 11
0 0 12
0 0 6
0 0 11
0 0 22
0 0 12
0 0 12
0 0 13
0 0 20
0 0 15
0 0 14
0 0 13
0 0 15
0 0 13
0 0 22
0 0 20
0 0 22
0 0 23
0 0 16
0 0 27
0 0 21
0 0 22
0 0 32
0 0 34
0 0 21
0 0 21
0 0 18
0 0 20
0 0 26
0 0 22
0 0 35
0 0 30
0 0 27
0 0 36
0 0 31
0 0 26
0 0 39
0 0 36
0 0 24
0 0 32
0 0 27
0 0 19
0 0 25
0 0 33
0 0 26
0 0 34
0 0 28
0 0 36
0 0 26
0 0 30
0 0 27
0 0 29
0 0 34
0 0 39
0 0 30
0 0 26
0 0 33
0 0 26
0 0 32
0 0 30
0 0 38
0 0 33
0 0 34
0 0 41
0 0 34
0 0 34
0 0 30
0 0 31
0 0 23
0 0 39
0 0 29
0 0 39
0 0 35
0 0 23
0 0 34
0 0 23
0 0 27
0 0 27
0 0 22
0 0 45
0 0 38
0 0 39
0 0 30
0 0 32
0 0 37
0 0 33
0 0 36
0 0 34
0 0 18
0 0 35
0 0 34
0 0 41
0 0 35
0 0 32
0 0 37
0 0 33
0 0 28
0 0 35
0 0 35
0 0 33
0 0 42
0 0 37
0 0 43
0 0 36
0 0 38
0 0 38
0 0 32
0 0 45
0 0 40
0 0 34
0 0 30
0 0 39
0 0 35
0 0 38
0 0 43
0 0 34
0 0 29
0 0 28
0 0 37
0 0 46
0 0 42
0 0 40
0 0 30
0 0 30
0 0 43
22 43 35
26 46 38
15 35 24
27 49 40
21 47 32
26 46 39
24 46 36
30 56 44
22 40 32
23 42 34
26 45 39
22 43 35
30 47 46
29 47 46
25 43 37
21 35 34
23 41 34
31 50 45
34 51 50
21 41 34
27 46 43
25 44 39
25 39 38
26 51 40
27 42 41
23 40 35
23 42 36
21 41 31
22 38 34
31 50 47
23 45 35
22 42 33
23 44 34
24 43 38
25 39 39
15 32 22
18 32 26
20 37 31
21 35 30
24 41 35
24 38 35
26 41 40
23 40 36
28 50 43
25 38 37
24 36 35
30 49 45
19 34 29
25 43 39
24 39 37
20 41 29
25 42 36
25 37 38
18 36 27
23 41 34
19 38 29
23 38 33
18 31 28
21 36 31
28 45 43
24 38 35
19 34 27
28 41 43
19 39 29
17 34 24
22 33 31
18 35 28
20 36 29
14 30 22
21 37 31
13 29 17
15 34 23
25 36 37
15 30 21
25 40 38
11 26 15
19 34 28
24 40 35
27 47 40
18 31 26
20 35 30
16 30 25
24 38 35
26 35 37
11 23 16
14 26 21
17 34 25
21 39 28
25 39 35
19 35 28
20 30 28
21 33 28
14 31 20
16 28 22
10 23 14
17 28 26
18 35 28
12 23 17
20 36 26
17 25 21
16 29 25
19 34 26
13 25 17
18 28 24
17 31 24
13 22 19
15 28 21
14 25 20
10 22 12
15 25 20
15 25 19
16 32 24
15 33 22
10 23 15
10 19 14
11 23 14
17 25 23
11 21 15
12 22 17
9 16 11
11 19 13
10 27 15
7 19 10
10 25 15
11 26 16
6 17 8
8 19 11
7 22 10
7 18 9
5 12 6
12 20 14
9 17 12
4 35 5
0 62 0
0 64 0
0 71 0
0 74 0
0 61 0
0 68 0
0 71 0
0 76 0
0 65 0
0 76 0
0 70 0
0 60 0
6 43 0
27 0 0
16 0 0
11 0 0
27 0 0
23 0 0
23 0 0
24 0 0
26 0 0
25 0 0
27 0 0
25 0 0
24 0 0
19 0 0
30 0 0
29 0 0
34 0 0
21 0 0
25 0 0
25 0 0
27 0 0
25 0 0
31 0 0
25 0 0
26 0 0
28 0 0
24 0 0
20 0 0
26 0 0
31 0 0
33 0 0
34 0 0
32 0 0
24 0 0
37 0 0
32 0 0
33 0 0
22 0 0
27 0 0
30 0 0
25 0 0
33 0 0
29 0 0
26 0 0
31 0 0
30 0 0
22 0 0
37 0 0
26 0 0
29 0 0
30 0 0
28 0 0
27 0 0
23 0 0
20 0 0
32 0 0
26 0 0
37 0 0
26 0 0
26 0 0
22 0 0
20 0 0
30 0 0
29 0 0
34 0 0
29 0 0
29 0 0
31 0 0
29 0 0
30 0 0
28 0 0
21 0 0
29 0 0
36 0 0
33 0 0
36 0 0
27 0 0
36 0 0
18 0 0
33 0 0
24 0 0
31 0 0
29 0 0
34 0 0
22 0 0
21 0 0
24 0 0
24 0 0
36 0 0
27 0 0
24 0 0
19 0 0
31 0 0
30 0 0
22 0 0
29 0 0
24 0 0
23 0 0
29 0 0
18 0 0
22 0 0
25 0 0
19 0 0
20 0 0
24 0 0
25 0 0
18 0 0
25 0 0
19 0 0
2 41 0
0 68 0
0 75 0
0 57 0
0 69 0
0 63 0
0 63 0
0 66 0
0 51 0
0 62 0
0 70 0
0 69 0
0 54 2
0 17 5
0 0 3
0 0 11
0 0 10
0 0 13
0 0 13
0 0 10
0 0 11
0 0 15
0 0 17
0 0 7
0 0 15
0 0 8
0 0 14
0 0 16
0 0 20
0 0 14
0 0 21
0 0 11
0 0 25
0 0 21
0 0 15
0 0 18
0 0 20
0 0 18
0 0 23
0 0 17
0 0 17
0 0 19
0 0 17
0 0 17
0 0 29
0 0 31
0 0 23
0 0 26
0 0 20
0 0 21
0 0 35
0 0 20
0 0 23
0 0 27
0 0 25
0 0 21
0 0 35
0 0 17
0 0 27
0 0 22
0 0 28
0 0 27
0 0 24
0 0 41
0 0 35
0 0 20
0 0 32
0 0 29
0 0 35
0 0 27
0 0 35
0 0 28
0 0 26
0 0 24
0 0 27
0 0 28
0 0 36
0 0 42
0 0 20
0 0 33
0 0 31
0 0 36
0 0 33
0 0 38
0 0 39
0 0 27
0 0 23
0 0 27
0 0 33
0 0 28
0 0 25
0 0 40
0 0 23
0 0 22
0 0 35
0 0 42
0 0 32
0 0 31
0 0 35
0 0 33
0 0 34
0 0 29
0 0 29
0 0 36
0 0 37
0 0 42
0 0 32
0 0 32
0 0 32
0 0 36
0 0 28
0 0 21
0 0 34
0 0 29
0 0 26
0 0 47
0 0 25
0 0 33
0 0 34
0 0 33
0 0 34
0 0 32
0 0 27
0 0 30
0 0 33
0 0 42
0 0 33
0 0 39
0 0 36
0 0 36
0 0 42
0 0 32
0 0 34
0 0 42
0 0 28
0 0 32
0 0 38
0 0 34
0 0 32
0 0 42
0 0 30
0 0 32
0 0 33
0 0 31
0 0 36
0 0 41
28 44 44
28 44 43
22 41 35
15 32 23
24 40 36
26 45 40
32 51 51
29 42 44
25 48 39
24 41 38
32 46 48
30 52 47
30 50 46
20 40 30
19 32 29
24 39 38
27 47 41
24 46 36
26 48 41
26 42 40
27 46 41
25 41 39
24 42 36
27 42 38
20 39 31
21 41 33
23 41 34
26 42 41
26 41 40
25 39 39
26 43 40
26 46 39
24 43 37
18 36 29
23 41 34
24 42 34
30 45 45
20 37 30
26 42 39
23 45 36
28 46 44
25 39 37
25 45 38
24 39 36
24 35 36
17 32 26
20 39 32
24 48 36
22 35 33
19 39 30
22 45 33
22 37 32
25 40 36
17 29 24
30 44 44
18 37 27
16 33 24
25 42 37
19 42 29
22 38 32
22 41 34
23 37 34
22 34 31
27 45 39
20 34 28
18 36 25
19 31 28
22 33 31
24 38 36
21 40 31
18 38 27
23 40 34
19 37 28
14 30 21
18 35 28
19 33 28
15 28 20
15 28 22
17 33 26
16 35 24
18 35 28
19 34 28
21 38 30
23 35 31
18 35 28
17 31 20
20 31 29
13 27 19
9 27 14
18 33 26
18 31 25
19 28 28
10 23 14
11 26 16
16 29 22
13 27 18
8 20 13
11 26 18
16 32 24
13 27 19
16 30 24
15 30 23
18 26 25
16 25 20
20 27 28
10 25 12
11 26 16
13 28 18
17 30 22
13 28 18
12 24 17
15 28 22
11 22 15
13 26 20
13 26 17
14 27 21
10 20 13
12 26 16
10 24 13
12 22 17
6 19 8
13 19 17
13 26 18
8 21 12
7 13 8
10 17 12
6 23 9
11 21 14
9 20 13
4 17 5
3 24 5
3 57 4
0 72 0
0 67 0
0 65 0
0 76 0
0 61 0
0 63 0
0 65 0
0 63 0
0 60 0
0 74 0
0 60 0
0 61 0
0 65 0
0 68 0
2 51 0
19 8 0
24 0 0
23 0 0
19 0 0
15 0 0
20 0 0
24 0 0
24 0 0
27 0 0
17 0 0
27 0 0
25 0 0
29 0 0
24 0 0
24 0 0
33 0 0
22 0 0
20 0 0
29 0 0
22 0 0
26 0 0
26 0 0
24 0 0
35 0 0
24 0 0
23 0 0
29 0 0
32 0 0
24 0 0
29 0 0
32 0 0
18 0 0
30 0 0
23 0 0
23 0 0
28 0 0
21 0 0
28 0 0
21 0 0
26 0 0
27 0 0
24 0 0
28 0 0
27 0 0
32 0 0
26 0 0
30 0 0
41 0 0
30 0 0
26 0 0
29 0 0
24 0 0
26 0 0
27 0 0
23 0 0
30 0 0
30 0 0
24 0 0
29 0 0
23 0 0
23 0 0
36 0 0
28 0 0
32 0 0
25 0 0
33 0 0
37 0 0
28 0 0
28 0 0
25 0 0
27 0 0
19 0 0
26 0 0
30 0 0
22 0 0
22 0 0
24 0 0
44 0 0
33 0 0
26 0 0
25 0 0
29 0 0
21 0 0
25 0 0
21 0 0
18 0 0
31 0 0
30 0 0
27 0 0
32 0 0
26 0 0
20 0 0
22 0 0
27 0 0
25 0 0
26 0 0
25 0 0
20 0 0
15 0 0
15 0 0
13 0 0
31 0 0
18 0 0
24 0 0
15 0 0
13 2 0
5 49 0
0 67 0
0 64 0
0 59 0
0 61 0
0 58 0
0 60 0
0 63 0
0 57 0
0 66 0
0 52 0
0 64 0
0 60 0
0 56 0
0 69 0
0 57 6
0 7 14
0 0 11
0 0 4
0 0 5
0 0 11
0 0 10
0 0 11
0 0 3
0 0 12
0 0 21
0 0 19
0 0 14
0 0 11
0 0 11
0 0 12
0 0 19
0 0 17
0 0 24
0 0 34
0 0 14
0 0 17
0 0 13
0 0 16
0 0 23
0 0 29
0 0 18
0 0 17
0 0 26
0 0 21
0 0 27
0 0 25
0 0 12
0 0 33
0 0 21
0 0 29
0 0 28
0 0 29
0 0 24
0 0 26
0 0 19
0 0 35
0 0 26
0 0 31
0 0 26
0 0 23
0 0 15
0 0 21
0 0 12
0 0 28
0 0 31
0 0 31
0 0 24
0 0 28
0 0 29
0 0 31
0 0 33
0 0 19
0 0 21
0 0 24
0 0 29
0 0 29
0 0 26
0 0 34
0 0 29
0 0 33
0 0 34
0 0 35
0 0 27
0 0 31
0 0 38
0 0 25
0 0 27
0 0 32
0 0 23
0 0 23
0 0 32
0 0 28
0 0 39
0 0 39
0 0 29
0 0 29
0 0 43
0 0 36
0 0 34
0 0 22
0 0 35
0 0 28
0 0 33
0 0 41
0 0 50
0 0 46
0 0 23
0 0 40
0 0 29
0 0 35
0 0 41
0 0 32
0 0 32
0 0 26
0 0 37
0 0 33
0 0 35
0 0 28
0 0 23
0 0 28
0 0 29
0 0 40
0 0 44
0 0 37
0 0 33
0 0 41
0 0 34
0 0 26
0 0 31
0 0 37
0 0 39
0 0 37
0 0 36
0 0 34
0 0 41
0 0 41
0 0 36
0 0 38
0 0 37
0 0 57
0 0 36
0 0 34
0 0 37
0 0 38
0 0 41
0 0 38
21 39 34
14 39 21
27 44 42
32 50 47
27 47 41
24 41 37
25 47 37
28 45 44
21 39 33
23 45 34
28 44 42
21 36 31
24 41 35
23 43 34
28 46 43
31 47 48
26 38 38
23 41 34
18 44 27
19 39 28
36 56 53
23 44 36
18 38 27
30 48 44
19 37 31
25 43 37
25 44 38
18 32 27
24 43 37
22 38 33
25 41 37
24 42 37
12 32 19
22 35 34
31 48 47
21 42 30
24 40 34
24 39 38
14 34 21
21 39 29
21 35 29
23 41 34
26 48 41
22 40 34
20 34 32
30 45 46
18 34 27
20 33 30
20 41 30
17 35 27
15 28 22
19 36 28
24 44 37
18 35 27
19 31 27
21 34 31
24 33 35
25 44 39
18 35 26
19 37 29
25 42 36
26 45 39
21 37 30
14 29 23
15 32 23
20 40 30
16 30 24
16 33 25
18 30 26
21 39 31
24 38 36
14 28 21
17 35 26
20 37 32
22 40 34
17 32 24
18 32 27
22 37 33
22 37 32
18 31 24
25 40 34
22 36 32
16 32 24
20 35 29
14 29 21
17 31 25
17 32 28
25 43 34
9 20 14
24 38 34
20 34 29
18 36 29
10 26 16
14 30 20
17 32 25
17 31 24
15 24 20
15 29 22
22 36 31
11 22 15
16 31 24
13 27 18
14 29 22
14 30 21
16 29 22
16 31 24
14 26 19
14 25 18
15 23 19
16 30 24
7 17 10
14 26 19
15 28 22
9 24 12
19 28 27
9 24 13
8 14 12
10 23 15
7 19 10
7 26 9
9 20 10
5 22 7
14 24 19
10 21 14
8 21 11
8 18 10
10 20 13
11 22 16
5 23 6
2 53 2
0 51 0
0 66 0
0 58 0
0 59 0
0 63 0
0 68 0
0 53 0
0 62 0
0 61 0
0 56 0
0 63 0
0 66 0
0 55 0
0 56 0
0 63 0
0 63 0
0 65 0
0 62 0
13 20 0
16 0 0
17 0 0
32 0 0
12 0 0
24 0 0
27 0 0
20 0 0
29 0 0
24 0 0
19 0 0
21 0 0
30 0 0
21 0 0
24 0 0
25 0 0
25 0 0
23 0 0
26 0 0
27 0 0
29 0 0
28 0 0
31 0 0
32 0 0
22 0 0
29 0 0
31 0 0
28 0 0
31 0 0
21 0 0
28 0 0
22 0 0
35 0 0
25 0 0
26 0 0
32 0 0
23 0 0
31 0 0
28 0 0
19 0 0
16 0 0
26 0 0
30 0 0
28 0 0
32 0 0
32 0 0
28 0 0
28 0 0
29 0 0
30 0 0
22 0 0
25 0 0
25 0 0
34 0 0
29 0 0
24 0 0
29 0 0
30 0 0
26 0 0
30 0 0
25 0 0
33 0 0
19 0 0
19 0 0
33 0 0
27 0 0
24 0 0
30 0 0
27 0 0
26 0 0
26 0 0
26 0 0
26 0 0
38 0 0
24 0 0
21 0 0
27 0 0
20 0 0
27 0 0
24 0 0
31 0 0
37 0 0
24 0 0
31 0 0
18 0 0
23 0 0
23 0 0
26 0 0
25 0 0
28 0 0
25 0 0
24 0 0
19 0 0
26 0 0
19 0 0
23 0 0
17 0 0
20 0 0
25 0 0
22 0 0
13 0 0
27 0 0
20 0 0
15 5 0
1 61 0
0 53 0
0 58 0
0 67 0
0 46 0
0 54 0
0 58 0
0 45 0
0 60 0
0 55 0
0 66 0
0 56 0
0 53 0
0 53 0
0 48 0
0 55 0
0 57 0
0 51 0
0 39 1
0 10 12
0 0 11
0 0 8
0 0 6
0 0 17
0 0 14
0 0 16
0 0 5
0 0 5
0 0 8
0 0 18
0 0 9
0 0 13
0 0 17
0 0 23
0 0 18
0 0 19
0 0 16
0 0 11
0 0 20
0 0 17
0 0 11
0 0 18
0 0 21
0 0 9
0 0 25
0 0 22
0 0 24
0 0 14
0 0 25
0 0 34
0 0 16
0 0 20
0 0 33
0 0 23
0 0 36
0 0 20
0 0 27
0 0 24
0 0 28
0 0 26
0 0 21
0 0 29
0 0 28
0 0 31
0 0 17
0 0 26
0 0 21
0 0 24
0 0 27
0 0 32
0 0 28
0 0 25
0 0 30
0 0 20
0 0 20
0 0 27
0 0 31
0 0 29
0 0 19
0 0 31
0 0 25
0 0 32
0 0 16
0 0 23
0 0 38
0 0 26
0 0 33
0 0 23
0 0 22
0 0 23
0 0 22
0 0 34
0 0 37
0 0 33
0 0 42
0 0 41
0 0 29
0 0 29
0 0 35
0 0 32
0 0 35
0 0 28
0 0 35
0 0 32
0 0 34
0 0 37
0 0 42
0 0 31
0 0 28
0 0 34
0 0 29
0 0 29
0 0 33
0 0 32
0 0 34
0 0 45
0 0 40
0 0 42
0 0 28
0 0 34
0 0 27
0 0 33
0 0 34
0 0 38
0 0 32
0 0 37
0 0 38
0 0 42
0 0 25
0 0 34
0 0 42
0 0 33
0 0 39
0 0 41
0 0 24
0 0 40
0 0 31
0 0 37
0 0 27
0 0 19
0 0 28
0 0 40
0 0 46
0 0 40
0 0 45
0 0 32
0 0 30
0 0 35
28 51 42
29 54 45
30 51 46
27 48 40
17 39 25
26 44 38
29 48 46
30 48 45
26 43 39
22 39 35
13 29 21
21 38 32
22 41 34
21 39 33
31 50 48
27 48 43
24 37 36
23 41 36
24 40 38
22 42 33
26 43 39
27 49 42
19 36 29
24 46 37
17 31 26
22 39 33
21 39 32
21 39 33
22 37 33
26 45 39
23 41 36
22 38 34
22 38 34
18 33 27
27 46 41
21 39 30
27 45 40
19 34 30
21 39 31
22 40 34
25 45 37
22 38 33
23 42 36
31 47 46
22 37 34
27 38 40
18 35 27
21 40 31
26 45 40
15 30 21
19 38 28
25 42 39
22 37 34
16 31 23
28 46 42
23 41 36
21 34 31
22 40 32
16 37 24
16 33 23
20 37 30
22 42 32
19 38 29
24 36 33
13 30 20
23 41 33
29 47 42
26 43 40
18 31 26
22 38 32
23 35 34
24 35 33
18 29 26
19 34 28
19 34 30
20 35 30
18 37 27
26 42 35
17 29 25
20 41 30
17 35 25
20 40 30
20 34 30
16 28 23
19 36 27
18 33 24
12 29 18
20 33 27
13 24 19
10 26 15
18 34 26
11 28 17
15 27 22
11 23 15
14 29 19
17 30 24
17 36 26
19 31 29
14 28 18
14 28 18
21 36 29
10 31 14
19 32 28
12 23 16
11 19 15
25 38 36
16 27 24
12 27 16
11 23 16
17 29 24
14 24 18
13 24 19
8 17 9
14 30 21
7 20 9
11 23 15
15 31 21
9 21 13
8 17 10
10 28 12
15 26 21
6 19 8
10 17 11
8 20 10
10 24 14
9 22 11
8 31 10
6 51 8
0 48 0
0 55 0
0 67 0
0 55 0
0 57 0
0 63 0
0 62 0
0 57 0
0 63 0
0 64 0
0 53 0
0 53 0
0 61 0
0 60 0
0 58 0
0 61 0
0 55 0
0 58 0
0 51 0
0 61 0
0 72 0
9 30 0
17 0 0
25 0 0
22 0 0
17 0 0
27 0 0
24 0 0
27 0 0
22 0 0
21 0 0
28 0 0
28 0 0
24 0 0
17 0 0
23 0 0
26 0 0
28 0 0
30 0 0
32 0 0
27 0 0
29 0 0
30 0 0
29 0 0
30 0 0
21 0 0
30 0 0
31 0 0
17 0 0
22 0 0
25 0 0
27 0 0
33 0 0
30 0 0
28 0 0
26 0 0
32 0 0
21 0 0
26 0 0
26 0 0
21 0 0
31 0 0
35 0 0
28 0 0
19 0 0
27 0 0
24 0 0
23 0 0
26 0 0
32 0 0
32 0 0
26 0 0
27 0 0
33 0 0
20 0 0
26 0 0
22 0 0
23 0 0
22 0 0
26 0 0
28 0 0
20 0 0
25 0 0
26 0 0
29 0 0
24 0 0
24 0 0
29 0 0
27 0 0
28 0 0
23 0 0
29 0 0
27 0 0
21 0 0
25 0 0
27 0 0
16 0 0
29 0 0
26 0 0
30 0 0
24 0 0
19 0 0
26 0 0
31 0 0
19 0 0
24 0 0
27 0 0
23 0 0
19 0 0
21 0 0
24 0 0
28 0 0
16 0 0
25 0 0
24 0 0
28 0 0
17 0 0
22 0 0
25 0 0
27 0 0
8 0 0
16 0 0
10 21 0
0 55 0
0 52 0
0 53 0
0 51 0
0 48 0
0 56 0
0 44 0
0 55 0
0 55 0
0 59 0
0 56 0
0 45 0
0 58 0
0 44 0
0 46 0
0 53 0
0 58 0
0 50 0
0 56 0
0 47 0
0 57 0
0 28 1
0 8 8
0 0 15
0 0 12
0 0 8
0 0 12
0 0 12
0 0 16
0 0 15
0 0 9
0 0 13
0 0 14
0 0 13
0 0 14
0 0 14
0 0 7
0 0 16
0 0 13
0 0 22
0 0 15
0 0 9
0 0 10
0 0 14
0 0 13
0 0 24
0 0 19
0 0 31
0 0 29
0 0 22
0 0 21
0 0 27
0 0 20
0 0 25
0 0 24
0 0 18
0 0 24
0 0 25
0 0 18
0 0 20
0 0 34
0 0 29
0 0 24
0 0 17
0 0 26
0 0 17
0 0 32
0 0 25
0 0 26
0 0 28
0 0 30
0 0 22
0 0 20
0 0 33
0 0 17
0 0 28
0 0 26
0 0 21
0 0 31
0 0 28
0 0 26
0 0 20
0 0 25
0 0 30
0 0 34
0 0 27
0 0 35
0 0 29
0 0 24
0 0 30
0 0 22
0 0 35
0 0 29
0 0 32
0 0 28
0 0 33
0 0 39
0 0 29
0 0 31
0 0 21
0 0 31
0 0 35
0 0 41
0 0 40
0 0 27
0 0 27
0 0 27
0 0 34
0 0 37
0 0 20
0 0 33
0 0 28
0 0 32
0 0 35
0 0 32
0 0 41
0 0 31
0 0 31
0 0 39
0 0 38
0 0 29
0 0 27
0 0 34
0 0 34
0 0 35
0 0 30
0 0 24
0 0 26
0 0 29
0 0 34
0 0 21
0 0 29
0 0 32
0 0 41
0 0 26
0 0 36
0 0 30
0 0 43
0 0 34
0 0 37
0 0 42
0 0 36
0 0 30
0 0 51
0 0 37
0 0 32
0 0 46
0 0 45
0 0 37
25 45 38
24 46 37
30 50 46
24 46 37
20 42 31
24 45 37
19 40 31
32 50 48
24 48 36
28 46 42
30 48 47
16 29 24
15 38 23
23 41 35
21 39 31
27 46 39
21 38 32
24 48 35
21 41 30
22 42 34
19 33 30
13 30 21
22 41 35
24 44 37
30 50 46
21 38 32
20 35 30
18 36 27
15 35 23
22 41 34
17 40 25
27 46 42
28 47 42
26 44 39
22 40 33
27 46 40
21 37 32
23 40 34
19 41 29
29 47 42
21 35 33
29 46 45
28 44 39
17 37 25
18 35 27
22 38 33
22 40 34
24 37 36
17 31 25
22 39 35
22 35 33
18 32 29
24 40 36
22 36 33
16 32 22
18 35 27
31 51 46
19 36 29
21 39 31
17 30 26
15 30 24
22 36 33
17 33 27
16 31 23
16 33 23
20 38 31
20 38 29
20 37 29
12 31 19
21 38 30
18 36 27
13 26 20
16 33 24
23 37 34
17 34 24
11 30 16
21 34 32
19 31 27
14 33 21
25 39 35
20 34 30
20 37 30
20 32 29
17 32 26
16 32 25
18 38 26
13 29 20
13 29 18
19 34 28
15 25 21
18 33 27
20 36 29
15 27 21
19 34 28
13 25 15
16 28 24
19 37 28
16 31 23
13 22 19
18 32 27
11 21 16
11 25 15
14 28 19
16 31 23
15 24 21
5 15 6
7 21 11
12 26 17
10 24 14
11 24 17
15 26 20
13 28 19
9 19 11
11 25 16
5 19 7
9 22 13
8 19 10
7 18 9
10 22 14
11 22 15
8 19 10
6 17 7
9 17 11
8 24 11
3 30 4
0 40 0
0 47 0
0 51 0
0 52 0
0 46 0
0 51 0
0 45 0
0 45 0
0 49 0
0 51 0
0 54 0
0 57 0
0 67 0
0 51 0
0 50 0
0 57 0
0 53 0
0 56 0
0 58 0
0 58 0
0 53 0
0 55 0
0 58 0
0 55 0
0 61 0
1 48 0
15 13 0
26 0 0
12 0 0
25 0 0
25 0 0
22 0 0
18 0 0
18 0 0
19 0 0
19 0 0
20 0 0
25 0 0
17 0 0
23 0 0
22 0 0
28 0 0
23 0 0
25 0 0
29 0 0
24 0 0
28 0 0
20 0 0
26 0 0
26 0 0
25 0 0
31 0 0
25 0 0
29 0 0
23 0 0
23 0 0
26 0 0
25 0 0
27 0 0
34 0 0
26 0 0
21 0 0
25 0 0
27 0 0
27 0 0
31 0 0
26 0 0
25 0 0
22 0 0
31 0 0
24 0 0
21 0 0
28 0 0
27 0 0
24 0 0
27 0 0
29 0 0
25 0 0
34 0 0
27 0 0
29 0 0
28 0 0
32 0 0
35 0 0
31 0 0
23 0 0
26 0 0
32 0 0
27 0 0
23 0 0
22 0 0
32 0 0
26 0 0
25 0 0
26 0 0
31 0 0
32 0 0
27 0 0
23 0 0
30 0 0
22 0 0
28 0 0
23 0 0
25 0 0
24 0 0
31 0 0
31 0 0
27 0 0
26 0 0
24 0 0
22 0 0
23 0 0
27 0 0
27 0 0
21 0 0
22 0 0
17 0 0
20 0 0
23 0 0
25 0 0
27 0 0
21 0 0
23 0 0
16 8 0
1 47 0
0 51 0
0 46 0
0 46 0
0 35 0
0 47 0
0 44 0
0 50 0
0 46 0
0 48 0
0 52 0
0 42 0
0 45 0
0 38 0
0 37 0
0 55 0
0 59 0
0 46 0
0 50 0
0 38 0
0 46 0
0 55 0
0 44 0
0 48 0
0 52 0
0 35 3
0 16 8
0 2 13
0 0 13
0 0 11
0 0 11
0 0 11
0 0 15
0 0 14
0 0 5
0 0 14
0 0 23
0 0 13
0 0 15
0 0 15
0 0 14
0 0 22
0 0 11
0 0 25
0 0 15
0 0 14
0 0 26
0 0 19
0 0 15
0 0 14
0 0 27
0 0 19
0 0 31
0 0 10
0 0 28
0 0 17
0 0 22
0 0 30
0 0 27
0 0 27
0 0 24
0 0 21
0 0 32
0 0 28
0 0 17
0 0 13
0 0 38
0 0 20
0 0 23
0 0 23
0 0 27
0 0 28
0 0 24
0 0 23
0 0 26
0 0 28
0 0 29
0 0 25
0 0 22
0 0 26
0 0 33
0 0 27
0 0 26
0 0 36
0 0 15
0 0 28
0 0 17
0 0 35
0 0 27
0 0 28
0 0 30
0 0 29
0 0 22
0 0 33
0 0 29
0 0 23
0 0 38
0 0 30
0 0 35
0 0 32
0 0 33
0 0 26
0 0 32
0 0 35
0 0 31
0 0 27
0 0 27
0 0 30
0 0 31
0 0 27
0 0 31
0 0 28
0 0 44
0 0 28
0 0 29
0 0 28
0 0 28
0 0 31
0 0 29
0 0 37
0 0 36
0 0 34
0 0 37
0 0 31
0 0 29
0 0 52
0 0 33
0 0 40
0 0 31
0 0 29
0 0 41
0 0 39
0 0 27
0 0 25
0 0 28
0 0 31
0 0 40
0 0 29
0 0 38
0 0 34
0 0 28
0 0 28
0 0 37
0 0 30
0 0 34
0 0 47
0 0 31
0 0 38
0 0 28
0 0 32
0 0 20
18 43 28
22 40 33
26 47 39
18 40 28
24 42 35
18 38 29
25 44 39
31 51 49
21 38 32
22 41 34
23 41 37
32 49 49
30 49 47
16 36 24
23 44 35
24 41 35
19 39 30
24 41 37
26 42 40
18 35 27
19 37 29
24 41 37
18 36 29
23 42 35
26 47 39
24 42 38
26 45 37
27 46 40
14 31 22
16 31 24
20 37 31
27 49 41
25 41 37
18 42 28
17 34 27
25 43 38
18 35 27
19 44 30
20 32 29
16 34 23
20 37 31
26 45 40
19 40 29
19 38 28
17 36 24
24 42 35
16 28 23
16 33 23
21 36 32
18 36 25
26 43 39
16 29 24
22 40 33
24 40 36
12 32 17
18 34 27
23 40 33
20 33 30
22 34 31
17 33 25
13 33 21
19 35 28
26 40 39
22 42 33
19 32 28
10 28 15
18 31 26
21 36 32
20 40 30
16 32 23
15 27 22
20 32 29
22 39 31
21 38 32
22 37 32
15 31 23
18 34 27
16 32 25
19 36 28
19 37 28
21 34 28
15 31 22
15 32 22
14 28 22
11 25 16
16 25 21
20 34 30
20 37 29
12 28 18
9 24 12
16 32 23
14 32 21
19 33 29
11 25 17
12 27 16
15 28 21
16 32 24
16 32 24
12 28 19
11 28 17
19 31 26
9 26 13
15 29 22
17 31 24
8 19 10
9 26 14
10 24 15
13 26 19
6 20 8
11 24 14
9 24 10
11 23 17
13 20 17
6 16 7
7 20 10
10 20 14
6 17 9
8 20 12
11 17 13
6 19 9
4 16 6
8 25 12
4 32 5
2 51 3
0 43 0
0 57 0
0 52 0
0 55 0
0 47 0
0 48 0
0 48 0
0 55 0
0 47 0
0 56 0
0 43 0
0 57 0
0 40 0
0 54 0
0 49 0
0 52 0
0 54 0
0 56 0
0 47 0
0 49 0
0 57 0
0 51 0
0 49 0
0 57 0
0 48 0
0 50 0
0 48 0
0 59 0
6 31 0
19 4 0
24 0 0
22 0 0
26 0 0
26 0 0
24 0 0
17 0 0
16 0 0
29 0 0
22 0 0
25 0 0
21 0 0
18 0 0
26 0 0
27 0 0
26 0 0
25 0 0
29 0 0
31 0 0
24 0 0
29 0 0
28 0 0
28 0 0
20 0 0
23 0 0
27 0 0
21 0 0
30 0 0
26 0 0
22 0 0
30 0 0
27 0 0
28 0 0
21 0 0
28 0 0
27 0 0
31 0 0
23 0 0
25 0 0
29 0 0
27 0 0
20 0 0
26 0 0
31 0 0
25 0 0
29 0 0
30 0 0
29 0 0
21 0 0
22 0 0
24 0 0
38 0 0
24 0 0
21 0 0
29 0 0
24 0 0
35 0 0
17 0 0
21 0 0
30 0 0
30 0 0
29 0 0
25 0 0
31 0 0
28 0 0
33 0 0
21 0 0
24 0 0
29 0 0
25 0 0
29 0 0
32 0 0
19 0 0
34 0 0
25 0 0
22 0 0
20 0 0
29 0 0
23 0 0
20 0 0
26 0 0
28 0 0
23 0 0
30 0 0
23 0 0
14 0 0
19 0 0
24 0 0
25 0 0
21 0 0
27 0 0
23 0 0
26 0 0
17 2 0
6 34 0
0 42 0
0 52 0
0 55 0
0 44 0
0 48 0
0 50 0
0 47 0
0 42 0
0 41 0
0 52 0
0 55 0
0 45 0
0 42 0
0 47 0
0 49 0
0 34 0
0 46 0
0 36 0
0 49 0
0 52 0
0 42 0
0 44 0
0 41 0
0 44 0
0 44 0
0 50 0
0 44 0
0 49 0
0 32 0
0 31 4
0 5 9
0 0 10
0 0 12
0 0 13
0 0 14
0 0 18
0 0 5
0 0 8
0 0 6
0 0 12
0 0 11
0 0 17
0 0 18
0 0 19
0 0 16
0 0 23
0 0 8
0 0 17
0 0 21
0 0 19
0 0 15
0 0 21
0 0 12
0 0 9
0 0 16
0 0 12
0 0 27
0 0 22
0 0 22
0 0 27
0 0 33
0 0 24
0 0 17
0 0 29
0 0 24
0 0 18
0 0 22
0 0 16
0 0 16
0 0 18
0 0 27
0 0 18
0 0 24
0 0 28
0 0 33
0 0 28
0 0 25
0 0 26
0 0 27
0 0 14
0 0 29
0 0 25
0 0 30
0 0 33
0 0 30
0 0 18
0 0 34
0 0 27
0 0 34
0 0 22
0 0 34
0 0 31
0 0 28
0 0 24
0 0 23
0 0 23
0 0 31
0 0 22
0 0 17
0 0 25
0 0 39
0 0 30
0 0 31
0 0 32
0 0 25
0 0 41
0 0 19
0 0 26
0 0 41
0 0 25
0 0 38
0 0 30
0 0 37
0 0 32
0 0 32
0 0 34
0 0 25
0 0 39
0 0 25
0 0 32
0 0 38
0 0 40
0 0 27
0 0 20
0 0 34
0 0 29
0 0 35
0 0 32
0 0 34
0 0 24
0 0 39
0 0 28
0 0 38
0 0 33
0 0 32
0 0 32
0 0 32
0 0 37
0 0 34
0 0 35
0 0 34
0 0 21
0 0 33
0 0 27
0 0 35
0 0 29
0 0 37
0 0 36
0 0 27
0 0 29
0 0 32
0 0 37
23 38 35
23 46 35
21 37 31
31 45 47
19 39 28
22 42 33
23 44 35
20 37 29
22 46 34
31 46 46
27 47 41
26 46 39
30 48 45
22 42 34
33 53 48
24 46 36
19 34 29
25 43 36
19 40 30
19 34 29
17 29 27
22 41 35
22 39 33
25 39 37
24 41 36
22 40 33
15 30 23
31 48 46
19 35 30
21 45 32
25 43 38
20 36 31
24 45 37
22 38 33
21 38 31
20 34 29
15 33 23
24 40 37
17 36 25
28 46 42
28 46 42
13 31 20
18 33 27
21 36 29
21 38 31
26 49 40
11 29 17
19 38 29
12 30 18
24 39 34
27 48 40
18 37 28
24 38 36
24 41 33
21 34 33
22 36 33
23 43 33
18 36 27
20 37 31
24 42 35
17 37 23
26 40 40
18 34 28
16 30 24
21 38 31
16 32 21
16 33 24
16 31 24
16 29 24
21 36 33
16 31 25
17 34 25
15 35 23
15 35 25
16 32 24
15 33 22
13 27 21
18 33 27
17 32 24
18 32 27
14 31 20
16 31 22
17 34 24
14 30 20
18 34 25
11 32 17
14 28 19
16 30 21
11 23 16
14 31 19
17 32 23
10 24 15
10 22 13
13 27 19
12 24 18
14 27 22
9 24 12
12 21 18
11 26 16
9 24 13
9 21 13
15 26 20
10 20 14
9 23 12
14 23 18
11 23 15
15 32 20
12 26 18
10 27 14
8 21 12
15 29 22
10 24 15
4 16 7
9 23 13
8 22 12
13 25 18
9 18 14
13 25 18
3 16 4
10 32 13
2 42 3
0 48 0
0 32 0
0 47 0
0 45 0
0 46 0
0 50 0
0 50 0
0 46 0
0 55 0
0 41 0
0 49 0
0 47 0
0 54 0
0 40 0
0 48 0
0 50 0
0 43 0
0 58 0
0 52 0
0 52 0
0 54 0
0 42 0
0 44 0
0 45 0
0 51 0
0 57 0
0 52 0
0 46 0
0 44 0
0 46 0
0 42 0
0 41 0
1 43 0
9 20 0
20 1 0
14 0 0
16 0 0
26 0 0
26 0 0
22 0 0
22 0 0
27 0 0
20 0 0
18 0 0
20 0 0
26 0 0
22 0 0
23 0 0
24 0 0
25 0 0
31 0 0
25 0 0
23 0 0
25 0 0
31 0 0
24 0 0
21 0 0
26 0 0
28 0 0
24 0 0
19 0 0
24 0 0
30 0 0
21 0 0
19 0 0
28 0 0
32 0 0
29 0 0
24 0 0
30 0 0
27 0 0
22 0 0
25 0 0
22 0 0
27 0 0
25 0 0
26 0 0
29 0 0
26 0 0
30 0 0
25 0 0
23 0 0
23 0 0
30 0 0
23 0 0
25 0 0
29 0 0
24 0 0
26 0 0
26 0 0
23 0 0
27 0 0
28 0 0
29 0 0
30 0 0
31 0 0
31 0 0
27 0 0
21 0 0
31 0 0
21 0 0
31 0 0
23 0 0
28 0 0
35 0 0
26 0 0
21 0 0
23 0 0
21 0 0
21 0 0
22 0 0
20 0 0
21 0 0
26 0 0
17 0 0
15 0 0
17 0 0
32 0 0
30 0 0
22 0 0
16 0 0
17 0 0
12 0 0
13 1 0
14 19 0
0 49 0
0 46 0
0 36 0
0 42 0
0 45 0
0 41 0
0 44 0
0 37 0
0 46 0
0 44 0
0 44 0
0 51 0
0 44 0
0 46 0
0 37 0
0 36 0
0 51 0
0 45 0
0 46 0
0 44 0
0 41 0
0 40 0
0 41 0
0 41 0
0 38 0
0 41 0
0 37 0
0 34 0
0 39 0
0 31 0
0 40 0
0 41 0
0 45 0
0 26 3
0 9 6
0 3 12
0 0 11
0 0 11
0 0 10
0 0 11
0 0 12
0 0 8
0 0 15
0 0 13
0 0 10
0 0 9
0 0 21
0 0 15
0 0 22
0 0 16
0 0 20
0 0 21
0 0 12
0 0 19
0 0 19
0 0 21
0 0 17
0 0 16
0 0 12
0 0 21
0 0 18
0 0 17
0 0 22
0 0 16
0 0 34
0 0 21
0 0 27
0 0 21
0 0 22
0 0 22
0 0 19
0 0 19
0 0 19
0 0 18
0 0 24
0 0 28
0 0 24
0 0 24
0 0 37
0 0 25
0 0 22
0 0 25
0 0 37
0 0 17
0 0 30
0 0 19
0 0 29
0 0 39
0 0 25
0 0 26
0 0 26
0 0 22
0 0 25
0 0 39
0 0 40
0 0 25
0 0 22
0 0 33
0 0 18
0 0 31
0 0 31
0 0 36
0 0 23
0 0 28
0 0 32
0 0 25
0 0 37
0 0 32
0 0 28
0 0 24
0 0 29
0 0 35
0 0 27
0 0 31
0 0 27
0 0 30
0 0 31
0 0 23
0 0 28
0 0 38
0 0 30
0 0 31
0 0 30
0 0 25
0 0 32
0 0 34
0 0 34
0 0 29
0 0 38
0 0 24
0 0 39
0 0 33
0 0 38
0 0 25
0 0 25
0 0 35
0 0 40
0 0 40
0 0 36
0 0 28
0 0 23
0 0 33
0 0 31
0 0 30
0 0 38
0 0 42
0 0 37
0 0 34
0 0 43
0 0 38
0 0 34
0 0 33
0 0 33
0 0 35
28 47 42
24 46 36
19 39 28
18 42 28
28 47 43
21 43 32
14 34 22
17 38 26
18 41 27
32 53 49
16 37 24
24 48 37
21 40 31
22 39 33
22 42 34
24 42 36
23 40 37
28 43 40
19 42 29
26 50 39
22 41 34
18 37 28
18 35 27
21 33 32
23 42 34
17 36 28
16 36 24
22 39 34
23 41 35
18 37 28
21 40 32
20 36 29
19 37 28
20 36 32
21 35 32
17 34 26
23 44 33
26 38 36
29 41 44
28 47 43
21 41 32
15 33 23
14 36 20
26 41 38
29 46 42
18 31 28
20 35 29
15 31 23
19 39 29
24 44 35
25 37 35
19 33 28
18 31 26
20 39 31
19 36 29
14 29 21
15 33 22
23 41 35
23 41 33
15 33 21
16 34 25
28 45 43
16 35 22
17 35 25
25 39 35
17 39 25
23 41 35
18 35 27
15 31 21
21 33 30
14 35 22
17 35 26
17 27 25
15 27 23
8 25 11
17 31 23
13 27 20
11 26 15
14 29 20
23 37 33
20 34 29
17 37 24
20 41 30
17 32 28
17 36 25
14 25 21
16 33 24
17 28 23
15 32 21
17 33 26
14 26 20
17 28 25
22 36 32
18 35 27
11 24 16
11 28 16
10 26 15
15 23 19
10 25 15
11 20 15
11 27 18
10 24 14
9 24 13
14 28 19
8 22 11
6 19 7
7 19 10
8 20 12
12 28 17
9 21 13
9 21 13
7 19 11
6 18 9
13 31 18
10 28 14
7 23 10
2 23 3
2 29 2
0 38 0
0 47 0
0 40 0
0 36 0
0 45 0
0 44 0
0 38 0
0 47 0
0 37 0
0 48 0
0 44 0
0 37 0
0 39 0
0 43 0
0 49 0
0 40 0
0 51 0
0 47 0
0 50 0
0 42 0
0 48 0
0 43 0
0 45 0
0 52 0
0 50 0
0 54 0
0 48 0
0 30 0
0 43 0
0 44 0
0 43 0
0 42 0
0 42 0
0 46 0
0 55 0
0 52 0
0 49 0
0 37 0
10 13 0
14 1 0
19 0 0
19 0 0
21 0 0
14 0 0
21 0 0
21 0 0
17 0 0
24 0 0
24 0 0
23 0 0
27 0 0
29 0 0
24 0 0
27 0 0
17 0 0
26 0 0
29 0 0
26 0 0
30 0 0
21 0 0
31 0 0
26 0 0
25 0 0
29 0 0
20 0 0
22 0 0
27 0 0
29 0 0
28 0 0
18 0 0
26 0 0
24 0 0
28 0 0
31 0 0
23 0 0
27 0 0
23 0 0
25 0 0
26 0 0
33 0 0
22 0 0
24 0 0
29 0 0
28 0 0
23 0 0
31 0 0
26 0 0
24 0 0
23 0 0
25 0 0
32 0 0
21 0 0
24 0 0
18 0 0
28 0 0
20 0 0
25 0 0
19 0 0
23 0 0
30 0 0
22 0 0
20 0 0
21 0 0
24 0 0
21 0 0
22 0 0
27 0 0
15 0 0
17 0 0
25 0 0
19 0 0
31 0 0
27 0 0
18 0 0
31 0 0
22 0 0
20 0 0
21 0 0
19 0 0
19 0 0
17 0 0
24 0 0
18 0 0
16 0 0
10 1 0
8 12 0
1 33 0
0 52 0
0 41 0
0 43 0
0 42 0
0 48 0
0 53 0
0 40 0
0 51 0
0 50 0
0 39 0
0 42 0
0 42 0
0 41 0
0 45 0
0 38 0
0 50 0
0 43 0
0 50 0
0 54 0
0 36 0
0 45 0
0 34 0
0 32 0
0 33 0
0 46 0
0 39 0
0 45 0
0 43 0
0 39 0
0 36 0
0 35 0
0 21 0
0 44 0
0 35 0
0 18 0
0 30 0
0 33 1
0 27 2
0 14 5
0 1 11
0 0 13
0 0 6
0 0 13
0 0 10
0 0 7
0 0 6
0 0 12
0 0 14
0 0 10
0 0 22
0 0 15
0 0 17
0 0 15
0 0 21
0 0 31
0 0 17
0 0 19
0 0 19
0 0 13
0 0 11
0 0 25
0 0 18
0 0 16
0 0 24
0 0 17
0 0 29
0 0 17
0 0 21
0 0 16
0 0 20
0 0 28
0 0 26
0 0 22
0 0 20
0 0 15
0 0 18
0 0 27
0 0 28
0 0 24
0 0 7
0 0 30
0 0 29
0 0 23
0 0 17
0 0 29
0 0 26
0 0 24
0 0 20
0 0 21
0 0 19
0 0 31
0 0 24
0 0 31
0 0 14
0 0 27
0 0 32
0 0 27
0 0 29
0 0 27
0 0 28
0 0 30
0 0 30
0 0 20
0 0 27
0 0 27
0 0 43
0 0 31
0 0 25
0 0 34
0 0 20
0 0 27
0 0 26
0 0 29
0 0 24
0 0 28
0 0 31
0 0 29
0 0 32
0 0 25
0 0 28
0 0 33
0 0 36
0 0 32
0 0 35
0 0 35
0 0 29
0 0 30
0 0 37
0 0 36
0 0 33
0 0 28
0 0 38
0 0 31
0 0 35
0 0 29
0 0 27
0 0 31
0 0 33
0 0 32
0 0 29
0 0 27
0 0 32
0 0 27
0 0 39
0 0 31
0 0 27
0 0 31
0 0 34
0 0 40
0 0 38
0 0 28
0 0 26
0 0 31
0 0 41
0 0 36
17 33 27
28 50 43
21 44 33
20 39 31
27 43 41
22 40 34
20 44 30
21 44 32
23 42 34
23 42 37
21 37 33
14 32 21
19 37 30
25 43 39
20 35 29
23 44 36
18 34 28
21 38 31
27 48 40
12 28 18
18 36 28
19 33 29
26 48 40
21 35 31
24 40 35
27 44 42
20 40 31
25 44 39
17 34 26
25 43 37
26 41 40
22 40 33
18 39 29
22 38 33
19 34 28
23 41 33
20 40 30
22 37 32
22 38 33
13 29 21
18 36 28
21 39 31
13 30 19
17 33 25
21 41 32
21 39 32
24 44 35
21 40 33
21 36 29
23 46 36
17 33 25
18 33 27
24 39 34
17 33 25
21 40 30
10 24 16
13 28 20
21 43 31
20 37 31
10 28 16
19 32 28
21 37 29
16 33 25
18 38 27
19 31 27
18 33 27
20 40 29
19 33 29
15 34 23
17 31 26
18 30 26
17 31 24
21 36 31
11 28 14
19 35 27
13 27 21
17 32 26
16 33 23
12 26 18
16 29 22
13 27 16
13 27 19
16 27 22
17 33 24
18 34 26
18 32 25
12 27 18
15 33 23
20 35 29
13 26 20
11 24 16
15 34 21
14 29 18
9 23 14
20 34 26
11 27 16
11 30 16
6 20 7
15 26 21
10 23 13
11 20 16
10 29 14
13 30 18
9 25 14
7 23 11
5 16 7
8 21 10
9 24 12
5 19 8
10 24 14
12 27 16
8 19 10
5 15 7
6 26 6
1 29 2
1 39 1
0 45 0
0 30 0
0 42 0
0 38 0
0 48 0
0 42 0
0 38 0
0 57 0
0 47 0
0 37 0
0 35 0
0 36 0
0 46 0
0 42 0
0 45 0
0 38 0
0 52 0
0 44 0
0 51 0
0 44 0
0 38 0
0 52 0
0 44 0
0 56 0
0 44 0
0 46 0
0 40 0
0 51 0
0 42 0
0 41 0
0 55 0
0 49 0
0 47 0
0 34 0
0 49 0
0 46 0
0 46 0
0 47 0
0 50 0
0 43 0
0 46 0
1 35 0
9 21 0
18 2 0
24 0 0
23 0 0
19 0 0
17 0 0
24 0 0
24 0 0
30 0 0
20 0 0
27 0 0
21 0 0
21 0 0
22 0 0
25 0 0
31 0 0
21 0 0
24 0 0
18 0 0
22 0 0
19 0 0
20 0 0
27 0 0
22 0 0
21 0 0
23 0 0
26 0 0
30 0 0
33 0 0
24 0 0
29 0 0
27 0 0
23 0 0
28 0 0
31 0 0
31 0 0
28 0 0
30 0 0
23 0 0
27 0 0
28 0 0
30 0 0
32 0 0
23 0 0
29 0 0
32 0 0
33 0 0
25 0 0
22 0 0
26 0 0
23 0 0
28 0 0
32 0 0
31 0 0
27 0 0
23 0 0
30 0 0
18 0 0
22 0 0
20 0 0
24 0 0
21 0 0
22 0 0
25 0 0
28 0 0
21 0 0
31 0 0
26 0 0
19 0 0
19 0 0
24 0 0
22 0 0
17 0 0
27 0 0
19 0 0
12 0 0
13 0 0
27 0 0
22 0 0
27 0 0
23 0 0
19 0 0
13 0 0
7 15 0
1 31 0
0 51 0
0 47 0
0 42 0
0 48 0
0 33 0
0 45 0
0 51 0
0 42 0
0 41 0
0 46 0
0 48 0
0 40 0
0 48 0
0 43 0
0 49 0
0 53 0
0 38 0
0 36 0
0 38 0
0 41 0
0 34 0
0 37 0
0 31 0
0 40 0
0 33 0
0 46 0
0 35 0
0 40 0
0 35 0
0 37 0
0 61 0
0 29 0
0 45 0
0 22 0
0 45 0
0 30 0
0 44 0
0 31 0
0 31 0
0 26 0
0 31 0
0 31 0
0 29 2
0 12 6
0 5 7
0 0 12
0 0 15
0 0 10
0 0 15
0 0 18
0 0 14
0 0 14
0 0 21
0 0 21
0 0 11
0 0 23
0 0 18
0 0 20
0 0 11
0 0 17
0 0 21
0 0 21
0 0 17
0 0 16
0 0 17
0 0 22
0 0 27
0 0 15
0 0 18
0 0 19
0 0 25
0 0 18
0 0 10
0 0 16
0 0 17
0 0 23
0 0 17
0 0 35
0 0 23
0 0 27
0 0 26
0 0 20
0 0 20
0 0 24
0 0 19
0 0 34
0 0 23
0 0 21
0 0 23
0 0 30
0 0 27
0 0 23
0 0 23
0 0 25
0 0 26
0 0 29
0 0 25
0 0 29
0 0 35
0 0 34
0 0 27
0 0 32
0 0 39
0 0 27
0 0 26
0 0 31
0 0 22
0 0 27
0 0 23
0 0 33
0 0 29
0 0 35
0 0 17
0 0 26
0 0 36
0 0 27
0 0 23
0 0 31
0 0 33
0 0 34
0 0 45
0 0 23
0 0 26
0 0 26
0 0 26
0 0 23
0 0 36
0 0 23
0 0 24
0 0 27
0 0 31
0 0 32
0 0 34
0 0 27
0 0 38
0 0 30
0 0 23
0 0 38
0 0 30
0 0 26
0 0 30
0 0 32
0 0 26
0 0 26
0 0 30
0 0 35
0 0 28
0 0 29
0 0 41
0 0 33
0 0 27
0 0 26
0 0 22
0 0 34
0 0 27
0 0 37
0 0 29
21 39 32
22 46 33
25 47 38
20 36 32
19 39 29
19 39 28
21 43 32
20 35 30
13 29 20
27 50 40
28 45 43
15 32 24
30 49 44
18 36 28
21 43 31
21 39 32
24 42 35
25 41 37
26 43 38
21 38 32
16 34 25
15 34 24
28 43 42
17 39 27
24 43 36
21 43 32
15 32 22
22 39 35
27 46 41
23 42 33
23 40 33
22 41 33
20 39 30
18 37 27
20 40 29
22 38 33
27 41 40
25 42 38
22 37 33
22 37 34
18 35 27
19 37 27
18 32 26
22 40 33
24 41 36
23 38 33
19 35 29
13 33 20
15 32 22
14 29 21
13 29 18
13 31 20
12 26 18
8 23 12
18 38 27
24 41 33
14 33 22
16 34 24
12 27 18
23 39 35
20 39 29
15 34 23
23 37 33
14 31 20
22 36 32
20 43 30
15 35 23
21 39 29
17 32 25
16 29 24
21 35 31
19 33 27
9 17 13
12 28 19
17 31 24
14 29 22
10 26 16
12 32 17
19 35 27
16 33 25
15 28 22
15 34 21
13 28 19
20 32 29
19 35 26
13 28 19
14 26 20
12 23 16
9 24 14
11 23 17
11 28 17
13 28 19
13 31 19
12 27 18
10 29 15
16 30 24
12 26 16
16 31 22
14 29 21
6 22 9
13 25 17
13 31 20
8 22 12
11 27 16
10 24 14
10 21 14
8 22 11
9 24 13
8 24 11
0 14 1
2 26 3
1 27 1
0 33 0
0 35 0
0 49 0
0 39 0
0 43 0
0 35 0
0 33 0
0 33 0
0 39 0
0 33 0
0 41 0
0 33 0
0 41 0
0 51 0
0 41 0
0 48 0
0 36 0
0 38 0
0 40 0
0 38 0
0 38 0
0 40 0
0 43 0
0 42 0
0 46 0
0 49 0
0 51 0
0 44 0
0 32 0
0 43 0
0 37 0
0 52 0
0 43 0
0 52 0
0 45 0
0 51 0
0 47 0
0 50 0
0 56 0
0 47 0
0 55 0
0 52 0
0 49 0
0 47 0
0 43 0
0 55 0
0 39 0
1 37 0
9 26 0
16 5 0
24 0 0
16 0 0
22 0 0
19 0 0
27 0 0
27 0 0
25 0 0
19 0 0
24 0 0
21 0 0
24 0 0
19 0 0
25 0 0
15 0 0
19 0 0
17 0 0
33 0 0
33 0 0
17 0 0
20 0 0
20 0 0
21 0 0
24 0 0
16 0 0
20 0 0
26 0 0
22 0 0
30 0 0
25 0 0
26 0 0
26 0 0
17 0 0
23 0 0
24 0 0
22 0 0
30 0 0
24 0 0
28 0 0
26 0 0
25 0 0
19 0 0
22 0 0
27 0 0
25 0 0
29 0 0
26 0 0
26 0 0
33 0 0
15 0 0
19 0 0
24 0 0
25 0 0
28 0 0
29 0 0
27 0 0
24 0 0
29 0 0
27 0 0
23 0 0
24 0 0
28 0 0
20 0 0
24 0 0
20 0 0
22 0 0
23 0 0
29 0 0
18 0 0
28 0 0
25 0 0
19 0 0
19 0 0
18 0 0
14 0 0
15 0 0
18 0 0
13 2 0
11 14 0
2 46 0
0 42 0
0 41 0
0 47 0
0 38 0
0 46 0
0 37 0
0 42 0
0 37 0
0 46 0
0 39 0
0 35 0
0 38 0
0 53 0
0 44 0
0 40 0
0 43 0
0 47 0
0 51 0
0 48 0
0 54 0
0 46 0
0 45 0
0 47 0
0 36 0
0 40 0
0 42 0
0 38 0
0 32 0
0 39 0
0 31 0
0 43 0
0 32 0
0 33 0
0 35 0
0 39 0
0 42 0
0 31 0
0 36 0
0 27 0
0 27 0
0 31 0
0 25 0
0 25 0
0 20 0
0 23 0
0 26 0
0 29 0
0 18 3
0 17 7
0 2 7
0 0 4
0 0 12
0 0 12
0 0 8
0 0 11
0 0 11
0 0 10
0 0 18
0 0 11
0 0 14
0 0 23
0 0 16
0 0 16
0 0 21
0 0 16
0 0 29
0 0 12
0 0 15
0 0 22
0 0 17
0 0 18
0 0 22
0 0 22
0 0 13
0 0 26
0 0 18
0 0 23
0 0 24
0 0 20
0 0 23
0 0 17
0 0 25
0 0 20
0 0 19
0 0 18
0 0 27
0 0 19
0 0 20
0 0 18
0 0 22
0 0 35
0 0 21
0 0 14
0 0 19
0 0 26
0 0 22
0 0 22
0 0 33
0 0 34
0 0 17
0 0 23
0 0 25
0 0 21
0 0 24
0 0 21
0 0 30
0 0 21
0 0 31
0 0 10
0 0 28
0 0 25
0 0 26
0 0 32
0 0 34
0 0 28
0 0 20
0 0 32
0 0 31
0 0 32
0 0 26
0 0 31
0 0 36
0 0 33
0 0 26
0 0 23
0 0 35
0 0 31
0 0 29
0 0 26
0 0 39
0 0 35
0 0 41
0 0 30
0 0 30
0 0 26
0 0 44
0 0 26
0 0 23
0 0 33
0 0 29
0 0 42
0 0 33
0 0 29
0 0 31
0 0 35
0 0 25
0 0 35
0 0 25
0 0 29
0 0 34
0 0 40
0 0 31
0 0 24
0 0 25
0 0 47
0 0 32
0 0 22
0 0 36
0 0 22
22 40 33
20 38 30
23 42 35
21 37 32
14 28 21
19 33 28
23 38 34
11 30 17
24 43 35
19 36 28
20 38 29
25 44 37
13 35 20
17 33 26
26 48 39
21 35 33
19 36 29
20 36 30
20 39 30
14 34 22
19 37 28
22 36 34
21 37 30
19 37 29
23 38 35
21 42 33
17 38 26
23 43 35
17 34 26
19 37 26
24 43 35
21 35 30
18 32 26
25 43 38
25 43 38
15 35 23
21 37 29
19 37 29
18 34 27
22 38 32
19 33 28
14 31 21
20 41 30
20 37 29
20 42 29
22 37 34
16 31 22
22 39 32
22 39 33
15 33 22
25 45 38
19 36 28
14 34 22
17 32 25
20 36 29
16 32 24
17 28 23
18 31 26
24 41 36
12 35 19
17 31 24
16 31 24
13 26 18
17 31 23
13 30 20
12 25 18
14 30 20
19 35 28
14 32 21
19 33 28
14 33 22
9 25 11
14 29 19
14 31 21
19 32 28
12 26 17
18 34 28
12 27 17
18 33 27
12 29 18
16 33 24
15 34 23
16 38 22
14 28 19
22 41 31
12 23 16
12 30 18
11 26 17
17 30 25
14 31 20
12 21 17
9 27 13
11 24 17
16 32 23
7 14 9
13 24 16
9 21 13
12 23 17
9 21 12
19 31 27
11 23 16
13 30 18
10 26 14
6 15 7
8 20 12
8 23 12
5 24 8
1 26 1
0 28 0
0 26 0
0 32 0
0 25 0
0 33 0
0 21 0
0 34 0
0 35 0
0 42 0
0 39 0
0 40 0
0 46 0
0 30 0
0 30 0
0 40 0
0 39 0
0 38 0
0 46 0
0 45 0
0 44 0
0 41 0
0 38 0
0 41 0
0 37 0
0 43 0
0 41 0
0 43 0
0 31 0
0 51 0
0 39 0
0 42 0
0 52 0
0 43 0
0 33 0
0 58 0
0 43 0
0 49 0
0 45 0
0 44 0
0 42 0
0 40 0
0 42 0
0 44 0
0 41 0
0 48 0
0 39 0
0 51 0
0 30 0
0 41 0
0 40 0
0 39 0
0 46 0
0 53 0
0 36 0
8 29 0
15 11 0
14 0 0
15 0 0
23 0 0
15 0 0
20 0 0
19 0 0
26 0 0
29 0 0
22 0 0
20 0 0
25 0 0
17 0 0
20 0 0
21 0 0
27 0 0
25 0 0
21 0 0
19 0 0
24 0 0
23 0 0
16 0 0
29 0 0
25 0 0
21 0 0
21 0 0
22 0 0
28 0 0
29 0 0
20 0 0
21 0 0
23 0 0
22 0 0
24 0 0
19 0 0
28 0 0
28 0 0
23 0 0
25 0 0
26 0 0
32 0 0
31 0 0
26 0 0
25 0 0
21 0 0
26 0 0
29 0 0
26 0 0
22 0 0
26 0 0
31 0 0
23 0 0
25 0 0
25 0 0
27 0 0
30 0 0
19 0 0
26 0 0
23 0 0
22 0 0
31 0 0
25 0 0
22 0 0
26 0 0
19 0 0
12 0 0
22 0 0
22 0 0
21 0 0
16 0 0
14 0 0
18 0 0
25 0 0
18 5 0
2 20 0
0 38 0
0 33 0
0 57 0
0 45 0
0 42 0
0 36 0
0 41 0
0 36 0
0 42 0
0 39 0
0 44 0
0 43 0
0 34 0
0 40 0
0 42 0
0 48 0
0 43 0
0 50 0
0 46 0
0 41 0
0 38 0
0 54 0
0 36 0
0 38 0
0 40 0
0 41 0
0 26 0
0 31 0
0 38 0
0 44 0
0 34 0
0 29 0
0 47 0
0 33 0
0 36 0
0 28 0
0 32 0
0 34 0
0 30 0
0 32 0
0 31 0
0 34 0
0 25 0
0 38 0
0 35 0
0 23 0
0 34 0
0 33 0
0 39 0
0 27 0
0 28 0
0 22 0
0 23 0
0 26 0
0 10 1
0 20 0
0 1 9
0 0 3
0 0 12
0 0 13
0 0 11
0 0 16
0 0 14
0 0 14
0 0 17
0 0 12
0 0 14
0 0 16
0 0 18
0 0 15
0 0 10
0 0 16
0 0 21
0 0 15
0 0 19
0 0 19
0 0 19
0 0 19
0 0 25
0 0 16
0 0 23
0 0 19
0 0 27
0 0 16
0 0 19
0 0 17
0 0 24
0 0 20
0 0 16
0 0 30
0 0 24
0 0 19
0 0 24
0 0 18
0 0 22
0 0 21
0 0 22
0 0 36
0 0 39
0 0 25
0 0 18
0 0 20
0 0 26
0 0 19
0 0 31
0 0 18
0 0 21
0 0 23
0 0 31
0 0 22
0 0 21
0 0 23
0 0 22
0 0 20
0 0 32
0 0 31
0 0 16
0 0 31
0 0 18
0 0 30
0 0 30
0 0 21
0 0 24
0 0 28
0 0 23
0 0 30
0 0 37
0 0 30
0 0 29
0 0 33
0 0 22
0 0 31
0 0 42
0 0 21
0 0 34
0 0 26
0 0 24
0 0 37
0 0 27
0 0 35
0 0 38
0 0 27
0 0 28
0 0 33
0 0 21
0 0 33
0 0 34
0 0 36
0 0 29
0 0 33
0 0 28
0 0 29
0 0 25
0 0 33
0 0 51
0 0 31
0 0 36
0 0 31
0 0 26
0 0 23
0 0 32
0 0 28
27 51 41
24 47 36
14 31 22
27 47 40
24 41 36
12 31 18
14 34 21
17 35 25
17 41 26
13 36 21
17 33 25
21 38 31
22 37 33
16 34 24
16 33 23
23 44 35
24 43 35
21 40 32
17 34 25
25 46 38
23 41 33
21 38 30
21 38 31
21 38 32
29 45 43
13 30 20
25 46 37
12 33 18
19 38 29
19 38 29
14 36 21
16 33 24
23 45 34
28 42 40
12 31 17
25 45 39
16 34 24
18 37 26
16 36 24
23 43 33
17 34 24
19 39 29
12 32 18
17 35 24
19 37 27
16 30 23
22 36 31
17 34 26
22 43 33
19 38 29
10 28 14
16 33 23
16 32 24
19 33 28
15 31 22
13 29 20
22 39 31
20 37 30
16 32 23
19 34 29
16 29 24
17 35 25
16 31 25
19 39 28
15 34 21
17 32 24
11 28 17
13 29 19
18 36 26
15 26 23
10 27 13
17 34 25
23 40 33
13 32 20
12 27 17
20 33 29
8 25 13
15 27 21
10 31 15
14 32 21
19 34 26
11 33 17
16 33 24
13 30 20
15 32 23
13 29 18
20 35 29
12 30 19
16 28 24
17 31 25
13 29 18
12 22 17
9 25 13
12 29 17
16 30 21
10 23 15
8 18 11
10 21 13
9 20 14
9 18 14
7 19 10
9 31 13
6 26 9
2 28 3
0 28 0
0 23 0
0 34 0
0 27 0
0 24 0
0 37 0
0 26 0
0 31 0
0 30 0
0 32 0
0 33 0
0 36 0
0 42 0
0 42 0
0 34 0
0 33 0
0 37 0
0 39 0
0 35 0
0 32 0
0 43 0
0 40 0
0 38 0
0 38 0
0 29 0
0 42 0
0 36 0
0 34 0
0 45 0
0 41 0
0 40 0
0 51 0
0 54 0
0 39 0
0 39 0
0 45 0
0 36 0
0 43 0
0 47 0
0 40 0
0 38 0
0 41 0
0 44 0
0 51 0
0 45 0
0 39 0
0 31 0
0 55 0
0 37 0
0 47 0
0 32 0
0 38 0
0 44 0
0 52 0
0 48 0
0 40 0
0 40 0
0 39 0
0 30 0
0 33 0
1 27 0
9 21 0
13 8 0
16 0 0
17 0 0
20 0 0
19 0 0
17 0 0
21 0 0
15 0 0
26 0 0
19 0 0
20 0 0
24 0 0
14 0 0
10 0 0
29 0 0
22 0 0
25 0 0
24 0 0
16 0 0
27 0 0
18 0 0
19 0 0
18 0 0
21 0 0
15 0 0
23 0 0
26 0 0
24 0 0
31 0 0
21 0 0
20 0 0
22 0 0
27 0 0
22 0 0
28 0 0
31 0 0
30 0 0
23 0 0
23 0 0
22 0 0
27 0 0
28 0 0
30 0 0
27 0 0
20 0 0
27 0 0
25 0 0
23 0 0
22 0 0
26 0 0
28 0 0
23 0 0
27 0 0
26 0 0
18 0 0
22 0 0
20 0 0
24 0 0
18 0 0
21 0 0
20 0 0
16 0 0
17 0 0
15 0 0
16 0 0
19 0 0
13 0 0
9 5 0
7 19 0
2 22 0
0 37 0
0 31 0
0 34 0
0 42 0
0 45 0
0 40 0
0 37 0
0 41 0
0 40 0
0 41 0
0 43 0
0 46 0
0 49 0
0 45 0
0 40 0
0 28 0
0 41 0
0 53 0
0 28 0
0 43 0
0 46 0
0 44 0
0 44 0
0 32 0
0 36 0
0 43 0
0 54 0
0 34 0
0 41 0
0 36 0
0 45 0
0 48 0
0 44 0
0 34 0
0 40 0
0 37 0
0 41 0
0 33 0
0 38 0
0 26 0
0 27 0
0 34 0
0 41 0
0 39 0
0 28 0
0 38 0
0 25 0
0 30 0
0 22 0
0 34 0
0 30 0
0 26 0
0 41 0
0 26 0
0 31 0
0 20 0
0 20 0
0 17 0
0 22 0
0 21 0
0 14 4
0 11 5
0 2 7
0 2 12
0 0 16
0 0 15
0 0 20
0 0 14
0 0 24
0 0 16
0 0 14
0 0 13
0 0 26
0 0 15
0 0 23
0 0 17
0 0 24
0 0 18
0 0 32
0 0 20
0 0 11
0 0 15
0 0 22
0 0 18
0 0 14
0 0 15
0 0 22
0 0 16
0 0 19
0 0 20
0 0 22
0 0 24
0 0 21
0 0 31
0 0 21
0 0 20
0 0 22
0 0 25
0 0 30
0 0 34
0 0 17
0 0 27
0 0 20
0 0 17
0 0 20
0 0 15
0 0 16
0 0 27
0 0 27
0 0 15
0 0 31
0 0 22
0 0 21
0 0 29
0 0 27
0 0 38
0 0 24
0 0 20
0 0 17
0 0 17
0 0 32
0 0 19
0 0 27
0 0 25
0 0 29
0 0 29
0 0 20
0 0 23
0 0 26
0 0 26
0 0 44
0 0 25
0 0 25
0 0 20
0 0 26
0 0 23
0 0 25
0 0 21
0 0 28
0 0 21
0 0 31
0 0 33
0 0 28
0 0 32
0 0 30
0 0 25
0 0 33
0 0 25
0 0 30
0 0 26
0 0 24
0 0 26
0 0 28
0 0 21
0 0 23
0 0 33
0 0 28
0 0 40
0 0 39
0 0 30
0 0 21
0 0 26
0 0 30
0 0 32
0 75 0
7 68 11
12 70 17
12 47 19
22 47 32
17 36 27
25 49 38
27 47 39
21 36 31
25 42 38
25 46 39
12 33 19
26 49 41
19 41 28
18 40 26
27 47 42
24 49 36
22 41 32
20 37 30
18 37 28
21 37 32
15 32 22
15 36 23
23 40 33
14 29 20
18 39 27
26 46 39
19 40 28
11 28 16
20 40 29
15 34 22
25 42 36
22 40 34
23 42 35
16 36 25
25 44 38
25 45 36
24 44 35
17 33 25
20 34 29
26 42 37
19 33 27
15 31 22
20 36 29
17 36 26
19 35 29
21 36 30
15 32 22
14 33 20
17 32 26
20 36 28
17 35 25
18 36 26
11 30 17
17 35 23
24 36 35
15 34 21
16 27 23
13 33 18
20 33 30
20 38 28
13 28 19
11 28 16
17 30 24
19 37 28
17 33 25
17 34 26
13 32 19
14 28 20
21 38 31
20 34 28
15 28 22
16 35 23
9 26 14
14 34 21
15 34 21
14 24 18
16 27 23
10 23 14
10 29 13
14 29 19
10 26 14
13 24 19
7 26 11
12 26 18
16 34 23
9 24 13
16 31 23
15 29 20
9 22 13
10 23 15
8 21 11
13 24 17
8 20 10
6 16 8
10 29 15
6 22 8
6 25 10
0 23 0
1 18 2
0 21 0
0 27 0
0 22 0
0 30 0
0 26 0
0 38 0
0 31 0
0 29 0
0 33 0
0 30 0
0 35 0
0 30 0
0 33 0
0 34 0
0 40 0
0 29 0
0 42 0
0 47 0
0 42 0
0 27 0
0 37 0
0 39 0
0 44 0
0 41 0
0 39 0
0 52 0
0 39 0
0 37 0
0 47 0
0 48 0
0 43 0
0 39 0
0 40 0
0 37 0
0 48 0
0 46 0
0 42 0
0 52 0
0 43 0
0 43 0
0 48 0
0 44 0
0 37 0
0 42 0
0 43 0
0 45 0
0 45 0
0 48 0
0 47 0
0 41 0
0 39 0
0 53 0
0 38 0
0 41 0
0 37 0
0 44 0
0 32 0
0 40 0
0 43 0
0 44 0
0 37 0
0 42 0
0 42 0
0 35 0
0 33 0
0 36 0
0 35 0
2 29 0
6 31 0
12 7 0
21 0 0
15 0 0
12 0 0
16 0 0
17 0 0
26 0 0
11 0 0
11 0 0
25 0 0
24 0 0
21 0 0
24 0 0
19 0 0
16 0 0
22 0 0
25 0 0
16 0 0
19 0 0
30 0 0
27 0 0
24 0 0
20 0 0
25 0 0
23 0 0
25 0 0
21 0 0
33 0 0
25 0 0
24 0 0
19 0 0
24 0 0
23 0 0
17 0 0
20 0 0
26 0 0
18 0 0
22 0 0
22 0 0
21 0 0
24 0 0
26 0 0
22 0 0
28 0 0
23 0 0
20 0 0
29 0 0
16 0 0
16 0 0
18 0 0
16 0 0
29 0 0
18 0 0
18 0 0
21 0 0
19 0 0
15 0 0
16 0 0
22 0 0
17 0 0
15 0 0
8 8 0
0 17 0
3 27 0
0 37 0
0 37 0
0 34 0
0 35 0
0 27 0
0 44 0
0 47 0
0 39 0
0 37 0
0 39 0
0 39 0
0 40 0
0 51 0
0 40 0
0 41 0
0 42 0
0 37 0
0 43 0
0 46 0
0 39 0
0 33 0
0 49 0
0 48 0
0 26 0
0 40 0
0 36 0
0 22 0
0 47 0
0 44 0
0 43 0
0 43 0
0 48 0
0 50 0
0 32 0
0 35 0
0 38 0
0 40 0
0 44 0
0 39 0
0 30 0
0 36 0
0 31 0
0 37 0
0 38 0
0 39 0
0 39 0
0 37 0
0 25 0
0 28 0
0 41 0
0 27 0
0 38 0
0 29 0
0 26 0
0 37 0
0 22 0
0 23 0
0 31 0
0 25 0
0 11 0
0 31 0
0 22 0
0 29 0
0 24 0
0 22 0
0 26 0
0 19 0
0 14 0
0 10 4
0 4 9
0 5 8
0 0 10
0 0 15
0 0 18
0 0 22
0 0 13
0 0 17
0 0 11
0 0 16
0 0 15
0 0 19
0 0 16
0 0 16
0 0 14
0 0 22
0 0 14
0 0 16
0 0 12
0 0 13
0 0 15
0 0 26
0 0 22
0 0 13
0 0 15
0 0 23
0 0 13
0 0 18
0 0 24
0 0 26
0 0 27
0 0 19
0 0 19
0 0 32
0 0 23
0 0 23
0 0 27
0 0 20
0 0 20
0 0 15
0 0 19
0 0 28
0 0 20
0 0 25
0 0 29
0 0 19
0 0 17
0 0 29
0 0 15
0 0 22
0 0 23
0 0 15
0 0 20
0 0 25
0 0 22
0 0 24
0 0 24
0 0 28
0 0 23
0 0 19
0 0 19
0 0 28
0 0 28
0 0 20
0 0 29
0 0 22
0 0 25
0 0 25
0 0 29
0 0 29
0 0 34
0 0 27
0 0 26
0 0 22
0 0 28
0 0 30
0 0 33
0 0 31
0 0 31
0 0 25
0 0 15
0 0 31
0 0 38
0 0 27
0 0 34
0 0 20
0 0 25
0 0 22
0 0 26
0 0 19
0 0 37
0 0 36
0 0 23
0 3 24
0 23 16
0 38 19
0 53 15
0 79 3
0 88 0
0 77 0
0 87 0
0 87 0
0 91 0
1 74 1
3 68 5
10 57 16
21 55 30
19 44 28
20 40 31
18 37 26
16 37 25
21 39 30
24 47 36
16 33 24
31 50 46
21 41 32
15 38 22
20 40 31
22 39 34
23 38 33
21 39 33
13 36 20
17 34 25
28 52 42
23 41 34
15 32 23
14 33 21
22 41 32
24 37 34
20 36 30
20 39 31
22 37 33
20 41 31
17 35 25
20 35 30
11 32 17
15 30 23
18 36 26
12 27 19
19 36 27
24 36 35
21 39 31
17 37 25
14 33 21
26 44 39
14 31 21
16 33 24
12 27 17
15 34 23
19 38 27
14 31 21
17 32 25
19 36 28
15 32 23
21 38 30
17 35 26
16 33 24
11 28 16
15 36 23
15 30 22
15 33 23
15 29 22
11 26 17
9 24 13
21 37 31
18 31 26
13 24 17
14 33 21
13 30 20
10 29 15
15 27 23
13 26 19
15 32 22
13 28 18
11 29 16
14 31 21
17 37 26
11 25 14
14 29 19
3 20 4
7 20 10
11 23 14
13 27 18
9 22 14
12 31 18
10 25 14
8 21 11
7 26 10
6 18 8
12 33 17
4 22 6
2 18 2
1 26 1
0 30 0
0 19 0
0 26 0
0 27 0
0 25 0
0 38 0
0 35 0
0 33 0
0 33 0
0 27 0
0 21 0
0 34 0
0 36 0
0 28 0
0 38 0
0 31 0
0 42 0
0 38 0
0 42 0
0 34 0
0 46 0
0 41 0
0 35 0
0 45 0
0 37 0
0 40 0
0 44 0
0 42 0
0 38 0
0 36 0
0 35 0
0 49 0
0 36 0
0 40 0
0 53 0
0 42 0
0 52 0
0 39 0
0 45 0
0 44 0
0 46 0
0 42 0
0 46 0
0 46 0
0 48 0
0 50 0
0 48 0
0 44 0
0 41 0
0 47 0
0 45 0
0 45 0
0 45 0
0 46 0
0 48 0
0 46 0
0 33 0
0 43 0
0 36 0
0 37 0
0 42 0
0 46 0
0 47 0
0 43 0
0 42 0
0 37 0
0 37 0
0 34 0
0 30 0
0 41 0
0 40 0
0 33 0
0 33 0
0 32 0
0 25 0
0 33 0
5 18 0
10 12 0
16 5 0
11 0 0
17 0 0
22 0 0
21 0 0
25 0 0
28 0 0
19 0 0
20 0 0
17 0 0
23 0 0
28 0 0
18 0 0
21 0 0
19 0 0
36 0 0
20 0 0
25 0 0
26 0 0
24 0 0
20 0 0
26 0 0
26 0 0
18 0 0
23 0 0
17 0 0
25 0 0
25 0 0
18 0 0
20 0 0
20 0 0
18 0 0
25 0 0
18 0 0
22 0 0
21 0 0
25 0 0
25 0 0
24 0 0
30 0 0
19 0 0
12 0 0
18 0 0
21 0 0
19 0 0
13 0 0
20 0 0
24 0 0
17 0 0
20 0 0
21 0 0
17 0 0
18 0 0
14 4 0
13 6 0
3 14 0
1 25 0
0 40 0
0 38 0
0 44 0
0 34 0
0 35 0
0 32 0
0 37 0
0 45 0
0 32 0
0 36 0
0 39 0
0 34 0
0 37 0
0 38 0
0 39 0
0 38 0
0 41 0
0 37 0
0 39 0
0 48 0
0 36 0
0 33 0
0 40 0
0 39 0
0 42 0
0 47 0
0 34 0
0 47 0
0 38 0
0 37 0
0 41 0
0 43 0
0 43 0
0 48 0
0 37 0
0 39 0
0 39 0
0 41 0
0 48 0
0 35 0
0 36 0
0 33 0
0 37 0
0 35 0
0 38 0
0 34 0
0 30 0
0 33 0
0 35 0
0 28 0
0 38 0
0 28 0
0 43 0
0 44 0
0 33 0
0 33 0
0 37 0
0 30 0
0 34 0
0 34 0
0 25 0
0 30 0
0 27 0
0 28 0
0 20 0
0 26 0
0 25 0
0 28 0
0 27 0
0 22 0
0 23 0
0 17 0
0 15 0
0 21 0
0 21 0
0 21 0
0 15 4
0 11 10
0 2 5
0 5 9
0 0 12
0 0 9
0 0 11
0 0 14
0 0 14
0 0 15
0 0 16
0 0 18
0 0 16
0 0 12
0 0 21
0 0 14
0 0 15
0 0 18
0 0 19
0 0 16
0 0 16
0 0 24
0 0 23
0 0 20
0 0 23
0 0 13
0 0 24
0 0 22
0 0 24
0 0 27
0 0 26
0 0 21
0 0 31
0 0 17
0 0 21
0 0 23
0 0 26
0 0 17
0 0 19
0 0 18
0 0 14
0 0 24
0 0 17
0 0 28
0 0 34
0 0 22
0 0 13
0 0 19
0 0 24
0 0 27
0 0 36
0 0 25
0 0 24
0 0 29
0 0 17
0 0 23
0 0 18
0 0 26
0 0 21
0 0 27
0 0 17
0 0 29
0 0 22
0 0 23
0 0 35
0 0 26
0 0 23
0 0 20
0 0 40
0 0 25
0 0 23
0 0 25
0 0 20
0 0 27
0 0 33
0 0 25
0 0 23
0 0 39
0 0 25
0 0 32
0 0 31
0 0 31
0 0 19
0 0 32
0 10 26
0 31 20
0 52 9
0 56 9
0 66 3
0 71 0
0 71 0
0 82 0
0 82 0
0 82 0
0 77 0
0 88 0
0 92 0
0 83 0
0 85 0
0 85 0
0 81 0
0 79 0
0 73 0
0 84 0
0 77 0
3 73 5
4 61 6
5 52 8
10 48 15
14 52 20
13 37 20
20 36 30
12 30 17
18 37 27
15 34 23
18 34 27
20 40 29
23 40 33
14 30 20
17 34 26
26 47 39
23 42 33
29 50 42
11 29 16
20 36 31
20 35 29
15 36 22
13 32 20
21 41 32
15 34 23
22 40 33
13 30 18
18 37 25
15 32 22
12 31 19
14 30 20
13 29 19
15 35 23
17 36 26
19 34 28
10 27 15
18 40 27
8 32 13
14 28 21
15 32 22
20 43 30
12 31 17
14 36 21
21 43 29
17 34 25
10 24 15
12 30 17
12 30 18
15 32 22
19 36 29
16 32 24
12 37 17
13 26 19
17 36 26
19 36 25
14 27 20
15 30 23
12 30 18
15 32 19
8 21 12
12 28 17
18 36 25
9 26 13
14 25 20
10 22 14
10 22 15
11 22 14
9 26 13
13 27 19
9 25 13
8 20 12
3 17 4
11 26 16
5 19 7
7 23 9
2 22 3
1 21 2
2 24 3
0 23 0
0 23 0
0 27 0
0 26 0
0 30 0
0 31 0
0 25 0
0 30 0
0 35 0
0 25 0
0 32 0
0 35 0
0 35 0
0 33 0
0 43 0
0 27 0
0 38 0
0 44 0
0 44 0
0 48 0
0 38 0
0 38 0
0 46 0
0 41 0
0 42 0
0 35 0
0 39 0
0 46 0
0 37 0
0 42 0
0 37 0
0 41 0
0 43 0
0 45 0
0 47 0
0 54 0
0 39 0
0 45 0
0 44 0
0 51 0
0 42 0
0 46 0
0 50 0
0 58 0
0 44 0
0 47 0
0 44 0
0 39 0
0 57 0
0 46 0
0 47 0
0 49 0
0 51 0
0 45 0
0 55 0
0 43 0
0 44 0
0 40 0
0 40 0
0 51 0
0 45 0
0 50 0
0 44 0
0 44 0
0 48 0
0 46 0
0 30 0
0 38 0
0 35 0
0 37 0
0 51 0
0 35 0
0 43 0
0 32 0
0 40 0
0 38 0
0 34 0
0 37 0
0 31 0
0 33 0
0 44 0
0 32 0
0 33 0
0 27 0
0 26 0
2 24 0
7 19 0
10 14 0
9 12 0
18 2 0
13 0 0
17 0 0
21 0 0
16 0 0
20 0 0
30 0 0
15 0 0
23 0 0
20 0 0
16 0 0
20 0 0
22 0 0
30 0 0
19 0 0
22 0 0
18 0 0
22 0 0
18 0 0
19 0 0
18 0 0
27 0 0
17 0 0
19 0 0
19 0 0
24 0 0
17 0 0
16 0 0
15 0 0
18 0 0
22 0 0
17 0 0
22 0 0
20 0 0
22 0 0
14 0 0
19 0 0
26 0 0
18 0 0
22 0 0
18 0 0
20 0 0
11 0 0
15 2 0
11 5 0
8 11 0
9 21 0
2 32 0
0 26 0
0 30 0
0 31 0
0 27 0
0 34 0
0 32 0
0 36 0
0 31 0
0 33 0
0 39 0
0 36 0
0 52 0
0 43 0
0 34 0
0 28 0
0 37 0
0 37 0
0 37 0
0 42 0
0 39 0
0 49 0
0 34 0
0 26 0
0 41 0
0 43 0
0 44 0
0 35 0
0 36 0
0 35 0
0 38 0
0 41 0
0 40 0
0 37 0
0 38 0
0 35 0
0 42 0
0 44 0
0 33 0
0 42 0
0 47 0
0 43 0
0 45 0
0 39 0
0 47 0
0 37 0
0 44 0
0 45 0
0 47 0
0 44 0
0 40 0
0 32 0
0 39 0
0 48 0
0 41 0
0 36 0
0 39 0
0 34 0
0 36 0
0 37 0
0 34 0
0 38 0
0 29 0
0 35 0
0 26 0
0 32 0
0 35 0
0 24 0
0 24 0
0 33 0
0 32 0
0 36 0
0 27 0
0 27 0
0 20 0
0 36 0
0 30 0
0 27 0
0 23 0
0 22 0
0 23 0
0 17 0
0 20 0
0 14 0
0 18 0
0 21 0
0 16 3
0 11 4
0 11 7
0 10 7
0 8 11
0 6 8
0 0 16
0 0 15
0 0 8
0 0 16
0 0 14
0 0 15
0 0 10
0 0 9
0 0 20
0 0 20
0 0 18
0 0 20
0 0 21
0 0 18
0 0 17
0 0 28
0 0 14
0 0 18
0 0 22
0 0 22
0 0 20
0 0 21
0 0 19
0 0 27
0 0 13
0 0 21
0 0 22
0 0 23
0 0 15
0 0 22
0 0 15
0 0 12
0 0 17
0 0 26
0 0 27
0 0 21
0 0 28
0 0 31
0 0 27
0 0 19
0 0 18
0 0 27
0 0 26
0 0 14
0 0 28
0 0 28
0 0 28
0 0 25
0 0 38
0 0 16
0 0 33
0 0 25
0 0 24
0 0 17
0 0 32
0 0 24
0 0 28
0 0 25
0 0 38
0 0 29
0 0 15
0 0 28
0 0 26
0 0 26
0 0 34
0 0 25
0 7 22
0 13 24
0 32 11
0 43 8
0 49 5
0 64 3
0 75 0
0 88 0
0 72 0
0 72 0
0 74 0
0 72 0
0 75 0
0 76 0
0 78 0
0 82 0
0 74 0
0 77 0
0 79 0
0 82 0
0 72 0
0 79 0
0 67 0
0 79 0
0 76 0
0 71 0
0 79 0
0 69 0
0 78 0
0 87 0
0 73 0
0 83 0
0 75 0
0 78 0
0 75 0
2 71 3
4 59 6
4 56 6
5 50 8
10 60 15
14 40 20
15 47 22
14 33 19
20 36 30
14 33 22
10 26 15
19 40 28
16 30 23
9 29 14
25 42 36
26 45 38
11 25 16
19 38 27
11 32 16
17 36 24
18 34 27
17 37 26
21 42 31
19 37 28
17 40 25
14 28 21
24 43 35
19 35 27
17 31 26
20 38 28
12 29 17
22 35 32
14 33 21
15 31 22
14 30 20
12 32 18
20 33 29
10 23 15
14 28 21
10 29 16
21 34 30
13 27 18
17 33 25
14 32 20
22 32 31
17 34 24
13 30 19
5 22 8
13 30 19
9 23 14
7 18 11
14 34 22
16 28 21
11 30 16
11 24 16
7 26 11
12 31 17
6 20 8
9 25 13
5 28 7
2 20 2
7 24 10
0 29 0
0 24 0
0 17 0
0 33 0
0 33 0
0 30 0
0 34 0
0 38 0
0 24 0
0 28 0
0 28 0
0 43 0
0 22 0
0 28 0
0 27 0
0 37 0
0 26 0
0 32 0
0 29 0
0 32 0
0 35 0
0 38 0
0 19 0
0 37 0
0 30 0
0 33 0
0 26 0
0 47 0
0 42 0
0 46 0
0 49 0
0 44 0
0 38 0
0 39 0
0 41 0
0 41 0
0 43 0
0 50 0
0 39 0
0 49 0
0 32 0
0 59 0
0 37 0
0 37 0
0 39 0
0 54 0
0 47 0
0 42 0
0 42 0
0 42 0
0 38 0
0 53 0
0 45 0
0 38 0
0 38 0
0 54 0
0 42 0
0 38 0
0 51 0
0 42 0
0 47 0
0 43 0
0 46 0
0 55 0
0 51 0
0 47 0
0 43 0
0 36 0
0 36 0
0 41 0
0 45 0
0 37 0
0 48 0
0 42 0
0 36 0
0 41 0
0 41 0
0 44 0
0 43 0
0 35 0
0 36 0
0 40 0
0 35 0
0 35 0
0 42 0
0 38 0
0 36 0
0 32 0
0 38 0
0 33 0
0 34 0
0 34 0
0 36 0
0 25 0
0 34 0
0 27 0
0 29 0
0 27 0
0 24 0
1 27 0
7 19 0
10 7 0
14 2 0
10 4 0
16 0 0
12 0 0
21 0 0
20 0 0
15 0 0
14 0 0
19 0 0
22 0 0
21 0 0
19 0 0
19 0 0
27 0 0
23 0 0
20 0 0
15 0 0
13 0 0
14 0 0
21 0 0
17 0 0
16 0 0
26 0 0
16 0 0
24 0 0
18 0 0
14 0 0
15 0 0
26 0 0
17 0 0
16 0 0
13 0 0
18 0 0
19 1 0
16 2 0
10 6 0
6 12 0
5 23 0
1 24 0
2 23 0
0 34 0
0 29 0
0 36 0
0 32 0
0 22 0
0 34 0
0 31 0
0 24 0
0 41 0
0 32 0
0 32 0
0 40 0
0 36 0
0 40 0
0 38 0
0 33 0
0 27 0
0 33 0
0 36 0
0 44 0
0 38 0
0 32 0
0 49 0
0 37 0
0 30 0
0 38 0
0 43 0
0 42 0
0 33 0
0 46 0
0 41 0
0 39 0
0 46 0
0 49 0
0 31 0
0 49 0
0 37 0
0 46 0
0 38 0
0 40 0
0 38 0
0 39 0
0 29 0
0 38 0
0 54 0
0 48 0
0 42 0
0 41 0
0 36 0
0 33 0
0 33 0
0 33 0
0 47 0
0 41 0
0 40 0
0 42 0
0 41 0
0 41 0
0 38 0
0 37 0
0 40 0
0 30 0
0 33 0
0 39 0
0 35 0
0 27 0
0 47 0
0 40 0
0 28 0
0 37 0
0 41 0
0 31 0
0 41 0
0 32 0
0 33 0
0 23 0
0 25 0
0 34 0
0 26 0
0 36 0
0 20 0
0 32 0
0 21 0
0 29 0
0 20 0
0 28 0
0 24 0
0 24 0
0 23 0
0 15 0
0 23 0
0 23 0
0 17 0
0 18 0
0 21 0
0 23 0
0 15 3
0 23 2
0 8 4
0 6 10
0 7 5
0 3 19
0 7 9
0 3 13
0 0 17
0 0 19
0 0 7
0 0 16
0 0 13
0 0 16
0 0 13
0 0 18
0 0 21
0 0 19
0 0 18
0 0 20
0 0 9
0 0 20
0 0 27
0 0 14
0 0 20
0 0 24
0 0 22
0 0 24
0 0 15
0 0 15
0 0 13
0 0 20
0 0 25
0 0 26
0 0 23
0 0 23
0 0 32
0 0 27
0 0 17
0 0 24
0 0 22
0 0 27
0 0 20
0 0 18
0 0 28
0 0 24
0 0 22
0 0 13
0 0 23
0 0 29
0 0 18
0 0 21
0 0 28
0 0 25
0 0 27
0 1 22
0 3 26
0 14 25
0 23 17
0 25 15
0 35 13
0 48 7
0 46 12
0 66 2
0 63 1
0 72 0
0 71 0
0 74 0
0 70 0
0 70 0
0 65 0
0 58 0
0 70 0
0 69 0
0 74 0
0 68 0
0 77 0
0 74 0
0 80 0
0 80 0
0 72 0
0 75 0
0 79 0
0 77 0
0 78 0
0 83 0
0 83 0
0 73 0
0 74 0
0 84 0
0 87 0
0 78 0
0 67 0
0 77 0
0 82 0
0 78 0
0 77 0
0 74 0
0 73 0
0 83 0
0 71 0
0 54 0
0 64 0
0 74 0
0 84 0
0 66 0
0 68 0
0 66 0
0 63 0
0 59 0
4 58 6
4 57 6
2 50 3
6 55 8
5 52 8
6 45 8
9 49 14
10 35 14
12 42 17
8 39 12
13 35 19
13 34 20
16 35 24
17 34 25
10 32 15
9 28 13
18 29 26
16 32 23
12 27 18
20 35 29
17 31 25
12 25 18
17 33 25
11 25 16
17 39 24
18 36 26
14 26 21
15 31 22
12 27 18
10 27 14
7 25 11
5 20 7
8 30 11
5 23 7
7 27 10
5 25 8
9 36 13
7 33 11
6 28 8
3 31 4
7 29 10
5 26 8
2 36 3
1 36 1
0 32 0
0 31 0
0 26 0
0 36 0
0 31 0
0 35 0
0 28 0
0 33 0
0 30 0
0 33 0
0 34 0
0 37 0
0 24 0
0 33 0
0 27 0
0 30 0
0 37 0
0 35 0
0 37 0
0 39 0
0 34 0
0 40 0
0 43 0
0 41 0
0 36 0
0 43 0
0 35 0
0 34 0
0 37 0
0 44 0
0 52 0
0 37 0
0 37 0
0 36 0
0 51 0
0 33 0
0 36 0
0 41 0
0 48 0
0 37 0
0 39 0
0 49 0
0 46 0
0 47 0
0 46 0
0 47 0
0 42 0
0 37 0
0 44 0
0 38 0
0 44 0
0 45 0
0 63 0
0 46 0
0 44 0
0 48 0
0 46 0
0 48 0
0 48 0
0 59 0
0 41 0
0 32 0
0 46 0
0 46 0
0 46 0
0 44 0
0 58 0
0 45 0
0 55 0
0 43 0
0 43 0
0 39 0
0 56 0
0 44 0
0 44 0
0 47 0
0 41 0
0 39 0
0 45 0
0 43 0
0 51 0
0 48 0
0 38 0
0 45 0
0 41 0
0 45 0
0 46 0
0 47 0
0 31 0
0 40 0
0 41 0
0 40 0
0 32 0
0 49 0
0 35 0
0 29 0
0 33 0
0 32 0
0 23 0
0 32 0
0 21 0
0 34 0
0 33 0
0 31 0
0 34 0
0 30 0
0 28 0
0 29 0
0 32 0
0 25 0
0 24 0
0 24 0
0 27 0
1 24 0
1 17 0
8 16 0
5 9 0
11 8 0
10 7 0
13 2 0
10 4 0
15 5 0
9 1 0
4 0 0
13 2 0
16 0 0
13 0 0
11 0 0
21 0 0
17 0 0
16 0 0
17 0 0
18 0 0
16 4 0
20 3 0
11 7 0
11 6 0
12 8 0
11 7 0
13 13 0
2 26 0
1 27 0
1 15 0
0 24 0
0 32 0
0 26 0
0 30 0
0 24 0
0 26 0
0 27 0
0 35 0
0 32 0
0 32 0
0 31 0
0 23 0
0 39 0
0 28 0
0 29 0
0 28 0
0 27 0
0 40 0
0 36 0
0 34 0
0 35 0
0 48 0
0 33 0
0 43 0
0 44 0
0 37 0
0 46 0
0 39 0
0 38 0
0 32 0
0 39 0
0 48 0
0 38 0
0 36 0
0 30 0
0 32 0
0 34 0
0 43 0
0 43 0
0 35 0
0 48 0
0 41 0
0 43 0
0 43 0
0 40 0
0 49 0
0 44 0
0 36 0
0 40 0
0 36 0
0 39 0
0 45 0
0 42 0
0 39 0
0 50 0
0 38 0
0 31 0
0 37 0
0 50 0
0 52 0
0 39 0
0 34 0
0 35 0
0 28 0
0 46 0
0 49 0
0 36 0
0 40 0
0 45 0
0 38 0
0 41 0
0 37 0
0 45 0
0 41 0
0 34 0
0 37 0
0 29 0
0 44 0
0 36 0
0 30 0
0 32 0
0 44 0
0 38 0
0 24 0
0 34 0
0 32 0
0 33 0
0 27 0
0 37 0
0 28 0
0 25 0
0 25 0
0 24 0
0 35 0
0 22 0
0 30 0
0 24 0
0 23 0
0 24 0
0 26 0
0 25 0
0 16 0
0 23 0
0 21 0
0 15 0
0 22 0
0 27 0
0 26 0
0 22 0
0 20 0
0 27 0
0 18 0
0 23 1
0 28 3
0 18 3
0 19 3
0 15 11
0 19 3
0 14 5
0 13 10
0 9 10
0 11 5
0 3 12
0 4 13
0 2 13
0 3 19
0 1 14
0 2 14
0 0 22
0 0 13
0 0 15
0 0 20
0 0 24
0 0 22
0 0 15
0 0 19
0 0 15
0 0 13
0 0 23
0 1 19
0 1 20
0 3 12
0 1 33
0 3 17
0 8 23
0 7 21
0 6 22
0 16 18
0 24 16
0 19 12
0 23 15
0 32 15
0 20 13
0 36 9
0 35 10
0 33 4
0 53 1
0 64 4
0 62 0
0 59 0
0 67 0
0 63 0
0 66 0
0 66 0
0 65 0
0 67 0
0 59 0
0 61 0
0 63 0
0 78 0
0 58 0
0 63 0
0 73 0
0 73 0
0 63 0
0 76 0
0 71 0
0 74 0
0 77 0
0 72 0
0 75 0
0 68 0
0 74 0
0 75 0
0 70 0
0 76 0
0 80 0
0 78 0
0 75 0
0 71 0
0 78 0
0 82 0
0 80 0
0 78 0
0 73 0
0 66 0
0 66 0
0 67 0
0 73 0
0 78 0
0 62 0
0 77 0
0 73 0
0 58 0
0 66 0
0 68 0
0 76 0
0 80 0
0 68 0
0 68 0
0 66 0
0 62 0
0 59 0
0 77 0
0 66 0
0 65 0
0 63 0
0 64 0
0 75 0
0 64 0
0 65 0
0 52 0
0 54 0
0 65 0
0 52 0
0 53 0
0 57 0
0 51 0
0 64 0
0 46 0
0 59 0
0 44 0
0 53 0
0 52 0
0 47 0
0 42 0
0 53 0
0 44 0
0 54 0
0 44 0
0 41 0
0 43 0
0 37 0
0 44 0
0 38 0
0 40 0
0 34 0
0 37 0
0 30 0
0 28 0
0 43 0
0 39 0
0 38 0
0 46 0
0 37 0
0 38 0
0 28 0
0 35 0
0 29 0
0 36 0
0 38 0
0 41 0
0 29 0
0 28 0
0 40 0
0 35 0
0 35 0
0 36 0
0 33 0
0 27 0
0 38 0
0 43 0
0 39 0
0 38 0
0 43 0
0 38 0
0 37 0
0 35 0
0 38 0
0 41 0
0 43 0
0 39 0
0 41 0
0 38 0
0 44 0
0 45 0
0 39 0
0 38 0
0 49 0
0 37 0
0 50 0
0 36 0
0 49 0
0 41 0
0 27 0
0 30 0
0 43 0
0 44 0
0 59 0
0 48 0
0 42 0
0 41 0
0 49 0
0 54 0
0 38 0
0 46 0
0 50 0
0 31 0
0 49 0
0 43 0
0 45 0
0 47 0
0 45 0
0 51 0
0 44 0
0 48 0
0 41 0
0 46 0
0 56 0
0 42 0
0 46 0
0 45 0
0 54 0
0 43 0
0 41 0
0 52 0
0 38 0
0 55 0
0 43 0
0 44 0
0 33 0
0 40 0
0 51 0
0 46 0
0 37 0
0 45 0
0 47 0
0 43 0
0 46 0
0 46 0
0 46 0
0 45 0
0 47 0
0 45 0
0 47 0
0 39 0
0 37 0
0 45 0
0 48 0
0 38 0
0 42 0
0 39 0
0 36 0
0 34 0
0 36 0
0 25 0
0 36 0
0 32 0
0 31 0
0 36 0
0 38 0
0 26 0
0 34 0
0 31 0
0 27 0
0 32 0
0 15 0
0 27 0
0 23 0
0 22 0
0 24 0
0 36 0
0 33 0
0 31 0
0 29 0
0 25 0
0 27 0
0 21 0
0 20 0
0 18 0
0 24 0
0 25 0
0 15 0
0 24 0
0 27 0
0 21 0
0 23 0
1 22 0
0 23 0
0 22 0
0 22 0
0 14 0
0 25 0
0 23 0
0 27 0
0 21 0
0 26 0
0 26 0
0 21 0
0 33 0
0 21 0
0 22 0
0 25 0
0 29 0
0 29 0
0 32 0
0 28 0
0 39 0
0 33 0
0 31 0
0 30 0
0 34 0
0 37 0
0 29 0
0 38 0
0 45 0
0 30 0
0 36 0
0 30 0
0 26 0
0 36 0
0 37 0
0 28 0
0 43 0
0 33 0
0 44 0
0 48 0
0 50 0
0 49 0
0 59 0
0 41 0
0 29 0
0 47 0
0 31 0
0 37 0
0 36 0
0 36 0
0 45 0
0 31 0
0 32 0
0 44 0
0 29 0
0 33 0
0 42 0
0 42 0
0 40 0
0 32 0
0 38 0
0 37 0
0 43 0
0 50 0
0 39 0
0 49 0
0 51 0
0 39 0
0 53 0
0 48 0
0 46 0
0 44 0
0 47 0
0 47 0
0 52 0
0 39 0
0 44 0
0 40 0
0 28 0
0 38 0
0 53 0
0 26 0
0 45 0
0 44 0
0 36 0
0 34 0
0 37 0
0 40 0
0 33 0
0 41 0
0 50 0
0 40 0
0 27 0
0 36 0
0 42 0
0 26 0
0 42 0
0 47 0
0 42 0
0 35 0
0 29 0
0 32 0
0 43 0
0 28 0
0 30 0
0 35 0
0 31 0
0 34 0
0 27 0
0 25 0
0 39 0
0 30 0
0 40 0
0 26 0
0 27 0
0 33 0
0 35 0
0 23 0
0 25 0
0 33 0
0 27 0
0 24 0
0 30 0
0 28 0
0 19 0
0 23 0
0 29 0
0 23 0
0 20 0
0 24 0
0 22 0
0 30 0
0 32 0
0 27 0
0 25 0
0 37 0
0 21 0
0 34 0
0 34 0
0 32 0
0 29 0
0 35 0
0 39 0
0 34 0
0 33 0
0 46 1
0 39 0
0 36 0
0 37 0
0 32 0
0 45 0
0 41 0
0 41 0
0 46 0
0 52 0
0 53 0
0 40 0
0 42 0
0 47 0
0 48 0
0 44 0
0 62 0
0 43 0
0 65 0
0 57 0
0 53 0
0 52 0
0 64 0
0 49 0
0 57 0
0 58 0
0 59 0
0 46 0
0 60 0
0 50 0
0 56 0
0 60 0
0 66 0
0 72 0
0 64 0
0 57 0
0 63 0
0 60 0
0 67 0
0 58 0
0 61 0
0 66 0
0 56 0
0 76 0
0 77 0
0 71 0
0 70 0
0 70 0
0 66 0
0 83 0
0 77 0
0 76 0
0 65 0
0 74 0
0 75 0
0 72 0
0 78 0
0 79 0
0 74 0
0 70 0
0 76 0
0 75 0
0 66 0
0 60 0
0 68 0
0 74 0
0 79 0
0 77 0
0 76 0
0 67 0
0 77 0
0 79 0
0 72 0
0 58 0
0 67 0
0 76 0
0 71 0
0 69 0
0 67 0
0 76 0
0 63 0
0 64 0
0 61 0
0 69 0
0 55 0
0 61 0
0 52 0
0 65 0
0 55 0
0 60 0
0 57 0
0 59 0
0 58 0
0 44 0
0 47 0
0 48 0
0 53 0
0 56 0
0 42 0
0 42 0
0 44 0
0 45 0
0 48 0
0 39 0
0 45 0
0 36 0
0 59 0
0 54 0
0 45 0
0 42 0
0 44 0
0 43 0
0 52 0
0 37 0
0 43 0
0 36 0
0 33 0
0 31 0
0 38 0
0 41 0
0 45 0
0 36 0
0 42 0
0 36 0
0 48 0
0 31 0
0 34 0
0 33 0
0 29 0
0 42 0
0 49 0
0 37 0
0 41 0
0 46 0
0 36 0
0 32 0
0 51 0
0 42 0
0 31 0
0 46 0
0 49 0
0 32 0
0 47 0
0 48 0
0 51 0
0 41 0
0 43 0
0 40 0
0 41 0
0 38 0
0 35 0
0 42 0
0 42 0
0 44 0
0 52 0
0 37 0
0 43 0
0 44 0
0 53 0
0 41 0
0 41 0
0 53 0
0 48 0
0 43 0
0 49 0
0 39 0
0 55 0
0 48 0
0 48 0
0 57 0
0 45 0
0 50 0
0 49 0
0 49 0
0 44 0
0 41 0
0 48 0
0 47 0
0 52 0
0 50 0
0 33 0
0 43 0
0 42 0
0 47 0
0 48 0
0 51 0
0 45 0
0 52 0
0 39 0
0 53 0
0 46 0
0 35 0
0 41 0
0 44 0
0 50 0
0 42 0
0 40 0
0 45 0
0 42 0
0 56 0
0 54 0
0 40 0
0 54 0
0 46 0
0 49 0
0 34 0
0 49 0
0 40 0
0 37 0
0 42 0
0 43 0
0 35 0
0 43 0
0 44 0
0 48 0
0 38 0
0 44 0
0 33 0
0 33 0
0 42 0
0 39 0
0 31 0
0 31 0
0 38 0
0 32 0
0 26 0
0 27 0
0 39 0
0 34 0
0 26 0
0 34 0
0 34 0
0 29 0
0 39 0
0 28 0
0 34 0
0 40 0
0 24 0
0 32 0
0 25 0
0 37 0
0 29 0
0 32 0
0 28 0
0 41 0
0 39 0
0 23 0
0 29 0
0 31 0
0 36 0
0 27 0
0 29 0
0 29 0
0 24 0
0 17 0
0 32 0
0 30 0
0 30 0
0 16 0
0 35 0
0 21 0
0 31 0
0 22 0
0 25 0
0 24 0
0 30 0
0 14 0
0 40 0
0 31 0
0 33 0
0 31 0
0 26 0
0 38 0
0 32 0
0 27 0
0 32 0
0 39 0
0 39 0
0 31 0
0 37 0
0 27 0
0 42 0
0 30 0
0 29 0
0 40 0
0 36 0
0 50 0
0 44 0
0 39 0
0 26 0
0 40 0
0 32 0
0 41 0
0 33 0
0 48 0
0 38 0
0 45 0
0 38 0
0 46 0
0 36 0
0 37 0
0 43 0
0 46 0
0 45 0
0 43 0
0 37 0
0 41 0
0 43 0
0 45 0
0 50 0
0 35 0
0 50 0
0 45 0
0 50 0
0 42 0
0 41 0
0 36 0
0 48 0
0 44 0
0 42 0
0 44 0
0 47 0
0 36 0
0 37 0
0 49 0
0 42 0
0 32 0
0 35 0
0 39 0
0 54 0
0 34 0
0 47 0
0 37 0
0 44 0
0 44 0
0 53 0
0 41 0
0 37 0
0 45 0
0 43 0
0 50 0
0 36 0
0 28 0
0 53 0
0 34 0
0 40 0
0 43 0
0 39 0
0 41 0
0 37 0
0 43 0
0 30 0
0 31 0
0 44 0
0 46 0
0 37 0
0 31 0
0 36 0
0 37 0
0 34 0
0 28 0
0 33 0
0 37 0
0 30 0
0 38 0
0 31 0
0 33 0
0 32 0
0 42 0
0 20 0
0 30 0
0 36 0
0 28 0
0 31 0
0 29 0
0 31 0
0 29 0
0 35 0
0 28 0
0 32 0
0 23 0
0 27 0
0 26 0
0 27 0
0 37 0
0 32 0
0 34 0
0 30 0
0 28 0
0 40 0
0 25 0
0 29 0
0 20 0
0 36 0
0 21 0
0 30 0
0 38 0
0 37 0
0 37 0
0 41 0
0 32 0
0 42 0
0 42 0
0 36 0
0 53 0
0 45 0
0 44 0
0 49 0
0 52 0
0 49 0
0 49 0
0 48 0
0 45 0
0 44 0
0 53 0
0 37 0
0 47 0
0 47 0
0 62 0
0 43 0
0 48 0
0 56 0
0 49 0
0 60 0
0 54 0
0 60 0
0 49 0
0 57 0
0 54 0
0 57 0
0 58 0
0 58 0
0 63 0
0 65 0
0 58 0
0 67 0
0 65 0
0 63 0
0 62 0
0 58 0
0 71 0
0 65 0
0 68 0
0 64 0
0 57 0
0 73 0
0 75 0
0 71 0
0 67 0
0 69 0
0 70 0
0 73 0
0 69 0
0 78 0
0 70 0
0 78 0
0 75 0
0 80 0
0 66 0
0 80 0
0 76 0
0 76 0
0 73 0
0 59 0
0 72 0
0 80 0
0 68 0
0 69 0
0 63 0
0 65 0
0 76 0
0 73 0
0 73 0
0 66 0
0 53 0
0 71 0
0 60 0
0 69 0
0 65 0
0 57 0
0 58 0
0 52 0
0 46 0
0 59 0
0 62 0
0 53 0
0 54 0
0 41 0
0 63 0
0 61 0
0 61 0
0 59 0
0 50 0
0 57 0
0 58 0
0 59 0
0 47 0
0 54 0
0 45 0
0 48 0
0 45 0
0 52 0
0 45 0
0 46 0
0 44 0
0 43 0
0 47 0
0 45 0
0 47 0
0 53 0
0 42 0
0 41 0
0 44 0
0 30 0
0 40 0
0 45 0
0 39 0
0 36 0
0 34 0
0 38 0
0 41 0
0 49 0
0 28 0
0 39 0
0 38 0
0 40 0
0 45 0
0 35 0
0 31 0
0 46 0
0 40 0
0 50 0
0 39 0
0 34 0
0 38 0
0 37 0
0 49 0
0 41 0
0 43 0
0 46 0
0 45 0
0 41 0
0 38 0
0 40 0
0 47 0
0 41 0
0 42 0
0 45 0
0 42 0
0 42 0
0 45 0
0 54 0
0 55 0
0 50 0
0 44 0
0 46 0
0 53 0
0 42 0
0 53 0
0 40 0
0 54 0
0 46 0
0 42 0
0 61 0
0 45 0
0 46 0
0 57 0
0 58 0
0 49 0
0 46 0
0 60 0
0 53 0
0 37 0
0 44 0
0 41 0
0 44 0
0 57 0
0 47 0
0 42 0
0 43 0
0 48 0
0 44 0
0 43 0
0 48 0
0 53 0
0 59 0
0 49 0
0 50 0
0 44 0
0 41 0
0 56 0
0 39 0
0 46 0
0 49 0
0 48 0
0 46 0
0 45 0
0 54 0
0 44 0
0 46 0
0 46 0
0 43 0
0 41 0
0 47 0
0 39 0
0 45 0
0 35 0
0 34 0
0 47 0
0 49 0
0 45 0
0 43 0
0 34 0
0 46 0
0 33 0
0 35 0
0 49 0
0 44 0
0 40 0
0 55 0
0 32 0
0 32 0
0 32 0
0 36 0
0 40 0
0 29 0
0 33 0
0 30 0
0 29 0
0 29 0
0 46 0
0 35 0
0 35 0
0 29 0
0 42 0
0 38 0
0 36 0
0 34 0
0 24 0
0 34 0
0 31 0
0 26 0
0 21 0
0 33 0
0 26 0
0 35 0
0 34 0
0 27 0
0 31 0
0 30 0
0 33 0
0 33 0
0 30 0
0 22 0
0 26 0
0 27 0
0 38 0
0 27 0
0 27 0
0 34 0
0 34 0
0 35 0
0 39 0
0 30 0
0 39 0
0 36 0
0 30 0
0 24 0
0 28 0
0 21 0
0 32 0
0 35 0
0 35 0
0 25 0
0 29 0
0 30 0
0 28 0
0 35 0
0 28 0
0 33 0
0 40 0
0 36 0
0 33 0
0 38 0
0 36 0
0 37 0
0 30 0
0 50 0
0 39 0
0 44 0
0 34 0
0 32 0
0 46 0
0 42 0
0 40 0
0 42 0
0 49 0
0 46 0
0 35 0
0 46 0
0 37 0
0 42 0
0 37 0
0 49 0
0 42 0
0 38 0
0 46 0
0 54 0
0 55 0
0 40 0
0 35 0
0 45 0
0 36 0
0 41 0
0 43 0
0 43 0
0 45 0
0 48 0
0 36 0
0 43 0
0 47 0
0 47 0
0 39 0
0 51 0
0 54 0
0 50 0
0 46 0
0 58 0
0 40 0
0 44 0
0 42 0
0 41 0
0 47 0
0 38 0
0 44 0
0 40 0
0 46 0
0 41 0
0 36 0
0 44 0
0 38 0
0 45 0
0 52 0
0 43 0
0 29 0
0 36 0
0 42 0
0 43 0
0 36 0
0 35 0
0 32 0
0 36 0
0 38 0
0 29 0
0 46 0
0 35 0
0 29 0
0 42 0
0 41 0
0 41 0
0 41 0
0 43 0
0 40 0
0 32 0
0 35 0
0 38 0
0 34 0
0 32 0
0 32 0
0 40 0
0 34 0
0 36 0
0 32 0
0 32 0
0 37 0
0 40 0
0 37 0
0 35 0
0 39 0
0 28 0
0 23 0
0 30 0
0 27 0
0 32 0
0 38 0
0 27 0
0 27 0
0 34 0
0 26 0
0 41 0
0 29 0
0 31 0
0 30 0
0 42 0
0 33 0
0 33 0
0 35 0
0 38 0
0 28 0
0 42 0
0 37 0
0 34 0
0 49 0
0 36 0
0 37 0
0 31 0
0 39 0
0 41 0
0 45 0
0 43 0
0 43 0
0 38 0
0 40 0
0 39 0
0 52 0
0 51 0
0 46 0
0 51 0
0 54 0
0 63 0
0 49 0
0 53 0
0 65 0
0 51 0
0 62 0
0 68 0
0 44 0
0 55 0
0 46 0
0 58 0
0 51 0
0 53 0
0 62 0
0 57 0
0 55 0
0 63 0
0 62 0
0 65 0
0 67 0
0 56 0
0 59 0
0 54 0
0 70 0
0 75 0
0 57 0
0 67 0
0 77 0
0 72 0
0 68 0
0 74 0
0 62 0
0 65 0
0 72 0
0 77 0
0 77 0
0 82 0
0 78 0
0 71 0
0 72 0
0 83 0
0 69 0
0 70 0
0 80 0
0 67 0
0 72 0
0 60 0
0 75 0
0 70 0
0 69 0
0 68 0
0 67 0
0 56 0
0 58 0
0 51 0
0 60 0
0 63 0
0 69 0
0 70 0
0 60 0
0 58 0
0 59 0
0 57 0
0 63 0
0 59 0
0 57 0
0 55 0
0 42 0
0 66 0
0 59 0
0 50 0
0 52 0
0 45 0
0 53 0
0 54 0
0 50 0
0 55 0
0 54 0
0 57 0
0 49 0
0 59 0
0 42 0
0 55 0
0 43 0
0 33 0
0 41 0
0 51 0
0 48 0
0 41 0
0 52 0
0 41 0
0 38 0
0 36 0
0 40 0
0 50 0
0 39 0
0 39 0
0 33 0
0 34 0
0 37 0
0 44 0
0 41 0
0 45 0
0 46 0
0 46 0
0 42 0
0 51 0
0 38 0
0 45 0
0 49 0
0 40 0
0 44 0
0 43 0
0 46 0
0 49 0
0 48 0
0 43 0
0 45 0
0 44 0
0 44 0
0 43 0
0 42 0
0 48 0
0 46 0
0 50 0
0 40 0
0 51 0
0 44 0
0 49 0
0 50 0
0 46 0
0 42 0
0 41 0
0 50 0
0 53 0
0 44 0
0 45 0
0 46 0
0 46 0
0 45 0
0 46 0
0 57 0
0 43 0
0 39 0
0 45 0
0 42 0
0 48 0
0 47 0
0 46 0
0 64 0
0 43 0
0 49 0
0 43 0
0 48 0
0 40 0
0 51 0
0 54 0
0 44 0
0 39 0
0 51 0
0 39 0
0 57 0
0 46 0
0 48 0
0 48 0
0 45 0
0 49 0
0 50 0
0 47 0
0 56 0
0 48 0
0 46 0
0 41 0
0 54 0
0 46 0
0 40 0
0 48 0
0 42 0
0 56 0
0 50 0
0 48 0
0 49 0
0 53 0
0 50 0
0 55 0
0 42 0
0 44 0
0 47 0
0 47 0
0 39 0
0 41 0
0 51 0
0 48 0
0 39 0
0 44 0
0 50 0
0 46 0
0 50 0
0 44 0
0 50 0
0 40 0
0 39 0
0 38 0
0 42 0
0 45 0
0 42 0
0 38 0
0 37 0
0 41 0
0 33 0
0 37 0
0 36 0
0 35 0
0 34 0
0 40 0
0 33 0
0 44 0
0 32 0
0 44 0
0 24 0
0 35 0
0 33 0
0 31 0
0 30 0
0 31 0
0 30 0
0 37 0
0 32 0
0 24 0
0 32 0
0 40 0
0 27 0
0 26 0
0 27 0
0 26 0
0 28 0
0 28 0
0 33 0
0 29 0
0 26 0
0 38 0
0 36 0
0 30 0
0 24 0
0 32 0
0 34 0
0 32 0
0 26 0
0 37 0
0 28 0
0 29 0
0 35 0
0 30 0
0 40 0
0 42 0
0 26 0
0 34 0
0 36 0
0 35 0
0 39 0
0 37 0
0 39 0
0 34 0
0 44 0
0 35 0
0 33 0
0 42 0
0 41 0
0 40 0
0 31 0
0 34 0
0 37 0
0 43 0
0 34 0
0 37 0
0 38 0
0 28 0
0 46 0
0 45 0
0 46 0
0 47 0
0 54 0
0 34 0
0 45 0
0 34 0
0 54 0
0 35 0
0 44 0
0 42 0
0 42 0
0 48 0
0 36 0
0 49 0
0 52 0
0 33 0
0 37 0
0 51 0
0 41 0
0 53 0
0 54 0
0 48 0
0 40 0
0 47 0
0 44 0
0 40 0
0 45 0
0 50 0
0 42 0
0 38 0
0 34 0
0 39 0
0 50 0
0 44 0
0 46 0
0 55 0
0 43 0
0 40 0
0 49 0
0 42 0
0 43 0
0 47 0
0 46 0
0 47 0
0 40 0
0 53 0
0 51 0
0 36 0
0 53 0
0 37 0
0 47 0
0 46 0
0 37 0
0 31 0
0 44 0
0 48 0
0 43 0
0 32 0
0 47 0
0 50 0
0 39 0
0 39 0
0 37 0
0 42 0
0 36 0
0 40 0
0 41 0
0 36 0
0 39 0
0 49 0
0 45 0
0 43 0
0 32 0
0 29 0
0 47 0
0 38 0
0 31 0
0 45 0
0 34 0
0 35 0
0 43 0
0 34 0
0 22 0
0 36 0
0 29 0
0 26 0
0 30 0
0 26 0
0 43 0
0 34 0
0 29 0
0 36 0
0 35 0
0 24 0
0 35 0
0 37 0
0 30 0
0 22 0
0 38 0
0 31 0
0 37 0
0 33 0
0 40 0
0 39 0
0 31 0
0 38 0
0 40 0
0 42 0
0 53 0
0 39 0
0 44 0
0 39 0
0 54 0
0 32 0
0 36 0
0 46 0
0 41 0
0 45 0
0 50 0
0 42 0
0 47 0
0 52 0
0 55 0
0 50 0
0 37 0
0 53 0
0 62 0
0 53 0
0 55 0
0 48 0
0 52 0
0 57 0
0 62 0
0 45 0
0 61 0
0 61 0
0 68 0
0 58 0
0 56 0
0 55 0
0 63 0
0 65 0
0 59 0
0 60 0
0 53 0
0 62 0
0 54 0
0 66 0
0 57 0
0 68 0
0 71 0
0 61 0
0 73 0
0 60 0
0 66 0
0 66 0
0 71 0
0 71 0
0 70 0
0 72 0
0 75 0
0 65 0
0 63 0
0 68 0
0 68 0
0 74 0
0 74 0
0 67 0
0 61 0
0 68 0
0 66 0
0 61 0
0 61 0
0 69 0
0 69 0
0 59 0
0 62 0
0 68 0
0 57 0
0 68 0
0 59 0
0 56 0
0 60 0
0 54 0
0 46 0
0 52 0
0 76 0
0 53 0
0 52 0
0 62 0
0 49 0
0 53 0
0 49 0
0 51 0
0 45 0
0 50 0
0 45 0
0 58 0
0 43 0
0 55 0
0 57 0
0 42 0
0 48 0
0 50 0
0 46 0
0 55 0
0 45 0
0 49 0
0 47 0
0 44 0
0 42 0
0 53 0
0 36 0
0 46 0
0 46 0
0 52 0
0 48 0
0 40 0
0 36 0
0 59 0
0 46 0
0 51 0
0 43 0
0 51 0
0 52 0
0 52 0
0 48 0
0 51 0
0 54 0
0 36 0
0 44 0
0 44 0
0 43 0
0 44 0
0 41 0
0 49 0
0 40 0
0 47 0
0 48 0
0 45 0
0 48 0
0 49 0
0 43 0
0 45 0
0 44 0
0 58 0
0 46 0
0 58 0
0 41 0
0 50 0
0 42 0
0 63 0
0 54 0
0 42 0
0 38 0
0 46 0
0 55 0
0 41 0
0 58 0
0 59 0
0 52 0
0 47 0
0 52 0
0 59 0
0 53 0
0 47 0
0 57 0
0 54 0
0 47 0
0 45 0
0 48 0
0 51 0
0 52 0
0 48 0
0 50 0
0 47 0
0 49 0
0 54 0
0 49 0
0 41 0
0 54 0
0 59 0
0 44 0
0 45 0
0 65 0
0 45 0
0 45 0
0 41 0
0 62 0
0 40 0
0 55 0
0 57 0
0 52 0
0 56 0
0 55 0
0 47 0
0 46 0
0 54 0
0 40 0
0 45 0
0 45 0
0 37 0
0 47 0
0 47 0
0 36 0
0 57 0
0 31 0
0 47 0
0 53 0
0 53 0
0 54 0
0 46 0
0 54 0
0 55 0
0 38 0
0 47 0
0 38 0
0 36 0
0 41 0
0 49 0
0 31 0
0 35 0
0 40 0
0 41 0
0 33 0
0 52 0
0 36 0
0 30 0
0 49 0
0 37 0
0 33 0
0 36 0
0 38 0
0 38 0
0 43 0
0 39 0
0 37 0
0 27 0
0 30 0
0 38 0
0 35 0
0 36 0
0 44 0
0 29 0
0 26 0
0 23 0
0 38 0
0 33 0
0 34 0
0 32 0
0 30 0
0 36 0
0 27 0
0 26 0
0 35 0
0 32 0
0 34 0
0 34 0
0 39 0
0 35 0
0 27 0
0 26 0
0 28 0
0 28 0
0 33 0
0 28 0
0 31 0
0 43 0
0 38 0
0 29 0
0 36 0
0 42 0
0 36 0
0 25 0
0 29 0
0 34 0
0 24 0
0 39 0
0 32 0
0 35 0
0 36 0
0 37 0
0 37 0
0 44 0
0 31 0
0 36 0
0 42 0
0 52 0
0 38 0
0 42 0
0 35 0
0 52 0
0 52 0
0 38 0
0 39 0
0 37 0
0 26 0
0 44 0
0 35 0
0 43 0
0 49 0
0 35 0
0 38 0
0 46 0
0 46 0
0 51 0
0 43 0
0 37 0
0 32 0
0 43 0
0 46 0
0 40 0
0 49 0
0 50 0
0 45 0
0 48 0
0 49 0
0 41 0
0 46 0
0 49 0
0 55 0
0 45 0
0 39 0
0 42 0
0 46 0
0 50 0
0 45 0
0 60 0
0 48 0
0 42 0
0 41 0
0 49 0
0 43 0
0 50 0
0 41 0
0 57 0
0 49 0
0 44 0
0 49 0
0 38 0
0 45 0
0 51 0
0 45 0
0 46 0
0 36 0
0 46 0
0 36 0
0 55 0
0 41 0
0 42 0
0 52 0
0 48 0
0 43 0
0 45 0
0 34 0
0 33 0
0 48 0
0 47 0
0 42 0
0 49 0
0 41 0
0 39 0
0 49 0
0 44 0
0 47 0
0 38 0
0 49 0
0 41 0
0 42 0
0 42 0
0 39 0
0 42 0
0 32 0
0 38 0
0 31 0
0 47 0
0 39 0
0 36 0
0 49 0
0 32 0
0 39 0
0 34 0
0 42 0
0 48 0
0 35 0
0 32 0
0 36 0
0 30 0
0 39 0
0 35 0
0 38 0
0 36 0
0 28 0
0 31 0
0 40 0
0 36 0
0 42 0
0 39 0
0 37 0
0 34 0
0 36 0
0 27 0
0 43 0
0 35 0
0 34 0
0 46 0
0 39 0
0 41 0
0 32 0
0 36 0
0 25 0
0 36 0
0 44 0
0 33 0
0 47 0
0 40 0
0 51 0
0 45 0
0 56 0
0 42 0
0 41 0
0 45 0
0 55 0
0 42 0
0 40 0
0 48 0
0 54 0
0 44 0
0 42 0
0 54 0
0 50 0
0 51 0
0 55 0
0 54 0
0 45 0
0 60 0
0 61 0
0 62 0
0 57 0
0 66 0
0 60 0
0 64 0
0 64 0
0 65 0
0 55 0
0 66 0
0 57 0
0 57 0
0 70 0
0 65 0
0 62 0
0 66 0
0 70 0
0 54 0
0 65 0
0 75 0
0 67 0
0 73 0
0 67 0
0 64 0
0 68 0
0 71 0
0 61 0
0 64 0
0 63 0
0 59 0
0 64 0
0 71 0
0 67 0
0 55 0
0 60 0
0 63 0
0 70 0
0 69 0
0 59 0
0 60 0
0 67 0
0 60 0
0 57 0
0 58 0
0 63 0
0 54 0
0 61 0
0 54 0
0 63 0
0 53 0
0 47 0
0 58 0
0 55 0
0 47 0
0 63 0
0 59 0
0 45 0
0 55 0
0 54 0
0 54 0
0 55 0
0 52 0
0 47 0
0 50 0
0 48 0
0 51 0
0 48 0
0 51 0
0 47 0
0 39 0
0 53 0
0 50 0
0 49 0
0 55 0
0 53 0
0 45 0
0 54 0
0 49 0
0 50 0
0 39 0
0 46 0
0 43 0
0 38 0
0 40 0
0 47 0
0 53 0
0 47 0
0 33 0
0 45 0
0 60 0
0 46 0
0 47 0
0 43 0
0 48 0
0 38 0
0 44 0
0 45 0
0 50 0
0 46 0
0 45 0
0 40 0
0 53 0
0 47 0
0 52 0
0 46 0
0 45 0
0 53 0
0 58 0
0 51 0
0 41 0
0 50 0
0 40 0
0 52 0
0 41 0
0 49 0
0 55 0
0 56 0
0 57 0
0 59 0
0 53 0
0 56 0
0 44 0
0 52 0
0 50 0
0 57 0
0 44 0
0 51 0
0 61 0
0 43 0
0 51 0
0 42 0
0 50 0
0 50 0
0 54 0
0 46 0
0 48 0
0 50 0
0 46 0
0 61 0
0 56 0
0 46 0
0 63 0
0 57 0
0 55 0
0 51 0
0 43 0
0 43 0
0 47 0
0 59 0
0 52 0
0 57 0
0 55 0
0 45 0
0 47 0
0 47 0
0 58 0
0 45 0
0 52 0
0 47 0
0 40 0
0 49 0
0 47 0
0 55 0
0 33 0
0 47 0
0 41 0
0 38 0
0 51 0
0 46 0
0 46 0
0 50 0
0 46 0
0 45 0
0 52 0
0 48 0
0 40 0
0 46 0
0 62 0
0 42 0
0 43 0
0 42 0
0 43 0
0 42 0
0 41 0
0 50 0
0 56 0
0 40 0
0 37 0
0 43 0
0 33 0
0 39 0
0 40 0
0 47 0
0 37 0
0 36 0
0 42 0
0 38 0
0 37 0
0 34 0
0 39 0
0 41 0
0 27 0
0 46 0
0 37 0
0 40 0
0 38 0
0 45 0
0 50 0
0 37 0
0 35 0
0 40 0
0 39 0
0 35 0
0 30 0
0 32 0
0 32 0
0 32 0
0 32 0
0 39 0
0 35 0
0 33 0
0 40 0
0 34 0
0 32 0
0 33 0
0 46 0
0 36 0
0 40 0
0 36 0
0 29 0
0 35 0
0 34 0
0 27 0
0 31 0
0 33 0
0 32 0
0 30 0
0 38 0
0 36 0
0 37 0
0 36 0
0 37 0
0 42 0
0 35 0
0 40 0
0 45 0
0 44 0
0 31 0
0 45 0
0 39 0
0 40 0
0 39 0
0 42 0
0 38 0
0 31 0
0 40 0
0 40 0
0 41 0
0 39 0
0 39 0
0 51 0
0 43 0
0 41 0
0 44 0
0 40 0
0 43 0
0 49 0
0 46 0
0 38 0
0 40 0
0 53 0
0 46 0
0 40 0
0 37 0
0 37 0
0 54 0
0 43 0
0 43 0
0 49 0
0 47 0
0 39 0
0 47 0
0 62 0
0 46 0
0 51 0
0 41 0
0 38 0
0 45 0
0 49 0
0 46 0
0 41 0
0 46 0
0 47 0
0 33 0
0 49 0
0 38 0
0 49 0
0 54 0
0 43 0
0 52 0
0 50 0
0 45 0
0 51 0
0 47 0
0 61 0
0 45 0
0 45 0
0 46 0
0 39 0
0 45 0
0 58 0
0 54 0
0 34 0
0 44 0
0 48 0
0 50 0
0 37 0
0 32 0
0 50 0
0 51 0
0 47 0
0 39 0
0 45 0
0 38 0
0 38 0
0 39 0
0 38 0
0 36 0
0 40 0
0 44 0
0 42 0
0 45 0
0 47 0
0 45 0
0 36 0
0 41 0
0 40 0
0 42 0
0 41 0
0 53 0
0 47 0
0 41 0
0 45 0
0 47 0
0 42 0
0 55 0
0 28 0
0 42 0
0 32 0
0 32 0
0 43 0
0 32 0
0 48 0
0 34 0
0 43 0
0 40 0
0 48 0
0 43 0
0 32 0
0 44 0
0 39 0
0 36 0
0 36 0
0 40 0
0 36 0
0 45 0
0 34 0
0 45 0
0 38 0
0 43 0
0 47 0
0 36 0
0 42 0
0 30 0
0 44 0
0 44 0
0 49 0
0 47 0
0 46 0
0 47 0
0 36 0
0 33 0
0 40 0
0 48 0
0 42 0
0 44 0
0 38 0
0 46 0
0 46 0
0 37 0
0 50 0
0 50 0
0 52 0
0 57 0
0 57 0
0 50 0
0 51 0
0 47 0
0 39 0
0 54 0
0 50 0
0 54 0
0 49 0
0 57 0
0 57 0
0 53 0
0 46 0
0 58 0
0 64 0
0 61 0
0 65 0
0 60 0
0 53 0
0 60 0
0 58 0
0 57 0
0 66 0
0 66 0
0 59 0
0 70 0
0 67 0
0 73 0
0 64 0
0 74 0
0 65 0
0 74 0
0 70 0
0 64 0
0 66 0
0 68 0
0 59 0
0 65 0
0 55 0
0 66 0
0 59 0
0 63 0
0 62 0
0 61 0
0 52 0
0 55 0
0 52 0
0 56 0
0 54 0
0 52 0
0 66 0
0 56 0
0 64 0
0 55 0
0 52 0
0 55 0
0 62 0
0 59 0
0 55 0
0 58 0
0 54 0
0 45 0
0 53 0
0 49 0
0 57 0
0 52 0
0 47 0
0 52 0
0 51 0
0 50 0
0 52 0
0 50 0
0 42 0
0 54 0
0 44 0
0 53 0
0 51 0
0 53 0
0 43 0
0 51 0
0 52 0
0 56 0
0 49 0
0 49 0
0 48 0
0 51 0
0 48 0
0 47 0
0 52 0
0 48 0
0 48 0
0 52 0
0 52 0
0 37 0
0 51 0
0 51 0
0 49 0
0 47 0
0 50 0
0 55 0
0 47 0
0 50 0
0 48 0
0 52 0
0 44 0
0 49 0
0 45 0
0 48 0
0 35 0
0 46 0
0 53 0
0 45 0
0 54 0
0 63 0
0 57 0
0 50 0
0 60 0
0 44 0
0 58 0
0 49 0
0 54 0
0 60 0
0 51 0
0 52 0
0 57 0
0 60 0
0 44 0
0 43 0
0 49 0
0 60 0
0 55 0
0 40 0
0 50 0
0 41 0
0 58 0
0 61 0
0 58 0
0 54 0
0 46 0
0 50 0
0 49 0
0 73 0
0 56 0
0 45 0
0 53 0
0 51 0
0 48 0
0 51 0
0 53 0
0 59 0
0 57 0
0 51 0
0 49 0
0 50 0
0 49 0
0 62 0
0 51 0
0 47 0
0 41 0
0 51 0
0 52 0
0 43 0
0 57 0
0 60 0
0 47 0
0 60 0
0 41 0
0 43 0
0 48 0
0 46 0
0 43 0
0 44 0
0 53 0
0 54 0
0 48 0
0 42 0
0 45 0
0 52 0
0 50 0
0 44 0
0 50 0
0 46 0
0 51 0
0 40 0
0 42 0
0 37 0
0 53 0
0 46 0
0 43 0
0 37 0
0 41 0
0 51 0
0 45 0
0 34 0
0 45 0
0 31 0
0 45 0
0 49 0
0 50 0
0 43 0
0 36 0
0 40 0
0 44 0
0 35 0
0 38 0
0 42 0
0 44 0
0 40 0
0 26 0
0 50 0
0 33 0
0 47 0
0 43 0
0 28 0
0 36 0
0 48 0
0 34 0
0 32 0
0 39 0
0 40 0
0 39 0
0 33 0
0 40 0
0 28 0
0 43 0
0 30 0
0 40 0
0 39 0
0 45 0
0 49 0
0 40 0
0 39 0
0 39 0
0 36 0
0 52 0
0 33 0
0 32 0
0 42 0
0 46 0
0 38 0
0 30 0
0 36 0
0 37 0
0 50 0
0 44 0
0 35 0
0 28 0
0 35 0
0 38 0
0 35 0
0 33 0
0 40 0
0 43 0
0 42 0
0 30 0
0 42 0
0 38 0
0 41 0
0 38 0
0 41 0
0 47 0
0 40 0
0 35 0
0 44 0
0 32 0
0 34 0
0 42 0
0 45 0
0 43 0
0 44 0
0 46 0
0 49 0
0 39 0
0 42 0
0 42 0
0 50 0
0 40 0
0 37 0
0 45 0
0 43 0
0 36 0
0 41 0
0 56 0
0 58 0
0 44 0
0 48 0
0 53 0
0 37 0
0 55 0
0 49 0
0 46 0
0 48 0
0 40 0
0 47 0
0 46 0
0 48 0
0 57 0
0 38 0
0 46 0
0 54 0
0 50 0
0 37 0
0 43 0
0 50 0
0 48 0
0 49 0
0 42 0
0 53 0
0 48 0
0 61 0
0 41 0
0 55 0
0 43 0
0 47 0
0 52 0
0 46 0
0 49 0
0 51 0
0 45 0
0 42 0
0 45 0
0 51 0
0 57 0
0 46 0
0 48 0
0 39 0
0 51 0
0 42 0
0 45 0
0 52 0
0 48 0
0 50 0
0 37 0
0 46 0
0 41 0
0 47 0
0 41 0
0 49 0
0 30 0
0 33 0
0 56 0
0 48 0
0 52 0
0 48 0
0 51 0
0 53 0
0 46 0
0 42 0
0 33 0
0 37 0
0 55 0
0 42 0
0 42 0
0 39 0
0 45 0
0 28 0
0 38 0
0 35 0
0 37 0
0 42 0
0 39 0
0 39 0
0 47 0
0 43 0
0 46 0
0 38 0
0 32 0
0 44 0
0 45 0
0 44 0
0 39 0
0 42 0
0 35 0
0 42 0
0 52 0
0 42 0
0 38 0
0 41 0
0 48 0
0 35 0
0 41 0
0 42 0
0 43 0
0 44 0
0 42 0
0 47 0
0 38 0
0 40 0
0 29 0
0 43 0
0 41 0
0 62 0
0 44 0
0 43 0
0 43 0
0 37 0
0 48 0
0 47 0
0 48 0
0 48 0
0 47 0
0 45 0
0 57 0
0 41 0
0 46 0
0 55 0
0 58 0
0 61 0
0 58 0
0 50 0
0 51 0
0 57 0
0 47 0
0 58 0
0 51 0
0 51 0
0 60 0
0 66 0
0 50 0
0 55 0
0 54 0
0 55 0
0 64 0
0 68 0
0 66 0
0 68 0
0 75 0
0 64 0
0 65 0
0 78 0
0 60 0
0 64 0
0 65 0
0 73 0
0 67 0
0 62 0
0 54 0
0 54 0
0 60 0
0 63 0
0 58 0
0 59 0
0 64 0
0 56 0
0 57 0
0 71 0
0 65 0
0 60 0
0 63 0
0 59 0
0 51 0
0 65 0
0 51 0
0 46 0
0 60 0
0 62 0
0 57 0
0 54 0
0 56 0
0 57 0
0 53 0
0 52 0
0 53 0
0 54 0
0 52 0
0 41 0
0 55 0
0 55 0
0 49 0
0 44 0
0 46 0
0 56 0
0 40 0
0 54 0
0 45 0
0 49 0
0 53 0
0 52 0
0 58 0
0 45 0
0 57 0
0 53 0
0 43 0
0 55 0
0 49 0
0 50 0
0 44 0
0 55 0
0 46 0
0 47 0
0 44 0
0 46 0
0 52 0
0 49 0
0 51 0
0 47 0
0 48 0
0 44 0
0 60 0
0 48 0
0 50 0
0 58 0
0 43 0
0 56 0
0 50 0
0 52 0
0 45 0
0 51 0
0 53 0
0 59 0
0 50 0
0 50 0
0 51 0
0 52 0
0 42 0
0 54 0
0 54 0
0 54 0
0 58 0
0 43 0
0 52 0
0 51 0
0 55 0
0 48 0
0 51 0
0 56 0
0 48 0
0 58 0
0 52 0
0 45 0
0 51 0
0 53 0
0 38 0
0 62 0
0 57 0
0 53 0
0 49 0
0 46 0
0 48 0
0 54 0
0 50 0
0 47 0
0 62 0
0 58 0
0 70 0
0 55 0
0 52 0
0 47 0
0 49 0
0 44 0
0 56 0
0 60 0
0 50 0
0 49 0
0 53 0
0 45 0
0 41 0
0 51 0
0 60 0
0 44 0
0 59 0
0 57 0
0 46 0
0 45 0
0 47 0
0 49 0
0 51 0
0 50 0
0 47 0
0 51 0
0 41 0
0 51 0
0 42 0
0 58 0
0 43 0
0 45 0
0 43 0
0 52 0
0 53 0
0 55 0
0 43 0
0 49 0
0 43 0
0 51 0
0 50 0
0 40 0
0 46 0
0 46 0
0 53 0
0 40 0
0 53 0
0 40 0
0 38 0
0 33 0
0 44 0
0 46 0
0 47 0
0 40 0
0 37 0
0 42 0
0 53 0
0 48 0
0 49 0
0 44 0
0 44 0
0 45 0
0 43 0
0 37 0
0 41 0
0 40 0
0 34 0
0 41 0
0 27 0
0 30 0
0 40 0
0 40 0
0 45 0
0 44 0
0 49 0
0 31 0
0 39 0
0 41 0
0 39 0
0 41 0
0 42 0
0 31 0
0 38 0
0 42 0
0 44 0
0 34 0
0 38 0
0 39 0
0 32 0
0 32 0
0 45 0
0 40 0
0 39 0
0 34 0
0 43 0
0 35 0
0 38 0
0 38 0
0 32 0
0 41 0
0 40 0
0 34 0
0 36 0
0 28 0
0 42 0
0 46 0
0 50 0
0 37 0
0 36 0
0 34 0
0 40 0
0 34 0
0 49 0
0 42 0
0 48 0
0 48 0
0 38 0
0 45 0
0 46 0
0 44 0
0 48 0
0 43 0
0 50 0
0 48 0
0 41 0
0 52 0
0 47 0
0 52 0
0 48 0
0 41 0
0 48 0
0 41 0
0 40 0
0 41 0
0 44 0
0 57 0
0 50 0
0 52 0
0 62 0
0 46 0
0 41 0
0 53 0
0 55 0
0 57 0
0 49 0
0 45 0
0 54 0
0 56 0
0 50 0
0 47 0
0 49 0
0 55 0
0 54 0
0 45 0
0 51 0
0 41 0
0 57 0
0 42 0
0 44 0
0 51 0
0 42 0
0 41 0
0 47 0
0 44 0
0 39 0
0 51 0
0 38 0
0 51 0
0 55 0
0 45 0
0 53 0
0 49 0
0 40 0
0 50 0
0 49 0
0 57 0
0 47 0
0 45 0
0 47 0
0 42 0
0 61 0
0 39 0
0 50 0
0 43 0
0 43 0
0 44 0
0 44 0
0 53 0
0 51 0
0 42 0
0 41 0
0 49 0
0 43 0
0 53 0
0 48 0
0 41 0
0 42 0
0 50 0
0 42 0
0 45 0
0 48 0
0 42 0
0 49 0
0 47 0
0 48 0
0 32 0
0 44 0
0 48 0
0 50 0
0 48 0
0 39 0
0 46 0
0 51 0
0 39 0
0 47 0
0 49 0
0 44 0
0 41 0
0 50 0
0 43 0
0 46 0
0 41 0
0 39 0
0 38 0
0 46 0
0 37 0
0 44 0
0 42 0
0 46 0
0 48 0
0 44 0
0 46 0
0 37 0
0 39 0
0 36 0
0 51 0
0 47 0
0 42 0
0 52 0
0 40 0
0 51 0
0 53 0
0 28 0
0 51 0
0 47 0
0 46 0
0 56 0
0 55 0
0 49 0
0 48 0
0 48 0
0 49 0
0 44 0
0 49 0
0 58 0
0 44 0
0 60 0
0 54 0
0 62 0
0 42 0
0 48 0
0 46 0
0 39 0
0 48 0
0 51 0
0 58 0
0 41 0
0 55 0
0 61 0
0 49 0
0 65 0
0 52 0
0 55 0
0 48 0
0 62 0
0 64 0
0 48 0
0 44 0
0 64 0
0 58 0
0 61 0
0 65 0
0 67 0
0 65 0
0 68 0
0 72 0
0 65 0
0 64 0
0 70 0
0 54 0
0 54 0
0 66 0
0 72 0
0 66 0
0 70 0
0 54 0
0 53 0
0 65 0
0 56 0
0 54 0
0 57 0
0 63 0
0 54 0
0 62 0
0 52 0
0 56 0
0 58 0
0 69 0
0 54 0
0 59 0
0 65 0
0 58 0
0 49 0
0 53 0
0 52 0
0 52 0
0 61 0
0 54 0
0 56 0
0 59 0
0 57 0
0 53 0
0 51 0
0 47 0
0 53 0
0 47 0
0 55 0
0 53 0
0 47 0
0 48 0
0 41 0
0 61 0
0 54 0
0 54 0
0 49 0
0 50 0
0 55 0
0 59 0
0 58 0
0 47 0
0 60 0
0 59 0
0 51 0
0 44 0
0 59 0
0 43 0
0 56 0
0 55 0
0 58 0
0 54 0
0 55 0
0 56 0
0 63 0
0 60 0
0 55 0
0 55 0
0 47 0
0 53 0
0 51 0
0 51 0
0 49 0
0 46 0
0 49 0
0 51 0
0 46 0
0 56 0
0 48 0
0 54 0
0 47 0
0 54 0
0 55 0
0 56 0
0 56 0
0 54 0
0 61 0
0 39 0
0 61 0
0 57 0
0 50 0
0 62 0
0 50 0
0 51 0
0 56 0
0 47 0
0 56 0
0 50 0
0 43 0
0 56 0
0 44 0
0 55 0
0 44 0
0 57 0
0 53 0
0 48 0
0 56 0
0 52 0
0 58 0
0 58 0
0 55 0
0 60 0
0 56 0
0 56 0
0 52 0
0 56 0
0 55 0
0 46 0
0 55 0
0 51 0
0 51 0
0 53 0
0 58 0
0 61 0
0 62 0
0 55 0
0 62 0
0 54 0
0 45 0
0 45 0
0 54 0
0 49 0
0 48 0
0 56 0
0 51 0
0 41 0
0 52 0
0 44 0
0 52 0
0 44 0
0 54 0
0 56 0
0 45 0
0 35 0
0 46 0
0 54 0
0 41 0
0 52 0
0 45 0
0 46 0
0 36 0
0 46 0
0 59 0
0 54 0
0 50 0
0 38 0
0 49 0
0 44 0
0 37 0
0 44 0
0 47 0
0 40 0
0 54 0
0 53 0
0 40 0
0 41 0
0 43 0
0 43 0
0 35 0
0 39 0
0 29 0
0 42 0
0 48 0
0 37 0
0 31 0
0 41 0
0 39 0
0 44 0
0 31 0
0 49 0
0 37 0
0 36 0
0 33 0
0 48 0
0 44 0
0 36 0
0 35 0
0 39 0
0 34 0
0 42 0
0 42 0
0 43 0
0 45 0
0 28 0
0 38 0
0 35 0
0 44 0
0 36 0
0 35 0
0 37 0
0 49 0
0 47 0
0 32 0
0 39 0
0 30 0
0 47 0
0 32 0
0 39 0
0 45 0
0 54 0
0 41 0
0 39 0
0 30 0
0 40 0
0 49 0
0 46 0
0 42 0
0 29 0
0 42 0
0 40 0
0 43 0
0 47 0
0 36 0
0 42 0
0 45 0
0 43 0
0 40 0
0 43 0
0 37 0
0 40 0
0 54 0
0 46 0
0 43 0
0 36 0
0 49 0
0 50 0
0 47 0
0 49 0
0 49 0
0 37 0
0 56 0
0 56 0
0 28 0
0 57 0
0 36 0
0 56 0
0 54 0
0 59 0
0 42 0
0 55 0
0 40 0
0 58 0
0 42 0
0 47 0
0 46 0
0 47 0
0 46 0
0 45 0
0 42 0
0 45 0
0 52 0
0 54 0
0 48 0
0 48 0
0 46 0
0 56 0
0 64 0
0 46 0
0 39 0
0 50 0
0 52 0
0 54 0
0 47 0
0 50 0
0 55 0
0 58 0
0 54 0
0 51 0
0 49 0
0 44 0
0 42 0
0 42 0
0 45 0
0 43 0
0 55 0
0 46 0
0 34 0
0 38 0
0 38 0
0 52 0
0 60 0
0 51 0
0 54 0
0 55 0
0 52 0
0 41 0
0 34 0
0 46 0
0 45 0
0 49 0
0 51 0
0 42 0
0 43 0
0 50 0
0 49 0
0 49 0
0 55 0
0 41 0
0 38 0
0 40 0
0 38 0
0 33 0
0 46 0
0 41 0
0 42 0
0 48 0
0 47 0
0 42 0
0 43 0
0 47 0
0 36 0
0 43 0
0 46 0
0 44 0
0 44 0
0 40 0
0 37 0
0 31 0
0 35 0
0 46 0
0 40 0
0 45 0
0 38 0
0 37 0
0 48 0
0 29 0
0 45 0
0 43 0
0 41 0
0 44 0
0 40 0
0 45 0
0 42 0
0 39 0
0 49 0
0 49 0
0 47 0
0 49 0
0 44 0
0 53 0
0 39 0
0 45 0
0 47 0
0 35 0
0 42 0
0 36 0
0 39 0
0 47 0
0 45 0
0 42 0
0 42 0
0 52 0
0 41 0
0 54 0
0 42 0
0 54 0
0 43 0
0 51 0
0 49 0
0 49 0
0 58 0
0 60 0
0 36 0
0 50 0
0 41 0
0 57 0
0 53 0
0 52 0
0 49 0
0 50 0
0 64 0
0 53 0
0 50 0
0 61 0
0 49 0
0 60 0
0 56 0
0 59 0
0 51 0
0 54 0
0 68 0
0 63 0
0 73 0
0 68 0
0 61 0
0 67 0
0 71 0
0 67 0
0 66 0
0 52 0
0 63 0
0 57 0
0 63 0
0 59 0
0 65 0
0 60 0
0 53 0
0 48 0
0 68 0
0 52 0
0 64 0
0 55 0
0 59 0
0 67 0
0 59 0
0 62 0
0 53 0
0 60 0
0 47 0
0 58 0
0 61 0
0 58 0
0 53 0
0 54 0
0 48 0
0 53 0
0 53 0
0 54 0
0 49 0
0 51 0
0 50 0
0 56 0
0 55 0
0 46 0
0 60 0
0 57 0
0 55 0
0 49 0
0 61 0
0 54 0
0 60 0
0 51 0
0 48 0
0 53 0
0 48 0
0 52 0
0 54 0
0 56 0
0 54 0
0 52 0
0 47 0
0 50 0
0 49 0
0 53 0
0 53 0
0 54 0
0 51 0
0 52 0
0 69 0
0 55 0
0 46 0
0 48 0
0 49 0
0 58 0
0 61 0
0 49 0
0 51 0
0 62 0
0 56 0
0 47 0
0 51 0
0 49 0
0 44 0
0 48 0
0 50 0
0 59 0
0 54 0
0 49 0
0 52 0
0 61 0
0 50 0
0 49 0
0 55 0
0 49 0
0 46 0
0 53 0
0 72 0
0 51 0
0 51 0
0 56 0
0 61 0
0 56 0
0 48 0
0 53 0
0 59 0
0 53 0
0 32 0
0 53 0
0 53 0
0 61 0
0 68 0
0 58 0
0 56 0
0 44 0
0 50 0
0 49 0
0 58 0
0 53 0
0 57 0
0 53 0
0 67 0
0 57 0
0 50 0
0 50 0
0 54 0
0 54 0
0 52 0
0 50 0
0 46 0
0 62 0
0 46 0
0 53 0
0 44 0
0 52 0
0 58 0
0 53 0
0 56 0
0 48 0
0 38 0
0 60 0
0 50 0
0 52 0
0 54 0
0 53 0
0 42 0
0 47 0
0 54 0
0 52 0
0 61 0
0 44 0
0 48 0
0 50 0
0 46 0
0 42 0
0 41 0
0 44 0
0 38 0
0 51 0
0 48 0
0 44 0
0 46 0
0 55 0
0 46 0
0 40 0
0 41 0
0 40 0
0 53 0
0 44 0
0 50 0
0 50 0
0 41 0
0 48 0
0 46 0
0 55 0
0 49 0
0 42 0
0 48 0
0 45 0
0 42 0
0 33 0
0 52 0
0 47 0
0 52 0
0 52 0
0 50 0
0 44 0
0 42 0
0 41 0
0 41 0
0 49 0
0 48 0
0 46 0
0 24 0
0 41 0
0 44 0
0 34 0
0 49 0
0 31 0
0 39 0
0 33 0
0 37 0
0 53 0
0 34 0
0 42 0
0 45 0
0 37 0
0 43 0
0 45 0
0 45 0
0 36 0
0 39 0
0 38 0
0 43 0
0 39 0
0 39 0
0 41 0
0 35 0
0 53 0
0 53 0
0 42 0
0 48 0
0 41 0
0 37 0
0 54 0
0 47 0
0 37 0
0 39 0
0 45 0
0 47 0
0 39 0
0 38 0
0 47 0
0 36 0
0 42 0
0 42 0
0 39 0
0 37 0
0 46 0
0 41 0
0 41 0
0 43 0
0 43 0
0 56 0
0 47 0
0 49 0
0 47 0
0 46 0
0 43 0
0 39 0
0 47 0
0 36 0
0 50 0
0 42 0
0 43 0
0 48 0
0 49 0
0 47 0
0 47 0
0 39 0
0 47 0
0 57 0
0 31 0
0 60 0
0 59 0
0 45 0
0 46 0
0 45 0
0 47 0
0 46 0
0 41 0
0 59 0
0 48 0
0 47 0
0 62 0
0 48 0
0 48 0
0 45 0
0 46 0
0 48 0
0 51 0
0 50 0
0 51 0
0 55 0
0 47 0
0 52 0
0 49 0
0 50 0
0 46 0
0 40 0
0 52 0
0 44 0
0 51 0
0 48 0
0 49 0
0 56 0
0 56 0
0 62 0
0 57 0
0 46 0
0 47 0
0 57 0
0 39 0
0 55 0
0 63 0
0 59 0
0 38 0
0 44 0
0 51 0
0 49 0
0 57 0
0 48 0
0 49 0
0 50 0
0 59 0
0 55 0
0 43 0
0 40 0
0 45 0
0 56 0
0 40 0
0 42 0
0 49 0
0 45 0
0 43 0
0 48 0
0 49 0
0 49 0
0 40 0
0 40 0
0 42 0
0 51 0
0 49 0
0 43 0
0 45 0
0 46 0
0 47 0
0 36 0
0 39 0
0 48 0
0 37 0
0 53 0
0 50 0
0 50 0
0 35 0
0 36 0
0 43 0
0 51 0
0 36 0
0 42 0
0 40 0
0 46 0
0 52 0
0 46 0
0 45 0
0 48 0
0 46 0
0 53 0
0 56 0
0 49 0
0 44 0
0 44 0
0 39 0
0 44 0
0 41 0
0 38 0
0 53 0
0 49 0
0 41 0
0 36 0
0 36 0
0 48 0
0 51 0
0 42 0
0 46 0
0 32 0
0 54 0
0 52 0
0 58 0
0 36 0
0 50 0
0 46 0
0 54 0
0 42 0
0 50 0
0 52 0
0 56 0
0 42 0
0 48 0
0 46 0
0 49 0
0 57 0
0 52 0
0 38 0
0 59 0
0 54 0
0 53 0
0 53 0
0 60 0
0 56 0
0 60 0
0 65 0
0 66 0
0 58 0
0 67 0
0 60 0
0 66 0
0 62 0
0 63 0
0 63 0
0 58 0
0 59 0
0 58 0
0 53 0
0 71 0
0 56 0
0 58 0
0 59 0
0 64 0
0 67 0
0 57 0
0 55 0
0 56 0
0 65 0
0 50 0
0 62 0
0 61 0
0 68 0
0 58 0
0 55 0
0 56 0
0 60 0
0 56 0
0 60 0
0 51 0
0 54 0
0 56 0
0 58 0
0 57 0
0 70 0
0 53 0
0 54 0
0 50 0
0 61 0
0 53 0
0 54 0
0 61 0
0 45 0
0 51 0
0 54 0
0 46 0
0 49 0
0 49 0
0 59 0
0 54 0
0 55 0
0 49 0
0 52 0
0 64 0
0 58 0
0 45 0
0 55 0
0 52 0
0 56 0
0 47 0
0 57 0
0 55 0
0 56 0
0 62 0
0 55 0
0 47 0
0 50 0
0 49 0
0 55 0
0 43 0
0 51 0
0 51 0
0 49 0
0 61 0
0 50 0
0 55 0
0 51 0
0 50 0
0 52 0
0 59 0
0 44 0
0 59 0
0 56 0
0 63 0
0 52 0
0 67 0
0 49 0
0 59 0
0 51 0
0 54 0
0 55 0
0 55 0
0 53 0
0 46 0
0 56 0
0 62 0
0 58 0
0 58 0
0 53 0
0 62 0
0 52 0
0 46 0
0 50 0
0 51 0
0 59 0
0 56 0
0 59 0
0 45 0
0 55 0
0 51 0
0 64 0
0 51 0
0 53 0
0 50 0
0 52 0
0 55 0
0 49 0
0 43 0
0 61 0
0 61 0
0 42 0
0 56 0
0 54 0
0 49 0
0 49 0
0 39 0
0 57 0
0 50 0
0 60 0
0 52 0
0 55 0
0 51 0
0 59 0
0 41 0
0 52 0
0 48 0
0 53 0
0 56 0
0 60 0
0 53 0
0 44 0
0 51 0
0 54 0
0 55 0
0 55 0
0 57 0
0 44 0
0 50 0
0 50 0
0 56 0
0 49 0
0 48 0
0 56 0
0 43 0
0 53 0
0 50 0
0 58 0
0 34 0
0 43 0
0 42 0
0 50 0
0 52 0
0 52 0
0 47 0
0 42 0
0 35 0
0 58 0
0 46 0
0 46 0
0 39 0
0 48 0
0 47 0
0 49 0
0 48 0
0 41 0
0 46 0
0 48 0
0 45 0
0 49 0
0 43 0
0 52 0
0 43 0
0 43 0
0 41 0
0 46 0
0 50 0
0 40 0
0 52 0
0 55 0
0 32 0
0 31 0
0 36 0
0 39 0
0 42 0
0 42 0
0 44 0
0 41 0
0 43 0
0 36 0
0 42 0
0 39 0
0 53 0
0 35 0
0 45 0
0 32 0
0 48 0
0 43 0
0 44 0
0 48 0
0 37 0
0 42 0
0 41 0
0 46 0
0 38 0
0 36 0
0 41 0
0 47 0
0 42 0
0 44 0
0 45 0
0 44 0
0 45 0
0 42 0
0 36 0
0 46 0
0 42 0
0 43 0
0 48 0
0 47 0
0 54 0
0 46 0
0 39 0
0 43 0
0 43 0
0 49 0
0 47 0
0 49 0
0 59 0
0 48 0
0 51 0
0 41 0
0 40 0
0 56 0
0 51 0
0 54 0
0 48 0
0 58 0
0 51 0
0 52 0
0 51 0
0 45 0
0 53 0
0 44 0
0 44 0
0 47 0
0 57 0
0 49 0
0 50 0
0 44 0
0 53 0
0 43 0
0 42 0
0 51 0
0 53 0
0 55 0
0 47 0
0 48 0
0 55 0
0 61 0
0 52 0
0 44 0
0 52 0
0 61 0
0 39 0
0 47 0
0 46 0
0 54 0
0 50 0
0 49 0
0 49 0
0 55 0
0 53 0
0 52 0
0 50 0
0 56 0
0 58 0
0 40 0
0 66 0
0 49 0
0 54 0
0 58 0
0 58 0
0 43 0
0 37 0
0 47 0
0 48 0
0 50 0
0 49 0
0 57 0
0 57 0
0 60 0
0 49 0
0 50 0
0 51 0
0 59 0
0 43 0
0 43 0
0 40 0
0 36 0
0 45 0
0 57 0
0 54 0
0 44 0
0 57 0
0 54 0
0 47 0
0 54 0
0 43 0
0 38 0
0 54 0
0 52 0
0 49 0
0 41 0
0 46 0
0 50 0
0 44 0
0 41 0
0 45 0
0 52 0
0 49 0
0 44 0
0 36 0
0 41 0
0 45 0
0 51 0
0 41 0
0 42 0
0 38 0
0 40 0
0 42 0
0 47 0
0 46 0
0 56 0
0 38 0
0 47 0
0 50 0
0 53 0
0 49 0
0 54 0
0 47 0
0 50 0
0 34 0
0 56 0
0 32 0
0 43 0
0 61 0
0 51 0
0 36 0
0 52 0
0 39 0
0 47 0
0 41 0
0 49 0
0 56 0
0 44 0
0 46 0
0 51 0
0 39 0
0 48 0
0 43 0
0 58 0
0 46 0
0 43 0
0 66 0
0 53 0
0 51 0
0 56 0
0 58 0
0 52 0
0 54 0
0 49 0
0 58 0
0 63 0
0 48 0
0 57 0
0 55 0
0 49 0
0 40 0
0 57 0
0 49 0
0 58 0
0 40 0
0 49 0
0 45 0
0 60 0
0 55 0
0 53 0
0 58 0
0 58 0
0 64 0
0 61 0
0 60 0
0 69 0
0 60 0
0 63 0
0 61 0
0 63 0
0 58 0
0 63 0
0 56 0
0 63 0
0 58 0
0 61 0
0 67 0
0 69 0
0 67 0
0 65 0
0 65 0
0 52 0
0 50 0
0 71 0
0 73 0
0 64 0
0 48 0
0 54 0
0 62 0
0 54 0
0 43 0
0 64 0
0 56 0
0 57 0
0 52 0
0 52 0
0 56 0
0 52 0
0 47 0
0 59 0
0 61 0
0 63 0
0 55 0
0 46 0
0 61 0
0 55 0
0 62 0
0 59 0
0 55 0
0 55 0
0 49 0
0 54 0
0 61 0
0 53 0
0 45 0
0 59 0
0 45 0
0 65 0
0 57 0
0 67 0
0 48 0
0 48 0
0 47 0
0 54 0
0 53 0
0 51 0
0 60 0
0 48 0
0 63 0
0 47 0
0 65 0
0 50 0
0 62 0
0 45 0
0 49 0
0 46 0
0 69 0
0 60 0
0 49 0
0 52 0
0 62 0
0 51 0
0 60 0
0 52 0
0 49 0
0 54 0
0 46 0
0 57 0
0 59 0
0 56 0
0 60 0
0 60 0
0 63 0
0 51 0
0 51 0
0 54 0
0 50 0
0 52 0
0 49 0
0 55 0
0 61 0
0 48 0
0 52 0
0 59 0
0 52 0
0 58 0
0 58 0
0 56 0
0 54 0
0 54 0
0 53 0
0 50 0
0 54 0
0 56 0
0 35 0
0 58 0
0 47 0
0 53 0
0 56 0
0 61 0
0 54 0
0 62 0
0 55 0
0 59 0
0 63 0
0 50 0
0 59 0
0 46 0
0 56 0
0 57 0
0 60 0
0 59 0
0 71 0
0 61 0
0 56 0
0 48 0
0 63 0
0 58 0
0 44 0
0 52 0
0 56 0
0 66 0
0 54 0
0 51 0
0 49 0
0 57 0
0 46 0
0 53 0
0 59 0
0 52 0
0 45 0
0 48 0
0 50 0
0 41 0
0 50 0
0 44 0
0 52 0
0 42 0
0 49 0
0 48 0
0 51 0
0 52 0
0 45 0
0 49 0
0 51 0
0 50 0
0 46 0
0 44 0
0 55 0
0 35 0
0 46 0
0 55 0
0 43 0
0 47 0
0 41 0
0 52 0
0 48 0
0 39 0
0 48 0
0 47 0
0 40 0
0 50 0
0 38 0
0 39 0
0 48 0
0 40 0
0 53 0
0 42 0
0 41 0
0 49 0
0 46 0
0 54 0
0 38 0
0 42 0
0 44 0
0 44 0
0 45 0
0 46 0
0 51 0
0 40 0
0 45 0
0 39 0
0 47 0
0 41 0
0 52 0
0 41 0
0 32 0
0 45 0
0 41 0
0 35 0
0 46 0
0 51 0
0 41 0
0 45 0
0 54 0
0 41 0
0 26 0
0 37 0
0 50 0
0 47 0
0 43 0
0 46 0
0 51 0
0 40 0
0 34 0
0 50 0
0 47 0
0 46 0
0 51 0
0 42 0
0 51 0
0 40 0
0 40 0
0 43 0
0 37 0
0 51 0
0 43 0
0 45 0
0 48 0
0 43 0
0 49 0
0 49 0
0 55 0
0 46 0
0 45 0
0 43 0
0 49 0
0 41 0
0 44 0
0 36 0
0 43 0
0 50 0
0 48 0
0 41 0
0 50 0
0 54 0
0 44 0
0 48 0
0 53 0
0 48 0
0 50 0
0 52 0
0 43 0
0 58 0
0 54 0
0 63 0
0 49 0
0 50 0
0 53 0
0 58 0
0 56 0
0 47 0
0 49 0
0 50 0
0 59 0
0 51 0
0 47 0
0 49 0
0 48 0
0 41 0
0 54 0
0 59 0
0 59 0
0 59 0
0 53 0
0 53 0
0 53 0
0 60 0
0 47 0
0 62 0
0 46 0
0 61 0
0 53 0
0 51 0
0 48 0
0 57 0
0 70 0
0 53 0
0 42 0
0 51 0
0 60 0
0 50 0
0 47 0
0 58 0
0 44 0
0 43 0
0 51 0
0 54 0
0 59 0
0 49 0
0 55 0
0 59 0
0 52 0
0 56 0
0 47 0
0 53 0
0 57 0
0 52 0
0 45 0
0 52 0
0 49 0
0 43 0
0 43 0
0 51 0
0 56 0
0 55 0
0 54 0
0 55 0
0 46 0
0 47 0
0 49 0
0 53 0
0 56 0
0 48 0
0 59 0
0 46 0
0 42 0
0 52 0
0 45 0
0 59 0
0 43 0
0 52 0
0 43 0
0 47 0
0 50 0
0 44 0
0 39 0
0 37 0
0 43 0
0 44 0
0 48 0
0 50 0
0 52 0
0 51 0
0 43 0
0 50 0
0 44 0
0 44 0
0 46 0
0 41 0
0 63 0
0 47 0
0 41 0
0 46 0
0 40 0
0 42 0
0 53 0
0 55 0
0 44 0
0 50 0
0 53 0
0 43 0
0 50 0
0 44 0
0 49 0
0 46 0
0 53 0
0 52 0
0 51 0
0 45 0
0 58 0
0 43 0
0 55 0
0 53 0
0 52 0
0 44 0
0 58 0
0 49 0
0 60 0
0 46 0
0 54 0
0 58 0
0 62 0
0 46 0
0 60 0
0 58 0
0 49 0
0 50 0
0 45 0
0 56 0
0 57 0
0 62 0
0 62 0
0 57 0
0 64 0
0 64 0
0 59 0
0 65 0
0 56 0
0 52 0
0 57 0
0 71 0
0 61 0
0 55 0
0 54 0
0 57 0
0 62 0
0 55 0
0 66 0
0 65 0
0 68 0
0 56 0
0 69 0
0 56 0
0 65 0
0 62 0
0 58 0
0 74 0
0 61 0
0 63 0
0 56 0
0 58 0
0 53 0
0 53 0
0 57 0
0 61 0
0 61 0
0 53 0
0 57 0
0 54 0
0 50 0
0 62 0
0 55 0
0 51 0
0 56 0
0 61 0
0 57 0
0 56 0
0 55 0
0 54 0
0 55 0
0 45 0
0 59 0
0 59 0
0 55 0
0 63 0
0 52 0
0 59 0
0 55 0
0 59 0
0 54 0
0 65 0
0 55 0
0 46 0
0 55 0
0 50 0
0 49 0
0 64 0
0 60 0
0 66 0
0 59 0
0 44 0
0 51 0
0 60 0
0 48 0
0 42 0
0 55 0
0 54 0
0 61 0
0 58 0
0 52 0
0 59 0
0 60 0
0 49 0
0 53 0
0 55 0
0 47 0
0 56 0
0 63 0
0 48 0
0 55 0
0 46 0
0 51 0
0 53 0
0 62 0
0 62 0
0 58 0
0 68 0
0 58 0
0 61 0
0 53 0
0 58 0
0 59 0
0 56 0
0 60 0
0 54 0
0 54 0
0 50 0
0 71 0
0 60 0
0 45 0
0 56 0
0 63 0
0 56 0
0 59 0
0 46 0
0 52 0
0 56 0
0 53 0
0 52 0
0 52 0
0 65 0
0 57 0
0 54 0
0 51 0
0 50 0
0 60 0
0 56 0
0 52 0
0 48 0
0 61 0
0 40 0
0 58 0
0 44 0
0 44 0
0 58 0
0 51 0
0 49 0
0 62 0
0 56 0
0 42 0
0 48 0
0 48 0
0 53 0
0 42 0
0 48 0
0 48 0
0 46 0
0 45 0
0 38 0
0 46 0
0 52 0
0 33 0
0 66 0
0 53 0
0 58 0
0 59 0
0 36 0
0 50 0
0 54 0
0 50 0
0 39 0
0 41 0
0 41 0
0 60 0
0 52 0
0 53 0
0 41 0
0 41 0
0 60 0
0 44 0
0 47 0
0 33 0
0 55 0
0 47 0
0 39 0
0 46 0
0 56 0
0 50 0
0 43 0
0 54 0
0 44 0
0 52 0
0 41 0
0 49 0
0 49 0
0 41 0
0 45 0
0 52 0
0 41 0
0 46 0
0 53 0
0 49 0
0 50 0
0 46 0
0 38 0
0 52 0
0 44 0
0 52 0
0 44 0
0 42 0
0 48 0
0 39 0
0 38 0
0 43 0
0 39 0
0 39 0
0 52 0
0 45 0
0 48 0
0 41 0
0 38 0
0 38 0
0 45 0
0 50 0
0 51 0
0 46 0
0 43 0
0 39 0
0 53 0
0 39 0
0 57 0
0 45 0
0 46 0
0 37 0
0 48 0
0 46 0
0 52 0
0 46 0
0 44 0
0 43 0
0 48 0
0 52 0
0 42 0
0 40 0
0 57 0
0 43 0
0 42 0
0 48 0
0 56 0
0 45 0
0 53 0
0 44 0
0 45 0
0 51 0
0 43 0
0 48 0
0 51 0
0 51 0
0 43 0
0 58 0
0 52 0
0 56 0
0 38 0
0 52 0
0 42 0
0 53 0
0 53 0
0 51 0
0 58 0
0 44 0
0 48 0
0 55 0
0 61 0
0 39 0
0 54 0
0 52 0
0 43 0
0 61 0
0 56 0
0 63 0
0 43 0
0 39 0
0 39 0
0 55 0
0 48 0
0 57 0
0 55 0
0 54 0
0 51 0
0 54 0
0 51 0
0 46 0
0 55 0
0 50 0
0 49 0
0 49 0
0 59 0
0 48 0
0 63 0
0 57 0
0 53 0
0 45 0
0 45 0
0 51 0
0 56 0
0 59 0
0 52 0
0 44 0
0 51 0
0 45 0
0 55 0
0 60 0
0 44 0
0 43 0
0 58 0
0 55 0
0 64 0
0 63 0
0 52 0
0 47 0
0 61 0
0 62 0
0 58 0
0 51 0
0 52 0
0 52 0
0 63 0
0 48 0
0 44 0
0 54 0
0 45 0
0 53 0
0 56 0
0 40 0
0 53 0
0 54 0
0 36 0
0 51 0
0 60 0
0 36 0
0 56 0
0 43 0
0 63 0
0 45 0
0 48 0
0 58 0
0 63 0
0 61 0
0 46 0
0 50 0
0 42 0
0 48 0
0 45 0
0 47 0
0 49 0
0 45 0
0 42 0
0 39 0
0 43 0
0 52 0
0 48 0
0 54 0
0 36 0
0 50 0
0 48 0
0 54 0
0 50 0
0 42 0
0 40 0
0 58 0
0 36 0
0 55 0
0 45 0
0 45 0
0 48 0
0 59 0
0 42 0
0 55 0
0 47 0
0 55 0
0 47 0
0 50 0
0 54 0
0 48 0
0 47 0
0 49 0
0 54 0
0 43 0
0 49 0
0 48 0
0 57 0
0 54 0
0 54 0
0 45 0
0 56 0
0 50 0
0 41 0
0 58 0
0 60 0
0 69 0
0 59 0
0 53 0
0 54 0
0 56 0
0 50 0
0 68 0
0 53 0
0 49 0
0 57 0
0 57 0
0 54 0
0 55 0
0 65 0
0 65 0
0 71 0
0 68 0
0 64 0
0 60 0
0 64 0
0 60 0
0 61 0
0 59 0
0 62 0
0 61 0
0 56 0
0 53 0
0 72 0
0 64 0
0 54 0
0 56 0
0 64 0
0 74 0
0 61 0
0 61 0
0 48 0
0 60 0
0 51 0
0 50 0
0 64 0
0 50 0
0 71 0
0 55 0
0 63 0
0 52 0
0 56 0
0 64 0
0 57 0
0 67 0
0 54 0
0 59 0
0 60 0
0 56 0
0 60 0
0 54 0
0 53 0
0 62 0
0 54 0
0 64 0
0 62 0
0 57 0
0 49 0
0 51 0
0 61 0
0 59 0
0 58 0
0 53 0
0 49 0
0 53 0
0 64 0
0 65 0
0 65 0
0 62 0
0 52 0
0 65 0
0 59 0
0 45 0
0 62 0
0 59 0
0 65 0
0 62 0
0 63 0
0 58 0
0 66 0
0 59 0
0 54 0
0 47 0
0 57 0
0 58 0
0 64 0
0 65 0
0 55 0
0 51 0
0 64 0
0 58 0
0 50 0
0 67 0
0 46 0
0 52 0
0 54 0
0 59 0
0 62 0
0 55 0
0 58 0
0 44 0
0 53 0
0 57 0
0 52 0
0 47 0
0 66 0
0 48 0
0 54 0
0 54 0
0 57 0
0 57 0
0 44 0
0 58 0
0 55 0
0 66 0
0 55 0
0 63 0
0 56 0
0 55 0
0 55 0
0 44 0
0 51 0
0 52 0
0 59 0
0 56 0
0 53 0
0 57 0
0 59 0
0 47 0
0 64 0
0 45 0
0 51 0
0 63 0
0 60 0
0 49 0
0 60 0
0 55 0
0 55 0
0 51 0
0 53 0
0 53 0
0 51 0
0 52 0
0 52 0
0 61 0
0 58 0
0 52 0
0 48 0
0 58 0
0 51 0
0 49 0
0 51 0
0 56 0
0 50 0
0 47 0
0 55 0
0 39 0
0 67 0
0 54 0
0 48 0
0 46 0
0 49 0
0 44 0
0 45 0
0 44 0
0 47 0
0 49 0
0 38 0
0 57 0
0 49 0
0 54 0
0 44 0
0 50 0
0 43 0
0 51 0
0 48 0
0 47 0
0 48 0
0 45 0
0 49 0
0 54 0
0 47 0
0 50 0
0 45 0
0 46 0
0 48 0
0 47 0
0 51 0
0 34 0
0 45 0
0 51 0
0 44 0
0 51 0
0 56 0
0 48 0
0 49 0
0 52 0
0 47 0
0 40 0
0 44 0
0 49 0
0 39 0
0 45 0
0 47 0
0 49 0
0 47 0
0 43 0
0 49 0
0 42 0
0 49 0
0 39 0
0 49 0
0 48 0
0 52 0
0 44 0
0 46 0
0 53 0
0 50 0
0 48 0
0 59 0
0 45 0
0 42 0
0 40 0
0 53 0
0 36 0
0 43 0
0 43 0
0 43 0
0 43 0
0 42 0
0 45 0
0 52 0
0 45 0
0 34 0
0 37 0
0 48 0
0 50 0
0 45 0
0 54 0
0 47 0
0 46 0
0 46 0
0 53 0
0 48 0
0 50 0
0 48 0
0 40 0
0 43 0
0 47 0
0 50 0
0 51 0
0 47 0
0 44 0
0 48 0
0 45 0
0 49 0
0 45 0
0 48 0
0 57 0
0 42 0
0 52 0
0 45 0
0 50 0
0 48 0
0 53 0
0 53 0
0 46 0
0 49 0
0 58 0
0 52 0
0 48 0
0 53 0
0 55 0
0 65 0
0 55 0
0 53 0
0 48 0
0 51 0
0 44 0
0 56 0
0 58 0
0 56 0
0 44 0
0 43 0
0 56 0
0 54 0
0 49 0
0 51 0
0 60 0
0 59 0
0 57 0
0 47 0
0 46 0
0 59 0
0 50 0
0 45 0
0 51 0
0 48 0
0 57 0
0 50 0
0 49 0
0 56 0
0 59 0
0 54 0
0 46 0
0 43 0
0 56 0
0 55 0
0 56 0
0 47 0
0 50 0
0 47 0
0 55 0
0 45 0
0 55 0
0 48 0
0 55 0
0 59 0
0 40 0
0 55 0
0 55 0
0 62 0
0 63 0
0 61 0
0 50 0
0 37 0
0 53 0
0 47 0
0 50 0
0 46 0
0 52 0
0 51 0
0 46 0
0 46 0
0 57 0
0 57 0
0 61 0
0 51 0
0 43 0
0 53 0
0 46 0
0 48 0
0 50 0
0 52 0
0 57 0
0 56 0
0 63 0
0 48 0
0 54 0
0 51 0
0 38 0
0 46 0
0 59 0
0 54 0
0 56 0
0 45 0
0 51 0
0 54 0
0 53 0
0 44 0
0 46 0
0 43 0
0 52 0
0 47 0
0 52 0
0 46 0
0 55 0
0 42 0
0 56 0
0 38 0
0 50 0
0 49 0
0 55 0
0 54 0
0 51 0
0 42 0
0 48 0
0 41 0
0 55 0
0 54 0
0 57 0
0 42 0
0 51 0
0 55 0
0 52 0
0 53 0
0 49 0
0 48 0
0 57 0
0 41 0
0 65 0
0 63 0
0 50 0
0 58 0
0 46 0
0 44 0
0 49 0
0 64 0
0 54 0
0 57 0
0 43 0
0 49 0
0 54 0
0 52 0
0 61 0
0 52 0
0 58 0
0 58 0
0 60 0
0 64 0
0 65 0
0 65 0
0 73 0
0 69 0
0 66 0
0 84 0
0 55 0
0 66 0
0 60 0
0 68 0
0 72 0
0 64 0
0 55 0
0 61 0
0 70 0
0 63 0
0 60 0
0 58 0
0 59 0
0 59 0
0 68 0
0 62 0
0 56 0
0 60 0
0 66 0
0 64 0
0 62 0
0 62 0
0 45 0
0 61 0
0 60 0
0 51 0
0 56 0
0 54 0
0 65 0
0 57 0
0 58 0
0 58 0
0 49 0
0 61 0
0 56 0
0 50 0
0 56 0
0 52 0
0 70 0
0 57 0
0 63 0
0 67 0
0 55 0
0 54 0
0 60 0
0 53 0
0 57 0
0 59 0
0 55 0
0 54 0
0 57 0
0 63 0
0 57 0
0 59 0
0 55 0
0 60 0
0 66 0
0 46 0
0 56 0
0 63 0
0 55 0
0 53 0
0 57 0
0 59 0
0 57 0
0 56 0
0 63 0
0 51 0
0 72 0
0 54 0
0 63 0
0 56 0
0 58 0
0 50 0
0 52 0
0 51 0
0 50 0
0 52 0
0 61 0
0 55 0
0 55 0
0 58 0
0 49 0
0 52 0
0 60 0
0 48 0
0 62 0
0 50 0
0 61 0
0 51 0
0 50 0
0 56 0
0 54 0
0 59 0
0 53 0
0 61 0
0 60 0
0 62 0
0 53 0
0 57 0
0 56 0
0 63 0
0 48 0
0 55 0
0 42 0
0 61 0
0 56 0
0 63 0
0 51 0
0 55 0
0 59 0
0 53 0
0 58 0
0 53 0
0 54 0
0 67 0
0 52 0
0 57 0
0 59 0
0 55 0
0 55 0
0 51 0
0 50 0
0 57 0
0 54 0
0 49 0
0 44 0
0 60 0
0 50 0
0 53 0
0 51 0
0 50 0
0 43 0
0 52 0
0 55 0
0 58 0
0 52 0
0 58 0
0 52 0
0 59 0
0 55 0
0 54 0
0 49 0
0 49 0
0 56 0
0 47 0
0 57 0
0 50 0
0 55 0
0 41 0
0 54 0
0 54 0
0 56 0
0 66 0
0 42 0
0 59 0
0 52 0
0 55 0
0 47 0
0 44 0
0 52 0
0 50 0
0 52 0
0 48 0
0 49 0
0 48 0
0 49 0
0 43 0
0 51 0
0 47 0
0 51 0
0 49 0
0 50 0
0 43 0
0 60 0
0 52 0
0 46 0
0 63 0
0 50 0
0 41 0
0 42 0
0 52 0
0 39 0
0 53 0
0 44 0
0 47 0
0 47 0
0 45 0
0 45 0
0 47 0
0 39 0
0 47 0
0 45 0
0 45 0
0 50 0
0 47 0
0 54 0
0 54 0
0 40 0
0 45 0
0 51 0
0 49 0
0 59 0
0 44 0
0 58 0
0 62 0
0 56 0
0 48 0
0 43 0
0 42 0
0 40 0
0 47 0
0 44 0
0 55 0
0 51 0
0 55 0
0 48 0
0 48 0
0 56 0
0 57 0
0 46 0
0 51 0
0 55 0
0 50 0
0 51 0
0 48 0
0 50 0
0 46 0
0 54 0
0 51 0
0 58 0
0 45 0
0 37 0
0 37 0
0 41 0
0 44 0
0 44 0
0 52 0
0 42 0
0 54 0
0 50 0
0 47 0
0 51 0
0 50 0
0 42 0
0 55 0
0 51 0
0 63 0
0 56 0
0 56 0
0 44 0
0 45 0
0 54 0
0 62 0
0 43 0
0 42 0
0 48 0
0 57 0
0 50 0
0 59 0
0 49 0
0 42 0
0 53 0
0 46 0
0 45 0
0 59 0
0 60 0
0 53 0
0 65 0
0 55 0
0 47 0
0 52 0
0 57 0
0 56 0
0 45 0
0 54 0
0 55 0
0 59 0
0 55 0
0 59 0
0 49 0
0 48 0
0 48 0
0 50 0
0 54 0
0 56 0
0 58 0
0 55 0
0 56 0
0 63 0
0 54 0
0 56 0
0 62 0
0 60 0
0 55 0
0 55 0
0 49 0
0 55 0
0 49 0
0 54 0
0 52 0
0 55 0
0 55 0
0 56 0
0 63 0
0 53 0
0 60 0
0 50 0
0 53 0
0 52 0
0 50 0
0 46 0
0 50 0
0 52 0
0 47 0
0 54 0
0 44 0
0 57 0
0 63 0
0 47 0
0 50 0
0 59 0
0 50 0
0 54 0
0 71 0
0 57 0
0 41 0
0 51 0
0 50 0
0 52 0
0 56 0
0 38 0
0 55 0
0 52 0
0 53 0
0 57 0
0 49 0
0 56 0
0 55 0
0 47 0
0 51 0
0 51 0
0 57 0
0 49 0
0 47 0
0 50 0
0 47 0
0 46 0
0 43 0
0 51 0
0 48 0
0 49 0
0 44 0
0 56 0
0 45 0
0 56 0
0 54 0
0 58 0
0 40 0
0 44 0
0 55 0
0 49 0
0 48 0
0 63 0
0 54 0
0 54 0
0 42 0
0 51 0
0 51 0
0 58 0
0 48 0
0 58 0
0 57 0
0 51 0
0 49 0
0 58 0
0 44 0
0 48 0
0 47 0
0 62 0
0 60 0
0 50 0
0 51 0
0 59 0
0 58 0
0 53 0
0 53 0
0 58 0
0 66 0
0 56 0
0 56 0
0 56 0
0 64 0
0 69 0
0 59 0
0 70 0
0 62 0
0 55 0
0 56 0
0 60 0
0 58 0
0 55 0
0 63 0
0 66 0
0 59 0
0 63 0
0 58 0
0 62 0
0 68 0
0 70 0
0 61 0
0 55 0
0 64 0
0 62 0
0 59 0
0 56 0
0 61 0
0 64 0
0 60 0
0 55 0
0 68 0
0 59 0
0 61 0
0 57 0
0 58 0
0 55 0
0 61 0
0 46 0
0 53 0
0 67 0
0 56 0
0 47 0
0 59 0
0 52 0
0 63 0
0 65 0
0 51 0
0 48 0
0 66 0
0 66 0
0 53 0
0 64 0
0 55 0
0 47 0
0 51 0
0 59 0
0 58 0
0 61 0
0 67 0
0 52 0
0 57 0
0 54 0
0 53 0
0 60 0
0 62 0
0 58 0
0 64 0
0 58 0
0 60 0
0 65 0
0 52 0
0 54 0
0 57 0
0 55 0
0 64 0
0 56 0
0 55 0
0 62 0
0 59 0
0 60 0
0 60 0
0 57 0
0 64 0
0 58 0
0 74 0
0 55 0
0 46 0
0 54 0
0 48 0
0 61 0
0 53 0
0 54 0
0 55 0
0 45 0
0 49 0
0 46 0
0 54 0
0 51 0
0 48 0
0 63 0
0 53 0
0 46 0
0 53 0
0 71 0
0 62 0
0 55 0
0 58 0
0 61 0
0 52 0
0 62 0
0 53 0
0 58 0
0 52 0
0 65 0
0 58 0
0 48 0
0 63 0
0 51 0
0 54 0
0 61 0
0 68 0
0 49 0
0 51 0
0 56 0
0 56 0
0 63 0
0 64 0
0 58 0
0 58 0
0 47 0
0 58 0
0 65 0
0 57 0
0 44 0
0 56 0
0 54 0
0 47 0
0 61 0
0 59 0
0 52 0
0 51 0
0 56 0
0 54 0
0 49 0
0 61 0
0 52 0
0 63 0
0 52 0
0 45 0
0 55 0
0 54 0
0 57 0
0 47 0
0 52 0
0 51 0
0 54 0
0 48 0
0 57 0
0 59 0
0 46 0
0 48 0
0 59 0
0 62 0
0 50 0
0 47 0
0 58 0
0 43 0
0 48 0
0 49 0
0 39 0
0 47 0
0 51 0
0 39 0
0 49 0
0 45 0
0 44 0
0 49 0
0 47 0
0 55 0
0 50 0
0 50 0
0 60 0
0 52 0
0 53 0
0 52 0
0 42 0
0 36 0
0 37 0
0 56 0
0 37 0
0 49 0
0 42 0
0 51 0
0 46 0
0 39 0
0 54 0
0 52 0
0 53 0
0 43 0
0 54 0
0 46 0
0 55 0
0 49 0
0 50 0
0 38 0
0 45 0
0 36 0
0 46 0
0 50 0
0 53 0
0 47 0
0 53 0
0 41 0
0 35 0
0 46 0
0 39 0
0 48 0
0 43 0
0 45 0
0 44 0
0 48 0
0 51 0
0 53 0
0 50 0
0 56 0
0 52 0
0 47 0
0 52 0
0 49 0
0 51 0
0 49 0
0 52 0
0 42 0
0 41 0
0 46 0
0 39 0
0 53 0
0 42 0
0 44 0
0 64 0
0 43 0
0 51 0
0 54 0
0 55 0
0 53 0
0 54 0
0 52 0
0 51 0
0 62 0
0 55 0
0 56 0
0 55 0
0 58 0
0 47 0
0 50 0
0 40 0
0 44 0
0 51 0
0 52 0
0 59 0
0 64 0
0 56 0
0 44 0
0 58 0
0 63 0
0 54 0
0 61 0
0 51 0
0 54 0
0 52 0
0 76 0
0 54 0
0 52 0
0 49 0
0 63 0
0 55 0
0 55 0
0 47 0
0 57 0
0 50 0
0 49 0
0 53 0
0 55 0
0 50 0
0 66 0
0 63 0
0 59 0
0 52 0
0 51 0
0 52 0
0 52 0
0 58 0
0 49 0
0 62 0
0 57 0
0 64 0
0 56 0
0 62 0
0 46 0
0 48 0
0 62 0
0 55 0
0 57 0
0 60 0
0 53 0
0 56 0
0 53 0
0 39 0
0 60 0
0 75 0
0 58 0
0 56 0
0 56 0
0 64 0
0 58 0
0 50 0
0 55 0
0 56 0
0 47 0
0 55 0
0 45 0
0 50 0
0 59 0
0 61 0
0 57 0
0 60 0
0 57 0
0 50 0
0 59 0
0 60 0
0 47 0
0 50 0
0 52 0
0 55 0
0 64 0
0 52 0
0 50 0
0 59 0
0 56 0
0 44 0
0 48 0
0 54 0
0 45 0
0 56 0
0 51 0
0 60 0
0 58 0
0 54 0
0 44 0
0 58 0
0 50 0
0 59 0
0 51 0
0 58 0
0 51 0
0 51 0
0 51 0
0 53 0
0 61 0
0 63 0
0 53 0
0 49 0
0 55 0
0 58 0
0 58 0
0 60 0
0 48 0
0 49 0
0 44 0
0 52 0
0 51 0
0 63 0
0 57 0
0 61 0
0 50 0
0 60 0
0 57 0
0 55 0
0 54 0
0 45 0
0 46 0
0 59 0
0 57 0
0 61 0
0 52 0
0 54 0
0 56 0
0 51 0
0 53 0
0 56 0
0 36 0
0 47 0
0 51 0
0 58 0
0 55 0
0 63 0
0 47 0
0 46 0
0 59 0
0 37 0
0 52 0
0 61 0
0 64 0
0 60 0
0 63 0
0 52 0
0 59 0
0 67 0
0 64 0
0 64 0
0 52 0
0 64 0
0 62 0
0 65 0
0 53 0
0 71 0
0 67 0
0 60 0
0 66 0
0 64 0
0 64 0
0 66 0
0 59 0
0 61 0
0 60 0
0 53 0
0 63 0
0 63 0
0 60 0
0 62 0
0 65 0
0 59 0
0 57 0
0 64 0
0 63 0
0 58 0
0 62 0
0 67 0
0 60 0
0 55 0
0 52 0
0 46 0
0 54 0
0 63 0
0 56 0
0 53 0
0 66 0
0 57 0
0 54 0
0 62 0
0 58 0
0 63 0
0 66 0
0 61 0
0 52 0
0 57 0
0 65 0
0 65 0
0 62 0
0 61 0
0 63 0
0 63 0
0 62 0
0 50 0
0 56 0
0 60 0
0 52 0
0 64 0
0 63 0
0 62 0
0 56 0
0 54 0
0 69 0
0 59 0
0 60 0
0 63 0
0 56 0
0 51 0
0 58 0
0 57 0
0 52 0
0 55 0
0 59 0
0 61 0
0 59 0
0 57 0
0 57 0
0 69 0
0 61 0
0 63 0
0 63 0
0 65 0
0 76 0
0 60 0
0 65 0
0 60 0
0 54 0
0 54 0
0 63 0
0 54 0
0 60 0
0 61 0
0 56 0
0 53 0
0 56 0
0 65 0
0 53 0
0 56 0
0 53 0
0 67 0
0 59 0
0 47 0
0 58 0
0 70 0
0 52 0
0 58 0
0 64 0
0 46 0
0 54 0
0 52 0
0 55 0
0 56 0
0 63 0
0 51 0
0 55 0
0 67 0
0 52 0
0 62 0
0 52 0
0 56 0
0 55 0
0 70 0
0 55 0
0 55 0
0 51 0
0 67 0
0 62 0
0 58 0
0 56 0
0 52 0
0 50 0
0 55 0
0 51 0
0 55 0
0 53 0
0 57 0
0 54 0
0 50 0
0 47 0
0 54 0
0 58 0
0 58 0
0 52 0
0 57 0
0 45 0
0 50 0
0 52 0
0 54 0
0 51 0
0 50 0
0 53 0
0 45 0
0 47 0
0 56 0
0 50 0
0 43 0
0 46 0
0 51 0
0 56 0
0 51 0
0 42 0
0 50 0
0 45 0
0 47 0
0 52 0
0 56 0
0 44 0
0 45 0
0 53 0
0 49 0
0 51 0
0 39 0
0 54 0
0 42 0
0 52 0
0 42 0
0 49 0
0 50 0
0 48 0
0 54 0
0 50 0
0 49 0
0 60 0
0 50 0
0 55 0
0 42 0
0 44 0
0 42 0
0 55 0
0 60 0
0 51 0
0 55 0
0 53 0
0 60 0
0 48 0
0 50 0
0 53 0
0 54 0
0 51 0
0 56 0
0 48 0
0 46 0
0 49 0
0 48 0
0 47 0
0 55 0
0 48 0
0 54 0
0 59 0
0 46 0
0 40 0
0 37 0
0 51 0
0 41 0
0 44 0
0 47 0
0 43 0
0 51 0
0 41 0
0 49 0
0 59 0
0 54 0
0 46 0
0 51 0
0 50 0
0 55 0
0 42 0
0 54 0
0 44 0
0 59 0
0 58 0
0 49 0
0 40 0
0 44 0
0 54 0
0 45 0
0 56 0
0 53 0
0 52 0
0 56 0
0 57 0
0 50 0
0 55 0
0 47 0
0 49 0
0 56 0
0 44 0
0 56 0
0 54 0
0 52 0
0 64 0
0 48 0
0 46 0
0 51 0
0 52 0
0 55 0
0 60 0
0 60 0
0 57 0
0 58 0
0 50 0
0 42 0
0 63 0
0 56 0
0 63 0
0 60 0
0 52 0
0 57 0
0 46 0
0 52 0
0 67 0
0 51 0
0 56 0
0 54 0
0 62 0
0 46 0
0 51 0
0 53 0
0 49 0
0 56 0
0 53 0
0 62 0
0 46 0
0 46 0
0 48 0
0 47 0
0 53 0
0 51 0
0 60 0
0 61 0
0 55 0
0 43 0
0 58 0
0 51 0
0 59 0
0 53 0
0 60 0
0 59 0
0 58 0
0 65 0
0 62 0
0 64 0
0 54 0
0 51 0
0 57 0
0 56 0
0 57 0
0 66 0
0 56 0
0 53 0
0 49 0
0 55 0
0 59 0
0 60 0
0 51 0
0 53 0
0 62 0
0 60 0
0 52 0
0 54 0
0 63 0
0 49 0
0 57 0
0 42 0
0 60 0
0 48 0
0 50 0
0 64 0
0 56 0
0 57 0
0 46 0
0 59 0
0 62 0
0 54 0
0 51 0
0 53 0
0 47 0
0 55 0
0 60 0
0 61 0
0 49 0
0 48 0
0 54 0
0 55 0
0 55 0
0 59 0
0 59 0
0 56 0
0 39 0
0 54 0
0 59 0
0 59 0
0 52 0
0 43 0
0 55 0
0 51 0
0 52 0
0 59 0
0 49 0
0 51 0
0 57 0
0 50 0
0 56 0
0 57 0
0 67 0
0 53 0
0 43 0
0 50 0
0 43 0
0 52 0
0 52 0
0 47 0
0 53 0
0 47 0
0 49 0
0 52 0
0 66 0
0 57 0
0 58 0
0 48 0
0 49 0
0 53 0
0 58 0
0 49 0
0 64 0
0 52 0
0 50 0
0 60 0
0 55 0
0 57 0
0 59 0
0 61 0
0 60 0
0 66 0
0 66 0
0 69 0
0 62 0
0 52 0
0 63 0
0 59 0
0 51 0
0 62 0
0 61 0
0 53 0
0 64 0
0 61 0
0 64 0
0 62 0
0 66 0
0 56 0
0 64 0
0 69 0
0 63 0
0 58 0
0 51 0
0 58 0
0 53 0
0 54 0
0 53 0
0 53 0
0 61 0
0 57 0
0 58 0
0 63 0
0 62 0
0 61 0
0 61 0
0 58 0
0 69 0
0 58 0
0 56 0
0 70 0
0 57 0
0 60 0
0 54 0
0 60 0
0 66 0
0 49 0
0 51 0
0 56 0
0 60 0
0 60 0
0 64 0
0 62 0
0 51 0
0 61 0
0 58 0
0 60 0
0 51 0
0 49 0
0 56 0
0 57 0
0 51 0
0 58 0
0 50 0
0 62 0
0 60 0
0 53 0
0 58 0
0 63 0
0 64 0
0 55 0
0 53 0
0 55 0
0 60 0
0 67 0
0 60 0
0 53 0
0 57 0
0 58 0
0 69 0
0 53 0
0 62 0
0 65 0
0 53 0
0 59 0
0 58 0
0 55 0
0 54 0
0 57 0
0 64 0
0 58 0
0 60 0
0 56 0
0 59 0
0 49 0
0 56 0
0 56 0
0 67 0
0 60 0
0 51 0
0 59 0
0 56 0
0 50 0
0 62 0
0 54 0
0 67 0
0 56 0
0 62 0
0 51 0
0 57 0
0 59 0
0 61 0
0 52 0
0 56 0
0 55 0
0 63 0
0 57 0
0 50 0
0 58 0
0 63 0
0 59 0
0 61 0
0 54 0
0 59 0
0 58 0
0 60 0
0 57 0
0 58 0
0 57 0
0 56 0
0 54 0
0 48 0
0 56 0
0 50 0
0 49 0
0 56 0
0 63 0
0 49 0
0 52 0
0 54 0
0 50 0
0 70 0
0 63 0
0 64 0
0 59 0
0 59 0
0 52 0
0 50 0
0 64 0
0 57 0
0 54 0
0 56 0
0 50 0
0 56 0
0 50 0
0 50 0
0 38 0
0 56 0
0 61 0
0 51 0
0 55 0
0 41 0
0 55 0
0 58 0
0 54 0
0 62 0
0 50 0
0 50 0
0 42 0
0 61 0
0 46 0
0 54 0
0 44 0
0 42 0
0 47 0
0 55 0
0 50 0
0 49 0
0 44 0
0 60 0
0 60 0
0 50 0
0 52 0
0 43 0
0 49 0
0 51 0
0 46 0
0 39 0
0 40 0
0 58 0
0 51 0
0 48 0
0 48 0
0 49 0
0 49 0
0 51 0
0 46 0
0 52 0
0 49 0
0 43 0
0 46 0
0 54 0
0 47 0
0 47 0
0 54 0
0 55 0
0 40 0
0 44 0
0 53 0
0 51 0
0 43 0
0 47 0
0 59 0
0 47 0
0 60 0
0 52 0
0 49 0
0 61 0
0 57 0
0 53 0
0 46 0
0 42 0
0 52 0
0 49 0
0 48 0
0 43 0
0 56 0
0 42 0
0 47 0
0 41 0
0 56 0
0 44 0
0 50 0
0 54 0
0 51 0
0 53 0
0 57 0
0 58 0
0 54 0
0 46 0
0 36 0
0 43 0
0 48 0
0 56 0
0 42 0
0 50 0
0 44 0
0 56 0
0 63 0
0 56 0
0 57 0
0 53 0
0 45 0
0 41 0
0 54 0
0 46 0
0 55 0
0 58 0
0 50 0
0 60 0
0 51 0
0 56 0
0 49 0
0 43 0
0 54 0
0 47 0
0 65 0
0 50 0
0 57 0
0 46 0
0 52 0
0 50 0
0 56 0
0 48 0
0 66 0
0 61 0
0 62 0
0 38 0
0 45 0
0 47 0
0 54 0
0 48 0
0 59 0
0 58 0
0 47 0
0 58 0
0 56 0
0 45 0
0 49 0
0 53 0
0 55 0
0 57 0
0 54 0
0 58 0
0 47 0
0 54 0
0 66 0
0 56 0
0 48 0
0 47 0
0 44 0
0 55 0
0 40 0
0 59 0
0 47 0
0 52 0
0 46 0
0 57 0
0 58 0
0 49 0
0 56 0
0 55 0
0 55 0
0 53 0
0 46 0
0 57 0
0 45 0
0 50 0
0 55 0
0 63 0
0 58 0
0 57 0
0 59 0
0 55 0
0 59 0
0 63 0
0 45 0
0 57 0
0 53 0
0 54 0
0 55 0
0 62 0
0 46 0
0 60 0
0 59 0
0 62 0
0 53 0
0 51 0
0 65 0
0 48 0
0 58 0
0 55 0
0 46 0
0 60 0
0 51 0
0 49 0
0 57 0
0 55 0
0 61 0
0 65 0
0 46 0
0 56 0
0 56 0
0 53 0
0 58 0
0 44 0
0 51 0
0 50 0
0 56 0
0 55 0
0 54 0
0 51 0
0 72 0
0 55 0
0 65 0
0 56 0
0 64 0
0 49 0
0 55 0
0 57 0
0 48 0
0 55 0
0 48 0
0 46 0
0 58 0
0 62 0
0 60 0
0 48 0
0 60 0
0 65 0
0 59 0
0 63 0
0 55 0
0 47 0
0 58 0
0 59 0
0 55 0
0 43 0
0 54 0
0 65 0
0 50 0
0 45 0
0 52 0
0 54 0
0 57 0
0 54 0
0 56 0
0 50 0
0 61 0
0 51 0
0 53 0
0 68 0
0 66 0
0 59 0
0 70 0
0 64 0
0 59 0
0 64 0
0 60 0
0 62 0
0 61 0
0 74 0
0 61 0
0 64 0
0 60 0
0 58 0
0 62 0
0 68 0
0 59 0
0 64 0
0 63 0
0 61 0
0 55 0
0 63 0
0 60 0
0 65 0
0 60 0
0 64 0
0 73 0
0 74 0
0 61 0
0 58 0
0 66 0
0 51 0
0 65 0
0 55 0
0 66 0
0 61 0
0 63 0
0 61 0
0 65 0
0 65 0
0 76 0
0 64 0
0 65 0
0 71 0
0 63 0
0 55 0
0 65 0
0 56 0
0 65 0
0 72 0
0 60 0
0 56 0
0 59 0
0 55 0
0 62 0
0 49 0
0 63 0
0 66 0
0 59 0
0 62 0
0 55 0
0 66 0
0 61 0
0 49 0
0 58 0
0 68 0
0 60 0
0 62 0
0 69 0
0 65 0
0 60 0
0 71 0
0 64 0
0 56 0
0 55 0
0 50 0
0 60 0
0 65 0
0 52 0
0 61 0
0 66 0
0 64 0
0 52 0
0 61 0
0 57 0
0 60 0
0 64 0
0 63 0
0 61 0
0 67 0
0 61 0
0 62 0
0 63 0
0 54 0
0 58 0
0 55 0
0 62 0
0 48 0
0 58 0
0 61 0
0 64 0
0 52 0
0 60 0
0 53 0
0 59 0
0 51 0
0 57 0
0 54 0
0 58 0
0 55 0
0 61 0
0 59 0
0 54 0
0 57 0
0 56 0
0 62 0
0 56 0
0 48 0
0 51 0
0 57 0
0 57 0
0 62 0
0 58 0
0 59 0
0 62 0
0 55 0
0 50 0
0 52 0
0 47 0
0 58 0
0 51 0
0 46 0
0 72 0
0 51 0
0 66 0
0 55 0
0 57 0
0 60 0
0 51 0
0 62 0
0 54 0
0 54 0
0 53 0
0 57 0
0 51 0
0 49 0
0 57 0
0 52 0
0 55 0
0 53 0
0 52 0
0 56 0
0 46 0
0 58 0
0 53 0
0 52 0
0 43 0
0 45 0
0 51 0
0 42 0
0 56 0
0 57 0
0 48 0
0 46 0
0 65 0
0 56 0
0 54 0
0 54 0
0 59 0
0 53 0
0 55 0
0 40 0
0 44 0
0 57 0
0 52 0
0 40 0
0 59 0
0 56 0
0 48 0
0 46 0
0 54 0
0 50 0
0 55 0
0 53 0
0 59 0
0 53 0
0 51 0
0 48 0
0 47 0
0 57 0
0 51 0
0 57 0
0 48 0
0 54 0
0 54 0
0 44 0
0 46 0
0 55 0
0 43 0
0 42 0
0 55 0
0 45 0
0 51 0
0 48 0
0 44 0
0 49 0
0 49 0
0 58 0
0 47 0
0 56 0
0 42 0
0 42 0
0 49 0
0 43 0
0 48 0
0 56 0
0 46 0
0 49 0
0 47 0
0 55 0
0 53 0
0 45 0
0 50 0
0 50 0
0 42 0
0 42 0
0 56 0
0 55 0
0 57 0
0 47 0
0 41 0
0 60 0
0 54 0
0 49 0
0 46 0
0 60 0
0 53 0
0 52 0
0 47 0
0 52 0
0 48 0
0 53 0
0 60 0
0 49 0
0 62 0
0 55 0
0 43 0
0 52 0
0 51 0
0 46 0
0 55 0
0 53 0
0 54 0
0 56 0
0 47 0
0 47 0
0 55 0
0 61 0
0 50 0
0 61 0
0 48 0
0 50 0
0 61 0
0 55 0
0 52 0
0 55 0
0 57 0
0 50 0
0 58 0
0 61 0
0 58 0
0 60 0
0 51 0
0 52 0
0 55 0
0 49 0
0 67 0
0 53 0
0 54 0
0 48 0
0 58 0
0 57 0
0 59 0
0 57 0
0 51 0
0 57 0
0 62 0
0 64 0
0 57 0
0 44 0
0 54 0
0 46 0
0 56 0
0 52 0
0 59 0
0 50 0
0 52 0
0 48 0
0 61 0
0 60 0
0 63 0
0 53 0
0 60 0
0 58 0
0 56 0
0 58 0
0 54 0
0 55 0
0 53 0
0 61 0
0 62 0
0 51 0
0 54 0
0 62 0
0 45 0
0 49 0
0 55 0
0 58 0
0 53 0
0 54 0
0 62 0
0 56 0
0 62 0
0 58 0
0 53 0
0 61 0
0 52 0
0 57 0
0 69 0
0 56 0
0 48 0
0 47 0
0 65 0
0 58 0
0 58 0
0 65 0
0 48 0
0 57 0
0 60 0
0 50 0
0 55 0
0 46 0
0 52 0
0 50 0
0 59 0
0 50 0
0 62 0
0 56 0
0 54 0
0 64 0
0 53 0
0 54 0
0 60 0
0 59 0
0 50 0
0 67 0
0 50 0
0 64 0
0 55 0
0 51 0
0 58 0
0 51 0
0 61 0
0 48 0
0 53 0
0 57 0
0 57 0
0 56 0
0 55 0
0 63 0
0 62 0
0 57 0
0 44 0
0 53 0
0 56 0
0 56 0
0 53 0
0 49 0
0 55 0
0 56 0
0 63 0
0 57 0
0 52 0
0 47 0
0 57 0
0 67 0
0 58 0
0 54 0
0 64 0
0 50 0
0 61 0
0 69 0
0 52 0
0 61 0
0 54 0
0 58 0
0 66 0
0 47 0
0 52 0
0 59 0
0 72 0
0 77 0
0 64 0
0 64 0
0 63 0
0 67 0
0 71 0
0 60 0
0 76 0
0 51 0
0 58 0
0 68 0
0 62 0
0 63 0
0 72 0
0 65 0
0 64 0
0 63 0
0 54 0
0 62 0
0 68 0
0 57 0
0 61 0
0 56 0
0 58 0
0 58 0
0 53 0
0 49 0
0 62 0
0 57 0
0 61 0
0 63 0
0 52 0
0 65 0
0 59 0
0 57 0
0 63 0
0 57 0
0 61 0
0 66 0
0 58 0
0 49 0
0 62 0
0 62 0
0 62 0
0 58 0
0 46 0
0 69 0
0 61 0
0 58 0
0 60 0
0 58 0
0 71 0
0 60 0
0 63 0
0 71 0
0 61 0
0 56 0
0 57 0
0 48 0
0 54 0
0 63 0
0 45 0
0 64 0
0 56 0
0 54 0
0 63 0
0 57 0
0 59 0
0 64 0
0 53 0
0 53 0
0 54 0
0 57 0
0 64 0
0 54 0
0 64 0
0 54 0
0 57 0
0 54 0
0 67 0
0 48 0
0 64 0
0 50 0
0 59 0
0 56 0
0 58 0
0 60 0
0 64 0
0 62 0
0 58 0
0 57 0
0 55 0
0 62 0
0 63 0
0 64 0
0 56 0
0 56 0
0 65 0
0 59 0
0 54 0
0 51 0
0 63 0
0 59 0
0 56 0
0 57 0
0 70 0
0 65 0
0 49 0
0 72 0
0 61 0
0 57 0
0 60 0
0 60 0
0 47 0
0 54 0
0 64 0
0 64 0
0 61 0
0 61 0
0 66 0
0 57 0
0 46 0
0 56 0
0 62 0
0 59 0
0 55 0
0 58 0
0 57 0
0 45 0
0 71 0
0 51 0
0 56 0
0 45 0
0 55 0
0 63 0
0 49 0
0 60 0
0 61 0
0 59 0
0 59 0
0 57 0
0 48 0
0 56 0
0 39 0
0 65 0
0 43 0
0 46 0
0 54 0
0 58 0
0 53 0
0 57 0
0 53 0
0 54 0
0 54 0
0 55 0
0 48 0
0 55 0
0 55 0
0 52 0
0 60 0
0 56 0
0 49 0
0 49 0
0 47 0
0 45 0
0 51 0
0 48 0
0 58 0
0 61 0
0 48 0
0 59 0
0 58 0
0 53 0
0 49 0
0 44 0
0 55 0
0 57 0
0 56 0
0 44 0
0 53 0
0 49 0
0 48 0
0 54 0
0 57 0
0 49 0
0 58 0
0 56 0
0 55 0
0 58 0
0 51 0
0 48 0
0 45 0
0 45 0
0 48 0
0 53 0
0 51 0
0 59 0
0 45 0
0 49 0
0 52 0
0 49 0
0 54 0
0 58 0
0 52 0
0 45 0
0 48 0
0 54 0
0 48 0
0 57 0
0 49 0
0 54 0
0 58 0
0 52 0
0 59 0
0 51 0
0 50 0
0 65 0
0 47 0
0 57 0
0 51 0
0 52 0
0 52 0
0 49 0
0 53 0
0 58 0
0 58 0
0 54 0
0 58 0
0 67 0
0 52 0
0 50 0
0 56 0
0 47 0
0 49 0
0 53 0
0 51 0
0 57 0
0 52 0
0 64 0
0 55 0
0 55 0
0 46 0
0 55 0
0 58 0
0 53 0
0 49 0
0 52 0
0 50 0
0 50 0
0 59 0
0 61 0
0 55 0
0 62 0
0 49 0
0 53 0
0 39 0
0 47 0
0 48 0
0 45 0
0 48 0
0 59 0
0 60 0
0 61 0
0 54 0
0 63 0
0 67 0
0 55 0
0 51 0
0 64 0
0 60 0
0 54 0
0 56 0
0 51 0
0 59 0
0 49 0
0 45 0
0 61 0
0 63 0
0 61 0
0 51 0
0 56 0
0 51 0
0 54 0
0 59 0
0 53 0
0 52 0
0 53 0
0 55 0
0 56 0
0 53 0
0 44 0
0 54 0
0 54 0
0 47 0
0 50 0
0 65 0
0 64 0
0 62 0
0 52 0
0 56 0
0 61 0
0 54 0
0 58 0
0 60 0
0 47 0
0 60 0
0 55 0
0 57 0
0 61 0
0 47 0
0 57 0
0 61 0
0 54 0
0 58 0
0 58 0
0 52 0
0 56 0
0 59 0
0 59 0
0 56 0
0 57 0
0 56 0
0 64 0
0 52 0
0 56 0
0 67 0
0 58 0
0 48 0
0 49 0
0 58 0
0 52 0
0 70 0
0 54 0
0 64 0
0 65 0
0 47 0
0 41 0
0 54 0
0 60 0
0 52 0
0 51 0
0 59 0
0 54 0
0 45 0
0 62 0
0 61 0
0 55 0
0 58 0
0 56 0
0 55 0
0 44 0
0 53 0
0 51 0
0 61 0
0 52 0
0 54 0
0 62 0
0 57 0
0 48 0
0 70 0
0 60 0
0 59 0
0 49 0
0 63 0
0 51 0
0 62 0
0 49 0
0 54 0
0 59 0
0 58 0
0 54 0
0 53 0
0 47 0
0 57 0
0 55 0
0 56 0
0 57 0
0 59 0
0 42 0
0 62 0
0 57 0
0 64 0
0 54 0
0 48 0
0 58 0
0 51 0
0 57 0
0 61 0
0 49 0
0 52 0
0 61 0
0 60 0
0 44 0
0 49 0
0 53 0
0 49 0
0 62 0
0 48 0
0 66 0
0 57 0
0 61 0
0 53 0
0 65 0
0 62 0
0 53 0
0 55 0
0 64 0
0 58 0
0 63 0
0 53 0
0 61 0
0 72 0
0 62 0
0 63 0
0 73 0
0 64 0
0 58 0
0 70 0
0 59 0
0 67 0
0 56 0
0 64 0
0 54 0
0 59 0
0 51 0
0 58 0
0 57 0
0 54 0
0 61 0
0 64 0
0 65 0
0 55 0
0 57 0
0 70 0
0 72 0
0 59 0
0 66 0
0 68 0
0 58 0
0 60 0
0 69 0
0 65 0
0 60 0
0 49 0
0 62 0
0 57 0
0 64 0
0 57 0
0 54 0
0 57 0
0 68 0
0 57 0
0 52 0
0 64 0
0 58 0
0 48 0
0 54 0
0 59 0
0 65 0
0 57 0
0 48 0
0 61 0
0 62 0
0 60 0
0 50 0
0 58 0
0 56 0
0 54 0
0 58 0
0 63 0
0 67 0
0 61 0
0 55 0
0 68 0
0 65 0
0 62 0
0 58 0
0 69 0
0 56 0
0 61 0
0 64 0
0 57 0
0 49 0
0 54 0
0 63 0
0 54 0
0 52 0
0 59 0
0 62 0
0 70 0
0 63 0
0 66 0
0 57 0
0 63 0
0 62 0
0 56 0
0 62 0
0 63 0
0 69 0
0 51 0
0 70 0
0 53 0
0 52 0
0 65 0
0 55 0
0 50 0
0 50 0
0 51 0
0 59 0
0 62 0
0 59 0
0 58 0
0 63 0
0 57 0
0 54 0
0 63 0
0 55 0
0 64 0
0 58 0
0 63 0
0 61 0
0 60 0
0 61 0
0 60 0
0 63 0
0 48 0
0 63 0
0 58 0
0 49 0
0 64 0
0 61 0
0 46 0
0 52 0
0 51 0
0 60 0
0 49 0
0 64 0
0 49 0
0 58 0
0 58 0
0 57 0
0 59 0
0 58 0
0 62 0
0 56 0
0 48 0
0 58 0
0 61 0
0 55 0
0 51 0
0 58 0
0 57 0
0 55 0
0 54 0
0 57 0
0 47 0
0 60 0
0 64 0
0 55 0
0 53 0
0 50 0
0 47 0
0 63 0
0 51 0
0 61 0
0 48 0
0 47 0
0 49 0
0 45 0
0 63 0
0 52 0
0 48 0
0 55 0
0 56 0
0 56 0
0 51 0
0 62 0
0 49 0
0 46 0
0 41 0
0 48 0
0 54 0
0 50 0
0 53 0
0 49 0
0 45 0
0 49 0
0 48 0
0 54 0
0 51 0
0 55 0
0 50 0
0 51 0
0 47 0
0 57 0
0 46 0
0 52 0
0 55 0
0 53 0
0 50 0
0 46 0
0 59 0
0 48 0
0 38 0
0 44 0
0 53 0
0 51 0
0 37 0
0 56 0
0 55 0
0 53 0
0 46 0
0 51 0
0 52 0
0 57 0
0 44 0
0 43 0
0 52 0
0 54 0
0 62 0
0 42 0
0 59 0
0 49 0
0 45 0
0 45 0
0 53 0
0 45 0
0 46 0
0 55 0
0 59 0
0 53 0
0 54 0
0 48 0
0 63 0
0 59 0
0 50 0
0 57 0
0 48 0
0 65 0
0 54 0
0 56 0
0 55 0
0 51 0
0 56 0
0 54 0
0 59 0
0 57 0
0 47 0
0 53 0
0 59 0
0 50 0
0 54 0
0 45 0
0 51 0
0 52 0
0 56 0
0 56 0
0 51 0
0 62 0
0 63 0
0 48 0
0 59 0
0 58 0
0 54 0
0 51 0
0 42 0
0 52 0
0 52 0
0 51 0
0 55 0
0 62 0
0 53 0
0 51 0
0 57 0
0 68 0
0 58 0
0 59 0
0 52 0
0 44 0
0 50 0
0 55 0
0 63 0
0 53 0
0 65 0
0 59 0
0 59 0
0 57 0
0 62 0
0 52 0
0 64 0
0 46 0
0 44 0
0 62 0
0 64 0
0 50 0
0 54 0
0 57 0
0 53 0
0 49 0
0 50 0
0 62 0
0 68 0
0 52 0
0 56 0
0 60 0
0 64 0
0 53 0
0 54 0
0 56 0
0 56 0
0 62 0
0 58 0
0 56 0
0 52 0
0 61 0
0 60 0
0 53 0
0 63 0
0 49 0
0 64 0
0 64 0
0 65 0
0 53 0
0 59 0
0 49 0
0 44 0
0 56 0
0 56 0
0 56 0
0 52 0
0 58 0
0 60 0
0 77 0
0 61 0
0 63 0
0 49 0
0 62 0
0 56 0
0 57 0
0 63 0
0 57 0
0 61 0
0 69 0
0 61 0
0 58 0
0 48 0
0 55 0
0 55 0
0 54 0
0 64 0
0 52 0
0 51 0
0 65 0
0 53 0
0 56 0
0 51 0
0 56 0
0 51 0
0 57 0
0 56 0
0 65 0
0 57 0
0 48 0
0 60 0
0 50 0
0 41 0
0 56 0
0 56 0
0 62 0
0 58 0
0 63 0
0 64 0
0 59 0
0 61 0
0 51 0
0 47 0
0 62 0
0 52 0
0 47 0
0 65 0
0 57 0
0 63 0
0 53 0
0 58 0
0 44 0
0 61 0
0 58 0
0 64 0
0 62 0
0 60 0
0 60 0
0 68 0
0 63 0
0 65 0
0 57 0
0 65 0
0 57 0
0 60 0
0 52 0
0 66 0
0 76 0
0 55 0
0 63 0
0 54 0
0 52 0
0 61 0
0 69 0
0 66 0
0 68 0
0 66 0
0 64 0
0 59 0
0 74 0
0 66 0
0 68 0
0 64 0
0 64 0
0 66 0
0 58 0
0 64 0
0 49 0
0 64 0
0 56 0
0 56 0
0 63 0
0 65 0
0 56 0
0 61 0
0 68 0
0 70 0
0 58 0
0 60 0
0 58 0
0 64 0
0 66 0
0 60 0
0 69 0
0 58 0
0 64 0
0 60 0
0 56 0
0 76 0
0 72 0
0 63 0
0 57 0
0 62 0
0 53 0
0 63 0
0 61 0
0 61 0
0 67 0
0 55 0
0 58 0
0 58 0
0 69 0
0 68 0
0 67 0
0 78 0
0 52 0
0 68 0
0 63 0
0 64 0
0 69 0
0 66 0
0 71 0
0 61 0
0 62 0
0 66 0
0 63 0
0 64 0
0 58 0
0 64 0
0 61 0
0 61 0
0 55 0
0 65 0
0 63 0
0 61 0
0 67 0
0 58 0
0 66 0
0 67 0
0 51 0
0 53 0
0 51 0
0 63 0
0 57 0
0 62 0
0 54 0
0 63 0
0 57 0
0 60 0
0 54 0
0 62 0
0 58 0
0 58 0
0 71 0
0 57 0
0 63 0
0 57 0
0 61 0
0 55 0
0 62 0
0 61 0
0 51 0
0 58 0
0 54 0
0 52 0
0 49 0
0 56 0
0 64 0
0 60 0
0 64 0
0 48 0
0 57 0
0 68 0
0 64 0
0 61 0
0 56 0
0 63 0
0 68 0
0 65 0
0 54 0
0 71 0
0 55 0
0 48 0
0 69 0
0 60 0
0 56 0
0 61 0
0 56 0
0 63 0
0 54 0
0 57 0
0 58 0
0 58 0
0 51 0
0 64 0
0 61 0
0 54 0
0 46 0
0 60 0
0 69 0
0 58 0
0 47 0
0 60 0
0 65 0
0 51 0
0 57 0
0 56 0
0 59 0
0 51 0
0 56 0
0 60 0
0 50 0
0 51 0
0 56 0
0 54 0
0 52 0
0 59 0
0 54 0
0 60 0
0 56 0
0 54 0
0 53 0
0 45 0
0 47 0
0 44 0
0 60 0
0 50 0
0 58 0
0 42 0
0 51 0
0 59 0
0 47 0
0 55 0
0 53 0
0 56 0
0 48 0
0 59 0
0 59 0
0 51 0
0 50 0
0 52 0
0 49 0
0 53 0
0 66 0
0 52 0
0 45 0
0 55 0
0 56 0
0 50 0
0 48 0
0 52 0
0 42 0
0 47 0
0 48 0
0 53 0
0 47 0
0 56 0
0 60 0
0 55 0
0 48 0
0 63 0
0 46 0
0 57 0
0 67 0
0 57 0
0 51 0
0 40 0
0 58 0
0 44 0
0 56 0
0 59 0
0 54 0
0 53 0
0 51 0
0 53 0
0 44 0
0 46 0
0 61 0
0 49 0
0 54 0
0 45 0
0 51 0
0 50 0
0 55 0
0 54 0
0 55 0
0 53 0
0 45 0
0 53 0
0 46 0
0 51 0
0 53 0
0 52 0
0 53 0
0 55 0
0 51 0
0 59 0
0 59 0
0 55 0
0 57 0
0 47 0
0 58 0
0 63 0
0 44 0
0 57 0
0 51 0
0 61 0
0 47 0
0 59 0
0 62 0
0 42 0
0 43 0
0 53 0
0 61 0
0 61 0
0 58 0
0 52 0
0 64 0
0 52 0
0 53 0
0 74 0
0 45 0
0 55 0
0 58 0
0 52 0
0 60 0
0 61 0
0 40 0
0 60 0
0 48 0
0 54 0
0 62 0
0 51 0
0 55 0
0 55 0
0 55 0
0 66 0
0 52 0
0 56 0
0 66 0
0 71 0
0 62 0
0 49 0
0 64 0
0 46 0
0 64 0
0 58 0
0 60 0
0 56 0
0 57 0
0 59 0
0 52 0
0 49 0
0 60 0
0 51 0
0 43 0
0 60 0
0 64 0
0 53 0
0 64 0
0 54 0
0 53 0
0 57 0
0 55 0
0 68 0
0 44 0
0 59 0
0 69 0
0 53 0
0 62 0
0 62 0
0 58 0
0 51 0
0 47 0
0 57 0
0 58 0
0 58 0
0 50 0
0 51 0
0 60 0
0 56 0
0 58 0
0 56 0
0 50 0
0 54 0
0 68 0
0 68 0
0 63 0
0 57 0
0 55 0
0 56 0
0 54 0
0 56 0
0 53 0
0 57 0
0 59 0
0 56 0
0 63 0
0 51 0
0 57 0
0 58 0
0 54 0
0 59 0
0 47 0
0 59 0
0 58 0
0 60 0
0 45 0
0 63 0
0 53 0
0 50 0
0 57 0
0 57 0
0 51 0
0 64 0
0 64 0
0 55 0
0 53 0
0 58 0
0 57 0
0 62 0
0 62 0
0 49 0
0 68 0
0 56 0
0 61 0
0 59 0
0 62 0
0 51 0
0 53 0
0 52 0
0 54 0
0 63 0
0 60 0
0 62 0
0 59 0
0 55 0
0 62 0
0 53 0
0 56 0
0 64 0
0 57 0
0 63 0
0 66 0
0 60 0
0 50 0
0 58 0
0 57 0
0 58 0
0 59 0
0 54 0
0 59 0
0 55 0
0 53 0
0 59 0
0 65 0
0 68 0
0 61 0
0 70 0
0 66 0
0 74 0
0 63 0
0 69 0
0 60 0
0 64 0
0 68 0
0 67 0
0 55 0
0 68 0
0 70 0
0 67 0
0 63 0
0 60 0
0 63 0
0 65 0
0 59 0
0 62 0
0 77 0
0 66 0
0 70 0
0 56 0
0 70 0
0 59 0
0 59 0
0 59 0
0 54 0
0 66 0
0 65 0
0 74 0
0 64 0
0 60 0
0 68 0
0 63 0
0 61 0
0 55 0
0 64 0
0 66 0
0 51 0
0 67 0
0 62 0
0 56 0
0 61 0
0 57 0
0 74 0
0 60 0
0 54 0
0 70 0
0 57 0
0 57 0
0 64 0
0 54 0
0 65 0
0 60 0
0 69 0
0 60 0
0 63 0
0 54 0
0 52 0
0 57 0
0 62 0
0 59 0
0 66 0
0 63 0
0 54 0
0 72 0
0 60 0
0 67 0
0 60 0
0 61 0
0 72 0
0 59 0
0 62 0
0 50 0
0 65 0
0 72 0
0 62 0
0 61 0
0 62 0
0 58 0
0 73 0
0 58 0
0 60 0
0 61 0
0 68 0
0 64 0
0 54 0
0 57 0
0 60 0
0 61 0
0 54 0
0 72 0
0 64 0
0 64 0
0 56 0
0 62 0
0 67 0
0 61 0
0 62 0
0 47 0
0 60 0
0 56 0
0 60 0
0 60 0
0 48 0
0 64 0
0 60 0
0 61 0
0 60 0
0 54 0
0 51 0
0 59 0
0 60 0
0 51 0
0 50 0
0 59 0
0 59 0
0 59 0
0 63 0
0 55 0
0 56 0
0 60 0
0 61 0
0 61 0
0 59 0
0 61 0
0 68 0
0 57 0
0 56 0
0 49 0
0 51 0
0 55 0
0 53 0
0 58 0
0 57 0
0 55 0
0 50 0
0 54 0
0 59 0
0 58 0
0 55 0
0 57 0
0 65 0
0 46 0
0 54 0
0 43 0
0 49 0
0 52 0
0 46 0
0 52 0
0 64 0
0 68 0
0 65 0
0 60 0
0 52 0
0 66 0
0 53 0
0 47 0
0 56 0
0 45 0
0 53 0
0 58 0
0 66 0
0 60 0
0 56 0
0 58 0
0 49 0
0 46 0
0 59 0
0 58 0
0 47 0
0 49 0
0 57 0
0 57 0
0 53 0
0 56 0
0 65 0
0 42 0
0 58 0
0 61 0
0 59 0
0 51 0
0 50 0
0 49 0
0 44 0
0 41 0
0 55 0
0 50 0
0 49 0
0 48 0
0 48 0
0 46 0
0 52 0
0 42 0
0 53 0
0 41 0
0 61 0
0 49 0
0 56 0
0 50 0
0 47 0
0 51 0
0 63 0
0 59 0
0 52 0
0 52 0
0 57 0
0 64 0
0 49 0
0 51 0
0 51 0
0 57 0
0 52 0
0 59 0
0 40 0
0 56 0
0 57 0
0 48 0
0 51 0
0 48 0
0 53 0
0 53 0
0 62 0
0 58 0
0 54 0
0 55 0
0 57 0
0 48 0
0 52 0
0 51 0
0 71 0
0 42 0
0 59 0
0 49 0
0 58 0
0 61 0
0 64 0
0 48 0
0 64 0
0 46 0
0 56 0
0 61 0
0 62 0
0 50 0
0 49 0
0 55 0
0 59 0
0 55 0
0 45 0
0 58 0
0 46 0
0 55 0
0 52 0
0 51 0
0 50 0
0 53 0
0 52 0
0 62 0
0 58 0
0 58 0
0 49 0
0 56 0
0 50 0
0 59 0
0 52 0
0 62 0
0 62 0
0 50 0
0 47 0
0 51 0
0 58 0
0 57 0
0 56 0
0 70 0
0 61 0
0 51 0
0 56 0
0 52 0
0 57 0
0 54 0
0 58 0
0 46 0
0 72 0
0 67 0
0 51 0
0 56 0
0 51 0
0 57 0
0 47 0
0 55 0
0 53 0
0 61 0
0 68 0
0 71 0
0 51 0
0 60 0
0 59 0
0 63 0
0 65 0
0 58 0
0 52 0
0 50 0
0 62 0
0 59 0
0 53 0
0 60 0
0 61 0
0 65 0
0 58 0
0 53 0
0 63 0
0 47 0
0 59 0
0 63 0
0 55 0
0 69 0
0 61 0
0 52 0
0 49 0
0 57 0
0 64 0
0 55 0
0 53 0
0 55 0
0 54 0
0 62 0
0 50 0
0 52 0
0 58 0
0 51 0
0 49 0
0 58 0
0 45 0
0 59 0
0 68 0
0 58 0
0 57 0
0 61 0
0 60 0
0 54 0
0 65 0
0 64 0
0 55 0
0 47 0
0 68 0
0 62 0
0 57 0
0 66 0
0 53 0
0 56 0
0 53 0
0 62 0
0 65 0
0 55 0
0 63 0
0 62 0
0 56 0
0 61 0
0 68 0
0 55 0
0 61 0
0 51 0
0 61 0
0 46 0
0 55 0
0 57 0
0 48 0
0 59 0
0 58 0
0 64 0
0 64 0
0 65 0
0 54 0
0 53 0
0 52 0
0 57 0
0 45 0
0 55 0
0 57 0
0 61 0
0 59 0
0 61 0
0 53 0
0 62 0
0 59 0
0 59 0
0 61 0
0 51 0
0 57 0
0 45 0
0 55 0
0 69 0
0 56 0
0 67 0
0 54 0
0 55 0
0 64 0
0 66 0
0 69 0
0 62 0
0 74 0
0 66 0
0 57 0
0 72 0
0 64 0
0 66 0
0 75 0
0 61 0
0 55 0
0 64 0
0 72 0
0 73 0
0 61 0
0 60 0
0 68 0
0 61 0
0 62 0
0 67 0
0 67 0
0 66 0
0 52 0
0 62 0
0 64 0
0 60 0
0 73 0
0 68 0
0 73 0
0 64 0
0 62 0
0 55 0
0 60 0
0 60 0
0 53 0
0 68 0
0 64 0
0 62 0
0 68 0
0 61 0
0 70 0
0 56 0
0 52 0
0 71 0
0 63 0
0 55 0
0 56 0
0 56 0
0 64 0
0 64 0
0 74 0
0 64 0
0 60 0
0 54 0
0 65 0
0 64 0
0 57 0
0 62 0
0 68 0
0 63 0
0 56 0
0 60 0
0 67 0
0 58 0
0 56 0
0 69 0
0 69 0
0 58 0
0 59 0
0 57 0
0 60 0
0 59 0
0 53 0
0 60 0
0 59 0
0 67 0
0 53 0
0 61 0
0 60 0
0 63 0
0 67 0
0 56 0
0 56 0
0 65 0
0 63 0
0 55 0
0 59 0
0 56 0
0 61 0
0 68 0
0 63 0
0 61 0
0 59 0
0 56 0
0 69 0
0 69 0
0 53 0
0 51 0
0 58 0
0 59 0
0 65 0
0 49 0
0 59 0
0 65 0
0 69 0
0 60 0
0 55 0
0 69 0
0 65 0
0 55 0
0 59 0
0 59 0
0 56 0
0 66 0
0 57 0
0 62 0
0 66 0
0 54 0
0 53 0
0 64 0
0 59 0
0 53 0
0 57 0
0 64 0
0 63 0
0 60 0
0 59 0
0 59 0
0 57 0
0 67 0
0 58 0
0 58 0
0 53 0
0 52 0
0 58 0
0 63 0
0 55 0
0 64 0
0 65 0
0 61 0
0 56 0
0 58 0
0 60 0
0 60 0
0 58 0
0 57 0
0 61 0
0 60 0
0 59 0
0 65 0
0 59 0
0 59 0
0 61 0
0 56 0
0 63 0
0 56 0
0 52 0
0 51 0
0 52 0
0 50 0
0 51 0
0 47 0
0 58 0
0 52 0
0 54 0
0 48 0
0 54 0
0 45 0
0 50 0
0 49 0
0 58 0
0 47 0
0 61 0
0 59 0
0 57 0
0 65 0
0 59 0
0 49 0
0 46 0
0 45 0
0 46 0
0 59 0
0 46 0
0 51 0
0 51 0
0 56 0
0 56 0
0 47 0
0 48 0
0 61 0
0 45 0
0 46 0
0 52 0
0 48 0
0 64 0
0 59 0
0 56 0
0 50 0
0 42 0
0 51 0
0 60 0
0 51 0
0 57 0
0 53 0
0 62 0
0 49 0
0 55 0
0 54 0
0 47 0
0 53 0
0 58 0
0 61 0
0 53 0
0 51 0
0 46 0
0 58 0
0 63 0
0 56 0
0 56 0
0 57 0
0 48 0
0 55 0
0 53 0
0 56 0
0 55 0
0 55 0
0 49 0
0 46 0
0 49 0
0 46 0
0 49 0
0 61 0
0 68 0
0 55 0
0 57 0
0 58 0
0 59 0
0 57 0
0 49 0
0 52 0
0 47 0
0 55 0
0 52 0
0 53 0
0 49 0
0 53 0
0 56 0
0 54 0
0 57 0
0 62 0
0 54 0
0 55 0
0 54 0
0 62 0
0 57 0
0 54 0
0 48 0
0 61 0
0 54 0
0 55 0
0 54 0
0 58 0
0 58 0
0 63 0
0 62 0
0 52 0
0 52 0
0 57 0
0 57 0
0 62 0
0 51 0
0 50 0
0 59 0
0 52 0
0 54 0
0 55 0
0 56 0
0 56 0
0 50 0
0 57 0
0 52 0
0 57 0
0 72 0
0 54 0
0 46 0
0 56 0
0 61 0
0 54 0
0 66 0
0 53 0
0 56 0
0 57 0
0 56 0
0 54 0
0 61 0
0 66 0
0 54 0
0 66 0
0 58 0
0 59 0
0 44 0
0 55 0
0 53 0
0 59 0
0 52 0
0 57 0
0 58 0
0 60 0
0 61 0
0 42 0
0 58 0
0 53 0
0 60 0
0 65 0
0 63 0
0 62 0
0 64 0
0 56 0
0 55 0
0 59 0
0 55 0
0 66 0
0 56 0
0 60 0
0 58 0
0 56 0
0 55 0
0 63 0
0 59 0
0 55 0
0 63 0
0 56 0
0 54 0
0 58 0
0 50 0
0 62 0
0 62 0
0 54 0
0 55 0
0 55 0
0 59 0
0 65 0
0 54 0
0 73 0
0 49 0
0 57 0
0 45 0
0 52 0
0 50 0
0 63 0
0 56 0
0 68 0
0 62 0
0 58 0
0 62 0
0 49 0
0 50 0
0 56 0
0 58 0
0 51 0
0 52 0
0 56 0
0 60 0
0 47 0
0 66 0
0 68 0
0 63 0
0 57 0
0 55 0
0 56 0
0 46 0
0 48 0
0 63 0
0 47 0
0 62 0
0 57 0
0 51 0
0 51 0
0 61 0
0 57 0
0 57 0
0 63 0
0 57 0
0 50 0
0 56 0
0 68 0
0 68 0
0 64 0
0 63 0
0 60 0
0 48 0
0 64 0
0 52 0
0 63 0
0 45 0
0 59 0
0 67 0
0 60 0
0 61 0
0 60 0
0 74 0
0 65 0
0 58 0
0 63 0
0 55 0
0 62 0
0 57 0
0 69 0
0 60 0
0 60 0
0 61 0
0 72 0
0 63 0
0 70 0
0 62 0
0 67 0
0 63 0
0 53 0
0 59 0
0 64 0
0 51 0
0 64 0
0 61 0
0 61 0
0 60 0
0 60 0
0 64 0
0 61 0
0 73 0
0 58 0
0 50 0
0 67 0
0 57 0
0 64 0
0 64 0
0 60 0
0 54 0
0 69 0
0 58 0
0 72 0
0 69 0
0 59 0
0 57 0
0 52 0
0 66 0
0 50 0
0 63 0
0 61 0
0 72 0
0 54 0
0 70 0
0 59 0
0 59 0
0 62 0
0 61 0
0 60 0
0 68 0
0 60 0
0 67 0
0 74 0
0 64 0
0 67 0
0 60 0
0 58 0
0 60 0
0 59 0
0 71 0
0 53 0
0 63 0
0 58 0
0 67 0
0 71 0
0 61 0
0 55 0
0 66 0
0 59 0
0 62 0
0 63 0
0 72 0
0 58 0
0 60 0
0 53 0
0 61 0
0 59 0
0 60 0
0 47 0
0 61 0
0 56 0
0 69 0
0 62 0
0 53 0
0 52 0
0 72 0
0 64 0
0 64 0
0 63 0
0 66 0
0 57 0
0 62 0
0 58 0
0 71 0
0 63 0
0 59 0
0 59 0
0 50 0
0 58 0
0 65 0
0 59 0
0 56 0
0 62 0
0 66 0
0 60 0
0 46 0
0 57 0
0 70 0
0 59 0
0 56 0
0 64 0
0 65 0
0 62 0
0 63 0
0 55 0
0 52 0
0 68 0
0 61 0
0 51 0
0 57 0
0 60 0
0 62 0
0 65 0
0 58 0
0 53 0
0 60 0
0 46 0
0 53 0
0 57 0
0 63 0
0 48 0
0 49 0
0 54 0
0 58 0
0 51 0
0 54 0
0 54 0
0 55 0
0 61 0
0 51 0
0 48 0
0 52 0
0 59 0
0 52 0
0 49 0
0 47 0
0 49 0
0 55 0
0 48 0
0 65 0
0 53 0
0 55 0
0 52 0
0 52 0
0 63 0
0 60 0
0 46 0
0 46 0
0 54 0
0 47 0
0 51 0
0 42 0
0 50 0
0 61 0
0 60 0
0 60 0
0 53 0
0 66 0
0 53 0
0 53 0
0 59 0
0 57 0
0 47 0
0 62 0
0 51 0
0 50 0
0 54 0
0 44 0
0 46 0
0 52 0
0 53 0
0 60 0
0 39 0
0 57 0
0 60 0
0 60 0
0 54 0
0 52 0
0 54 0
0 48 0
0 56 0
0 46 0
0 56 0
0 56 0
0 55 0
0 60 0
0 57 0
0 43 0
0 42 0
0 50 0
0 53 0
0 49 0
0 60 0
0 61 0
0 54 0
0 62 0
0 52 0
0 60 0
0 49 0
0 52 0
0 52 0
0 55 0
0 50 0
0 58 0
0 57 0
0 54 0
0 60 0
0 49 0
0 54 0
0 56 0
0 54 0
0 47 0
0 61 0
0 49 0
0 64 0
0 64 0
0 59 0
0 56 0
0 54 0
0 49 0
0 61 0
0 62 0
0 58 0
0 50 0
0 54 0
0 55 0
0 51 0
0 53 0
0 57 0
0 56 0
0 62 0
0 56 0
0 61 0
0 57 0
0 52 0
0 48 0
0 53 0
0 52 0
0 51 0
0 55 0
0 55 0
0 71 0
0 59 0
0 52 0
0 46 0
0 49 0
0 50 0
0 57 0
0 58 0
0 53 0
0 50 0
0 64 0
0 52 0
0 55 0
0 63 0
0 52 0
0 60 0
0 50 0
0 61 0
0 58 0
0 61 0
0 58 0
0 58 0
0 50 0
0 60 0
0 63 0
0 61 0
0 62 0
0 52 0
0 47 0
0 55 0
0 54 0
0 58 0
0 65 0
0 57 0
0 64 0
0 55 0
0 59 0
0 54 0
0 59 0
0 54 0
0 56 0
0 61 0
0 48 0
0 54 0
0 64 0
0 56 0
0 55 0
0 64 0
0 64 0
0 62 0
0 52 0
0 66 0
0 59 0
0 63 0
0 46 0
0 60 0
0 69 0
0 56 0
0 58 0
0 58 0
0 57 0
0 64 0
0 57 0
0 62 0
0 64 0
0 70 0
0 55 0
0 49 0
0 55 0
0 58 0
0 65 0
0 58 0
0 56 0
0 65 0
0 54 0
0 54 0
0 49 0
0 53 0
0 55 0
0 55 0
0 64 0
0 65 0
0 58 0
0 62 0
0 59 0
0 50 0
0 50 0
0 61 0
0 66 0
0 60 0
0 63 0
0 58 0
0 52 0
0 69 0
0 63 0
0 57 0
0 59 0
0 53 0
0 52 0
0 53 0
0 61 0
0 62 0
0 56 0
0 67 0
0 64 0
0 68 0
0 55 0
0 57 0
0 63 0
0 66 0
0 55 0
0 58 0
0 54 0
0 54 0
0 53 0
0 62 0
0 55 0
0 62 0
0 53 0
0 54 0
0 64 0
0 55 0
0 61 0
0 46 0
0 54 0
0 55 0
0 51 0
0 46 0
0 56 0
0 62 0
0 61 0
0 67 0
0 63 0
0 61 0
0 57 0
0 63 0
0 54 0
0 59 0
0 62 0
0 59 0
0 62 0
0 72 0
0 69 0
0 58 0
0 62 0
0 64 0
0 64 0
0 61 0
0 70 0
0 63 0
0 69 0
0 63 0
0 58 0
0 55 0
0 77 0
0 70 0
0 71 0
0 63 0
0 63 0
0 71 0
0 63 0
0 56 0
0 60 0
0 63 0
0 65 0
0 69 0
0 60 0
0 67 0
0 59 0
0 72 0
0 57 0
0 58 0
0 70 0
0 64 0
0 57 0
0 64 0
0 71 0
0 64 0
0 69 0
0 61 0
0 51 0
0 69 0
0 57 0
0 71 0
0 63 0
0 68 0
0 63 0
0 65 0
0 72 0
0 68 0
0 60 0
0 56 0
0 65 0
0 75 0
0 68 0
0 57 0
0 55 0
0 62 0
0 69 0
0 57 0
0 54 0
0 66 0
0 64 0
0 62 0
0 63 0
0 57 0
0 55 0
0 67 0
0 62 0
0 65 0
0 58 0
0 56 0
0 68 0
0 57 0
0 64 0
0 62 0
0 68 0
0 61 0
0 54 0
0 60 0
0 58 0
0 72 0
0 62 0
0 58 0
0 52 0
0 60 0
0 66 0
0 64 0
0 61 0
0 58 0
0 64 0
0 60 0
0 62 0
0 61 0
0 54 0
0 59 0
0 56 0
0 59 0
0 61 0
0 56 0
0 60 0
0 60 0
0 69 0
0 68 0
0 59 0
0 66 0
0 64 0
0 62 0
0 55 0
0 59 0
0 62 0
0 53 0
0 52 0
0 55 0
0 66 0
0 57 0
0 58 0
0 61 0
0 52 0
0 54 0
0 63 0
0 56 0
0 62 0
0 63 0
0 49 0
0 57 0
0 49 0
0 70 0
0 66 0
0 60 0
0 67 0
0 59 0
0 58 0
0 68 0
0 54 0
0 59 0
0 65 0
0 63 0
0 56 0
0 71 0
0 51 0
0 54 0
0 56 0
0 60 0
0 61 0
0 56 0
0 58 0
0 60 0
0 64 0
0 59 0
0 71 0
0 58 0
0 48 0
0 56 0
0 53 0
0 59 0
0 56 0
0 56 0
0 63 0
0 63 0
0 63 0
0 57 0
0 55 0
0 58 0
0 68 0
0 55 0
0 61 0
0 60 0
0 50 0
0 57 0
0 55 0
0 58 0
0 52 0
0 51 0
0 48 0
0 59 0
0 51 0
0 49 0
0 62 0
0 51 0
0 56 0
0 56 0
0 57 0
0 54 0
0 51 0
0 47 0
0 58 0
0 54 0
0 68 0
0 51 0
0 55 0
0 58 0
0 53 0
0 59 0
0 51 0
0 52 0
0 52 0
0 51 0
0 55 0
0 53 0
0 60 0
0 69 0
0 61 0
0 58 0
0 47 0
0 50 0
0 49 0
0 60 0
0 47 0
0 55 0
0 53 0
0 46 0
0 51 0
0 54 0
0 55 0
0 52 0
0 50 0
0 57 0
0 60 0
0 50 0
0 51 0
0 56 0
0 54 0
0 49 0
0 64 0
0 53 0
0 49 0
0 57 0
0 51 0
0 62 0
0 54 0
0 61 0
0 56 0
0 58 0
0 53 0
0 63 0
0 57 0
0 61 0
0 60 0
0 48 0
0 56 0
0 60 0
0 63 0
0 49 0
0 59 0
0 49 0
0 62 0
0 55 0
0 54 0
0 48 0
0 58 0
0 59 0
0 49 0
0 49 0
0 53 0
0 62 0
0 58 0
0 54 0
0 54 0
0 61 0
0 62 0
0 60 0
0 57 0
0 58 0
0 55 0
0 61 0
0 65 0
0 60 0
0 50 0
0 60 0
0 52 0
0 66 0
0 61 0
0 61 0
0 46 0
0 49 0
0 65 0
0 51 0
0 63 0
0 58 0
0 54 0
0 49 0
0 59 0
0 52 0
0 65 0
0 55 0
0 57 0
0 50 0
0 53 0
0 61 0
0 58 0
0 65 0
0 58 0
0 58 0
0 60 0
0 47 0
0 49 0
0 62 0
0 65 0
0 52 0
0 62 0
0 64 0
0 52 0
0 62 0
0 63 0
0 53 0
0 63 0
0 60 0
0 67 0
0 52 0
0 47 0
0 60 0
0 64 0
0 59 0
0 62 0
0 66 0
0 55 0
0 61 0
0 65 0
0 62 0
0 59 0
0 64 0
0 64 0
0 59 0
0 59 0
0 56 0
0 58 0
0 64 0
0 59 0
0 65 0
0 61 0
0 66 0
0 56 0
0 60 0
0 62 0
0 62 0
0 66 0
0 60 0
0 54 0
0 65 0
0 59 0
0 56 0
0 58 0
0 64 0
0 60 0
0 64 0
0 50 0
0 65 0
0 66 0
0 58 0
0 52 0
0 53 0
0 54 0
0 56 0
0 66 0
0 63 0
0 60 0
0 61 0
0 60 0
0 68 0
0 54 0
0 68 0
0 64 0
0 52 0
0 64 0
0 52 0
0 52 0
0 52 0
0 63 0
0 59 0
0 49 0
0 61 0
0 53 0
0 57 0
0 51 0
0 60 0
0 67 0
0 52 0
0 67 0
0 59 0
0 54 0
0 62 0
0 56 0
0 61 0
0 66 0
0 61 0
0 53 0
0 61 0
0 54 0
0 55 0
0 62 0
0 68 0
0 72 0
0 53 0
0 57 0
0 51 0
0 54 0
0 67 0
0 55 0
0 55 0
0 63 0
0 60 0
0 67 0
0 64 0
0 63 0
0 66 0
0 62 0
0 59 0
0 69 0
0 58 0
0 63 0
0 68 0
0 58 0
0 67 0
0 70 0
0 61 0
0 62 0
0 60 0
0 75 0
0 69 0
0 74 0
0 58 0
0 67 0
0 68 0
0 63 0
0 70 0
0 64 0
0 53 0
0 62 0
0 69 0
0 61 0
0 72 0
0 69 0
0 66 0
0 74 0
0 69 0
0 71 0
0 58 0
0 61 0
0 60 0
0 66 0
0 60 0
0 71 0
0 64 0
0 62 0
0 69 0
0 60 0
0 71 0
0 64 0
0 59 0
0 55 0
0 64 0
0 69 0
0 69 0
0 65 0
0 72 0
0 69 0
0 66 0
0 63 0
0 66 0
0 62 0
0 51 0
0 58 0
0 68 0
0 58 0
0 70 0
0 62 0
0 55 0
0 62 0
0 58 0
0 55 0
0 65 0
0 64 0
0 57 0
0 66 0
0 67 0
0 60 0
0 69 0
0 61 0
0 57 0
0 58 0
0 60 0
0 51 0
0 57 0
0 62 0
0 62 0
0 70 0
0 65 0
0 63 0
0 49 0
0 49 0
0 72 0
0 50 0
0 56 0
0 62 0
0 58 0
0 57 0
0 62 0
0 58 0
0 61 0
0 48 0
0 65 0
0 60 0
0 54 0
0 48 0
0 61 0
0 61 0
0 71 0
0 58 0
0 58 0
0 63 0
0 66 0
0 60 0
0 66 0
0 63 0
0 57 0
0 57 0
0 53 0
0 52 0
0 55 0
0 63 0
0 63 0
0 57 0
0 59 0
0 63 0
0 65 0
0 57 0
0 67 0
0 61 0
0 53 0
0 59 0
0 62 0
0 63 0
0 61 0
0 55 0
0 60 0
0 60 0
0 49 0
0 62 0
0 59 0
0 53 0
0 63 0
0 54 0
0 58 0
0 62 0
0 61 0
0 63 0
0 61 0
0 65 0
0 49 0
0 66 0
0 48 0
0 48 0
0 48 0
0 59 0
0 49 0
0 59 0
0 62 0
0 45 0
0 52 0
0 60 0
0 56 0
0 51 0
0 54 0
0 59 0
0 48 0
0 63 0
0 57 0
0 64 0
0 55 0
0 52 0
0 54 0
0 59 0
0 49 0
0 53 0
0 56 0
0 52 0
0 55 0
0 66 0
0 67 0
0 55 0
0 61 0
0 45 0
0 61 0
0 49 0
0 63 0
0 58 0
0 57 0
0 67 0
0 46 0
0 56 0
0 52 0
0 55 0
0 50 0
0 49 0
0 55 0
0 61 0
0 51 0
0 55 0
0 52 0
0 45 0
0 49 0
0 52 0
0 52 0
0 67 0
0 48 0
0 62 0
0 51 0
0 49 0
0 65 0
0 55 0
0 60 0
0 53 0
0 60 0
0 63 0
0 48 0
0 45 0
0 55 0
0 52 0
0 60 0
0 60 0
0 49 0
0 54 0
0 61 0
0 52 0
0 56 0
0 45 0
0 53 0
0 51 0
0 63 0
0 50 0
0 49 0
0 52 0
0 51 0
0 55 0
0 52 0
0 64 0
0 56 0
0 57 0
0 53 0
0 52 0
0 54 0
0 55 0
0 50 0
0 56 0
0 60 0
0 57 0
0 55 0
0 55 0
0 53 0
0 65 0
0 59 0
0 53 0
0 46 0
0 57 0
0 50 0
0 57 0
0 55 0
0 56 0
0 53 0
0 59 0
0 55 0
0 62 0
0 57 0
0 51 0
0 52 0
0 55 0
0 54 0
0 61 0
0 59 0
0 54 0
0 61 0
0 57 0
0 43 0
0 58 0
0 57 0
0 58 0
0 63 0
0 52 0
0 59 0
0 58 0
0 63 0
0 61 0
0 62 0
0 53 0
0 55 0
0 49 0
0 66 0
0 67 0
0 59 0
0 55 0
0 62 0
0 57 0
0 53 0
0 47 0
0 56 0
0 57 0
0 60 0
0 52 0
0 52 0
0 53 0
0 54 0
0 52 0
0 63 0
0 53 0
0 62 0
0 61 0
0 65 0
0 56 0
0 63 0
0 51 0
0 60 0
0 56 0
0 51 0
0 60 0
0 56 0
0 53 0
0 54 0
0 56 0
0 54 0
0 59 0
0 56 0
0 51 0
0 66 0
0 54 0
0 56 0
0 63 0
0 53 0
0 68 0
0 65 0
0 49 0
0 49 0
0 67 0
0 53 0
0 62 0
0 60 0
0 67 0
0 57 0
0 59 0
0 62 0
0 65 0
0 55 0
0 60 0
0 51 0
0 48 0
0 52 0
0 53 0
0 59 0
0 65 0
0 62 0
0 55 0
0 49 0
0 50 0
0 58 0
0 58 0
0 68 0
0 59 0
0 60 0
0 56 0
0 63 0
0 59 0
0 63 0
0 64 0
0 58 0
0 60 0
0 57 0
0 67 0
0 46 0
0 61 0
0 54 0
0 63 0
0 66 0
0 71 0
0 48 0
0 62 0
0 55 0
0 62 0
0 57 0
0 59 0
0 64 0
0 64 0
0 61 0
0 53 0
0 45 0
0 64 0
0 60 0
0 52 0
0 59 0
0 73 0
0 61 0
0 66 0
0 58 0
0 50 0
0 57 0
0 61 0
0 59 0
0 55 0
0 60 0
0 67 0
0 63 0
0 67 0
0 65 0
0 76 0
0 67 0
0 71 0
0 60 0
0 66 0
0 67 0
0 66 0
0 63 0
0 59 0
0 63 0
0 63 0
0 55 0
0 68 0
0 72 0
0 63 0
0 69 0
0 69 0
0 69 0
0 63 0
0 61 0
0 66 0
0 70 0
0 74 0
0 66 0
0 64 0
0 58 0
0 67 0
0 73 0
0 59 0
0 67 0
0 60 0
0 63 0
0 70 0
0 70 0
0 65 0
0 66 0
0 65 0
0 62 0
0 66 0
0 66 0
0 63 0
0 61 0
0 60 0
0 59 0
0 62 0
0 53 0
0 69 0
0 49 0
0 61 0
0 51 0
0 66 0
0 62 0
0 53 0
0 66 0
0 55 0
0 58 0
0 59 0
0 60 0
0 62 0
0 70 0
0 56 0
0 68 0
0 61 0
0 56 0
0 69 0
0 57 0
0 58 0
0 63 0
0 61 0
0 68 0
0 68 0
0 53 0
0 61 0
0 64 0
0 70 0
0 52 0
0 68 0
0 62 0
0 61 0
0 66 0
0 62 0
0 69 0
0 60 0
0 66 0
0 61 0
0 60 0
0 63 0
0 70 0
0 66 0
0 64 0
0 70 0
0 58 0
0 60 0
0 64 0
0 65 0
0 66 0
0 50 0
0 54 0
0 65 0
0 59 0
0 64 0
0 61 0
0 63 0
0 62 0
0 69 0
0 66 0
0 75 0
0 62 0
0 55 0
0 61 0
0 53 0
0 58 0
0 54 0
0 50 0
0 55 0
0 62 0
0 65 0
0 55 0
0 60 0
0 55 0
0 63 0
0 59 0
0 57 0
0 66 0
0 51 0
0 66 0
0 67 0
0 65 0
0 66 0
0 63 0
0 59 0
0 71 0
0 60 0
0 58 0
0 57 0
0 65 0
0 57 0
0 59 0
0 58 0
0 64 0
0 61 0
0 63 0
0 54 0
0 58 0
0 63 0
0 67 0
0 60 0
0 51 0
0 48 0
0 42 0
0 48 0
0 49 0
0 60 0
0 61 0
0 51 0
0 61 0
0 53 0
0 54 0
0 59 0
0 54 0
0 49 0
0 64 0
0 51 0
0 56 0
0 55 0
0 57 0
0 55 0
0 63 0
0 65 0
0 47 0
0 57 0
0 54 0
0 54 0
0 59 0
0 44 0
0 47 0
0 64 0
0 51 0
0 52 0
0 48 0
0 56 0
0 49 0
0 55 0
0 62 0
0 64 0
0 56 0
0 53 0
0 52 0
0 51 0
0 60 0
0 51 0
0 56 0
0 70 0
0 60 0
0 60 0
0 52 0
0 51 0
0 56 0
0 61 0
0 73 0
0 64 0
0 53 0
0 52 0
0 61 0
0 52 0
0 56 0
0 56 0
0 64 0
0 52 0
0 53 0
0 52 0
0 58 0
0 57 0
0 52 0
0 61 0
0 52 0
0 55 0
0 47 0
0 63 0
0 61 0
0 56 0
0 69 0
0 56 0
0 63 0
0 57 0
0 45 0
0 59 0
0 50 0
0 55 0
0 45 0
0 59 0
0 59 0
0 50 0
0 51 0
0 53 0
0 57 0
0 54 0
0 57 0
0 63 0
0 51 0
0 63 0
0 55 0
0 60 0
0 58 0
0 52 0
0 52 0
0 53 0
0 52 0
0 45 0
0 58 0
0 48 0
0 61 0
0 53 0
0 61 0
0 48 0
0 57 0
0 48 0
0 56 0
0 61 0
0 57 0
0 57 0
0 54 0
0 66 0
0 62 0
0 67 0
0 52 0
0 51 0
0 58 0
0 62 0
0 62 0
0 52 0
0 59 0
0 51 0
0 56 0
0 60 0
0 46 0
0 58 0
0 62 0
0 53 0
0 63 0
0 64 0
0 61 0
0 55 0
0 54 0
0 61 0
0 51 0
0 52 0
0 64 0
0 62 0
0 62 0
0 60 0
0 58 0
0 62 0
0 50 0
0 65 0
0 64 0
0 57 0
0 54 0
0 52 0
0 44 0
0 66 0
0 56 0
0 56 0
0 50 0
0 55 0
0 52 0
0 69 0
0 59 0
0 60 0
0 60 0
0 61 0
0 60 0
0 65 0
0 58 0
0 60 0
0 67 0
0 50 0
0 65 0
0 67 0
0 65 0
0 61 0
0 65 0
0 56 0
0 53 0
0 53 0
0 53 0
0 58 0
0 56 0
0 54 0
0 49 0
0 60 0
0 63 0
0 55 0
0 59 0
0 60 0
0 58 0
0 55 0
0 56 0
0 62 0
0 55 0
0 60 0
0 61 0
0 53 0
0 56 0
0 65 0
0 70 0
0 64 0
0 58 0
0 53 0
0 68 0
0 62 0
0 54 0
0 55 0
0 58 0
0 67 0
0 63 0
0 60 0
0 54 0
0 56 0
0 62 0
0 60 0
0 58 0
0 62 0
0 57 0
0 63 0
0 51 0
0 54 0
0 56 0
0 64 0
0 70 0
0 58 0
0 55 0
0 64 0
0 64 0
0 69 0
0 68 0
0 59 0
0 60 0
0 56 0
0 62 0
0 54 0
0 63 0
0 59 0
0 47 0
0 58 0
0 56 0
0 56 0
0 67 0
0 68 0
0 59 0
0 57 0
0 64 0
0 71 0
0 70 0
0 55 0
0 60 0
0 56 0
0 65 0
0 74 0
0 66 0
0 60 0
0 58 0
0 67 0
0 54 0
0 72 0
0 62 0
0 61 0
0 64 0
0 63 0
0 66 0
0 61 0
0 68 0
0 74 0
0 74 0
0 62 0
0 62 0
0 66 0
0 66 0
0 66 0
0 70 0
0 68 0
0 58 0
0 66 0
0 56 0
0 57 0
0 55 0
0 56 0
0 67 0
0 63 0
0 66 0
0 60 0
0 60 0
0 62 0
0 63 0
0 69 0
0 62 0
0 72 0
0 61 0
0 64 0
0 67 0
0 53 0
0 64 0
0 63 0
0 61 0
0 63 0
0 69 0
0 69 0
0 62 0
0 59 0
0 63 0
0 60 0
0 64 0
0 63 0
0 59 0
0 71 0
0 76 0
0 57 0
0 65 0
0 59 0
0 59 0
0 64 0
0 50 0
0 63 0
0 65 0
0 59 0
0 70 0
0 64 0
0 73 0
0 57 0
0 56 0
0 62 0
0 56 0
0 59 0
0 64 0
0 65 0
0 67 0
0 58 0
0 50 0
0 64 0
0 61 0
0 65 0
0 66 0
0 72 0
0 64 0
0 58 0
0 64 0
0 62 0
0 63 0
0 70 0
0 60 0
0 69 0
0 60 0
0 68 0
0 62 0
0 69 0
0 69 0
0 56 0
0 66 0
0 59 0
0 63 0
0 66 0
0 64 0
0 57 0
0 62 0
0 58 0
0 78 0
0 53 0
0 68 0
0 44 0
0 56 0
0 60 0
0 55 0
0 59 0
0 64 0
0 62 0
0 66 0
0 64 0
0 63 0
0 52 0
0 59 0
0 52 0
0 54 0
0 69 0
0 61 0
0 65 0
0 66 0
0 60 0
0 68 0
0 71 0
0 60 0
0 72 0
0 65 0
0 57 0
0 65 0
0 56 0
0 50 0
0 60 0
0 45 0
0 55 0
0 46 0
0 56 0
0 73 0
0 66 0
0 63 0
0 72 0
0 49 0
0 66 0
0 60 0
0 57 0
0 59 0
0 50 0
0 61 0
0 56 0
0 57 0
0 51 0
0 37 0
0 55 0
0 61 0
0 70 0
0 57 0
0 64 0
0 55 0
0 62 0
0 53 0
0 62 0
0 65 0
0 58 0
0 56 0
0 58 0
0 52 0
0 58 0
0 55 0
0 63 0
0 59 0
0 65 0
0 55 0
0 55 0
0 57 0
0 60 0
0 46 0
0 60 0
0 55 0
0 47 0
0 51 0
0 54 0
0 58 0
0 62 0
0 62 0
0 53 0
0 58 0
0 58 0
0 65 0
0 59 0
0 53 0
0 52 0
0 55 0
0 64 0
0 62 0
0 66 0
0 51 0
0 64 0
0 54 0
0 59 0
0 55 0
0 64 0
0 61 0
0 59 0
0 59 0
0 63 0
0 64 0
0 53 0
0 56 0
0 53 0
0 53 0
0 62 0
0 50 0
0 50 0
0 43 0
0 55 0
0 45 0
0 58 0
0 57 0
0 60 0
0 61 0
0 59 0
0 62 0
0 49 0
0 48 0
0 55 0
0 51 0
0 53 0
0 52 0
0 57 0
0 53 0
0 57 0
0 50 0
0 50 0
0 66 0
0 57 0
0 55 0
0 53 0
0 60 0
0 54 0
0 65 0
0 55 0
0 70 0
0 50 0
0 60 0
0 52 0
0 52 0
0 55 0
0 51 0
0 54 0
0 59 0
0 53 0
0 60 0
0 51 0
0 56 0
0 55 0
0 58 0
0 55 0
0 61 0
0 65 0
0 55 0
0 57 0
0 56 0
0 58 0
0 55 0
0 51 0
0 52 0
0 61 0
0 68 0
0 60 0
0 58 0
0 56 0
0 62 0
0 58 0
0 48 0
0 51 0
0 55 0
0 57 0
0 62 0
0 65 0
0 68 0
0 56 0
0 62 0
0 68 0
0 55 0
0 66 0
0 62 0
0 54 0
0 63 0
0 62 0
0 59 0
0 60 0
0 62 0
0 62 0
0 62 0
0 65 0
0 50 0
0 47 0
0 66 0
0 65 0
0 67 0
0 60 0
0 56 0
0 59 0
0 59 0
0 68 0
0 54 0
0 54 0
0 62 0
0 54 0
0 59 0
0 63 0
0 57 0
0 57 0
0 64 0
0 62 0
0 58 0
0 52 0
0 71 0
0 62 0
0 60 0
0 71 0
0 51 0
0 53 0
0 50 0
0 62 0
0 59 0
0 53 0
0 64 0
0 67 0
0 56 0
0 61 0
0 59 0
0 61 0
0 60 0
0 51 0
0 62 0
0 61 0
0 59 0
0 64 0
0 48 0
0 65 0
0 55 0
0 58 0
0 61 0
0 65 0
0 68 0
0 60 0
0 63 0
0 65 0
0 56 0
0 65 0
0 63 0
0 52 0
0 64 0
0 66 0
0 69 0
0 63 0
0 72 0
0 52 0
0 62 0
0 51 0
0 66 0
0 55 0
0 50 0
0 53 0
0 63 0
0 62 0
0 51 0
0 49 0
0 57 0
0 55 0
0 61 0
0 68 0
0 59 0
0 60 0
0 54 0
0 62 0
0 56 0
0 51 0
0 77 0
0 60 0
0 63 0
0 65 0
0 60 0
0 63 0
0 54 0
0 49 0
0 62 0
0 62 0
0 64 0
0 57 0
0 54 0
0 49 0
0 52 0
0 65 0
0 58 0
0 62 0
0 70 0
0 60 0
0 70 0
0 71 0
0 67 0
0 69 0
0 57 0
0 67 0
0 67 0
0 66 0
0 69 0
0 64 0
0 60 0
0 58 0
0 65 0
0 68 0
0 62 0
0 68 0
0 64 0
0 61 0
0 59 0
0 72 0
0 65 0
0 70 0
0 64 0
0 61 0
0 65 0
0 67 0
0 58 0
0 54 0
0 67 0
0 62 0
0 60 0
0 72 0
0 62 0
0 63 0
0 69 0
0 75 0
0 57 0
0 52 0
0 67 0
0 70 0
0 70 0
0 61 0
0 61 0
0 60 0
0 76 0
0 59 0
0 63 0
0 67 0
0 56 0
0 63 0
0 66 0
0 67 0
0 56 0
0 64 0
0 66 0
0 65 0
0 52 0
0 61 0
0 65 0
0 63 0
0 62 0
0 65 0
0 75 0
0 67 0
0 63 0
0 67 0
0 64 0
0 63 0
0 71 0
0 60 0
0 68 0
0 62 0
0 62 0
0 70 0
0 60 0
0 62 0
0 64 0
0 66 0
0 67 0
0 64 0
0 63 0
0 65 0
0 62 0
0 66 0
0 68 0
0 58 0
0 54 0
0 56 0
0 67 0
0 52 0
0 73 0
0 54 0
0 61 0
0 59 0
0 61 0
0 66 0
0 61 0
0 60 0
0 62 0
0 70 0
0 58 0
0 70 0
0 60 0
0 70 0
0 66 0
0 53 0
0 61 0
0 68 0
0 66 0
0 66 0
0 62 0
0 50 0
0 64 0
0 68 0
0 70 0
0 70 0
0 64 0
0 59 0
0 59 0
0 57 0
0 53 0
0 63 0
0 57 0
0 64 0
0 55 0
0 61 0
0 67 0
0 56 0
0 54 0
0 66 0
0 60 0
0 55 0
0 62 0
0 59 0
0 56 0
0 56 0
0 53 0
0 57 0
0 56 0
0 62 0
0 56 0
0 63 0
0 50 0
0 68 0
0 57 0
0 52 0
0 62 0
0 52 0
0 64 0
0 56 0
0 56 0
0 53 0
0 58 0
0 59 0
0 62 0
0 52 0
0 53 0
0 52 0
0 50 0
0 62 0
0 48 0
0 49 0
0 60 0
0 60 0
0 52 0
0 61 0
0 52 0
0 50 0
0 53 0
0 60 0
0 68 0
0 68 0
0 63 0
0 57 0
0 57 0
0 45 0
0 64 0
0 55 0
0 54 0
0 64 0
0 64 0
0 50 0
0 50 0
0 63 0
0 54 0
0 56 0
0 68 0
0 54 0
0 53 0
0 49 0
0 58 0
0 57 0
0 52 0
0 48 0
0 55 0
0 56 0
0 46 0
0 50 0
0 55 0
0 62 0
0 59 0
0 59 0
0 51 0
0 60 0
0 61 0
0 52 0
0 60 0
0 62 0
0 51 0
0 59 0
0 54 0
0 57 0
0 62 0
0 51 0
0 64 0
0 45 0
0 49 0
0 60 0
0 66 0
0 55 0
0 59 0
0 54 0
0 45 0
0 49 0
0 53 0
0 50 0
0 65 0
0 54 0
0 56 0
0 64 0
0 70 0
0 66 0
0 61 0
0 68 0
0 50 0
0 57 0
0 61 0
0 58 0
0 57 0
0 51 0
0 56 0
0 59 0
0 64 0
0 54 0
0 63 0
0 61 0
0 57 0
0 56 0
0 57 0
0 51 0
0 55 0
0 47 0
0 44 0
0 59 0
0 59 0
0 68 0
0 59 0
0 67 0
0 61 0
0 60 0
0 50 0
0 57 0
0 61 0
0 56 0
0 56 0
0 56 0
0 73 0
0 68 0
0 60 0
0 67 0
0 62 0
0 60 0
0 57 0
0 66 0
0 47 0
0 62 0
0 57 0
0 56 0
0 63 0
0 59 0
0 59 0
0 55 0
0 49 0
0 59 0
0 60 0
0 55 0
0 45 0
0 63 0
0 62 0
0 60 0
0 69 0
0 59 0
0 54 0
0 69 0
0 61 0
0 60 0
0 58 0
0 54 0
0 57 0
0 50 0
0 59 0
0 63 0
0 65 0
0 57 0
0 63 0
0 62 0
0 49 0
0 68 0
0 59 0
0 60 0
0 52 0
0 59 0
0 69 0
0 58 0
0 49 0
0 53 0
0 64 0
0 58 0
0 57 0
0 65 0
0 55 0
0 64 0
0 54 0
0 55 0
0 65 0
0 68 0
0 52 0
0 57 0
0 64 0
0 62 0
0 60 0
0 66 0
0 62 0
0 52 0
0 61 0
0 67 0
0 54 0
0 64 0
0 53 0
0 57 0
0 67 0
0 68 0
0 61 0
0 62 0
0 56 0
0 50 0
0 59 0
0 53 0
0 62 0
0 55 0
0 51 0
0 62 0
0 63 0
0 55 0
0 60 0
0 55 0
0 54 0
0 53 0
0 63 0
0 65 0
0 58 0
0 61 0
0 61 0
0 54 0
0 70 0
0 69 0
0 56 0
0 59 0
0 53 0
0 65 0
0 54 0
0 58 0
0 64 0
0 64 0
0 66 0
0 69 0
0 53 0
0 59 0
0 61 0
0 56 0
0 62 0
0 58 0
0 50 0
0 62 0
0 69 0
0 62 0
0 71 0
0 69 0
0 59 0
0 60 0
0 59 0
0 66 0
0 49 0
0 57 0
0 66 0
0 55 0
0 68 0
0 73 0
0 70 0
0 54 0
0 54 0
0 69 0
0 68 0
0 60 0
0 55 0
0 63 0
0 68 0
0 71 0
0 63 0
0 66 0
0 72 0
0 70 0
0 64 0
0 59 0
0 69 0
0 60 0
0 62 0
0 73 0
0 52 0
0 63 0
0 63 0
0 70 0
0 65 0
0 61 0
0 65 0
0 68 0
0 65 0
0 63 0
0 56 0
0 75 0
0 67 0
0 65 0
0 73 0
0 68 0
0 71 0
0 73 0
0 71 0
0 65 0
0 61 0
0 65 0
0 64 0
0 60 0
0 63 0
0 60 0
0 59 0
0 58 0
0 66 0
0 66 0
0 59 0
0 66 0
0 60 0
0 55 0
0 62 0
0 74 0
0 58 0
0 66 0
0 69 0
0 63 0
0 73 0
0 58 0
0 67 0
0 57 0
0 63 0
0 59 0
0 65 0
0 68 0
0 67 0
0 70 0
0 61 0
0 54 0
0 64 0
0 59 0
0 63 0
0 68 0
0 57 0
0 57 0
0 56 0
0 59 0
0 67 0
0 69 0
0 65 0
0 66 0
0 66 0
0 68 0
0 65 0
0 76 0
0 59 0
0 69 0
0 52 0
0 60 0
0 60 0
0 57 0
0 61 0
0 63 0
0 69 0
0 61 0
0 59 0
0 65 0
0 62 0
0 60 0
0 64 0
0 63 0
0 56 0
0 60 0
0 70 0
0 53 0
0 71 0
0 64 0
0 45 0
0 66 0
0 60 0
0 61 0
0 56 0
0 55 0
0 64 0
0 56 0
0 60 0
0 55 0
0 53 0
0 61 0
0 55 0
0 58 0
0 63 0
0 65 0
0 65 0
0 56 0
0 58 0
0 61 0
0 57 0
0 62 0
0 51 0
0 49 0
0 66 0
0 55 0
0 57 0
0 56 0
0 47 0
0 55 0
0 62 0
0 65 0
0 61 0
0 54 0
0 57 0
0 55 0
0 58 0
0 50 0
0 75 0
0 54 0
0 66 0
0 50 0
0 55 0
0 52 0
0 65 0
0 54 0
0 58 0
0 53 0
0 55 0
0 52 0
0 62 0
0 68 0
0 58 0
0 42 0
0 68 0
0 54 0
0 56 0
0 47 0
0 55 0
0 62 0
0 50 0
0 60 0
0 61 0
0 59 0
0 49 0
0 55 0
0 47 0
0 55 0
0 56 0
0 65 0
0 62 0
0 57 0
0 46 0
0 62 0
0 49 0
0 52 0
0 55 0
0 55 0
0 50 0
0 59 0
0 68 0
0 57 0
0 55 0
0 45 0
0 63 0
0 60 0
0 46 0
0 48 0
0 60 0
0 69 0
0 54 0
0 57 0
0 53 0
0 59 0
0 54 0
0 59 0
0 51 0
0 61 0
0 48 0
0 58 0
0 66 0
0 56 0
0 64 0
0 68 0
0 40 0
0 55 0
0 67 0
0 64 0
0 58 0
0 55 0
0 60 0
0 58 0
0 49 0
0 55 0
0 48 0
0 60 0
0 64 0
0 55 0
0 47 0
0 61 0
0 68 0
0 61 0
0 59 0
0 71 0
0 61 0
0 60 0
0 59 0
0 57 0
0 61 0
0 59 0
0 61 0
0 68 0
0 59 0
0 56 0
0 47 0
0 68 0
0 46 0
0 63 0
0 63 0
0 64 0
0 72 0
0 49 0
0 62 0
0 60 0
0 50 0
0 57 0
0 66 0
0 61 0
0 58 0
0 62 0
0 58 0
0 56 0
0 50 0
0 59 0
0 66 0
0 57 0
0 51 0
0 60 0
0 58 0
0 56 0
0 59 0
0 63 0
0 56 0
0 57 0
0 66 0
0 65 0
0 56 0
0 49 0
0 52 0
0 55 0
0 67 0
0 53 0
0 65 0
0 61 0
0 52 0
0 56 0
0 63 0
0 65 0
0 67 0
0 66 0
0 64 0
0 57 0
0 67 0
0 58 0
0 54 0
0 50 0
0 52 0
0 57 0
0 55 0
0 73 0
0 58 0
0 54 0
0 58 0
0 74 0
0 74 0
0 53 0
0 63 0
0 59 0
0 65 0
0 62 0
0 56 0
0 54 0
0 64 0
0 66 0
0 49 0
0 52 0
0 55 0
0 60 0
0 67 0
0 64 0
0 54 0
0 61 0
0 60 0
0 58 0
0 74 0
0 53 0
0 63 0
0 61 0
0 57 0
0 61 0
0 62 0
0 65 0
0 66 0
0 55 0
0 56 0
0 61 0
0 66 0
0 59 0
0 61 0
0 65 0
0 67 0
0 61 0
0 59 0
0 68 0
0 56 0
0 54 0
0 62 0
0 65 0
0 68 0
0 67 0
0 61 0
0 61 0
0 61 0
0 66 0
0 59 0
0 64 0
0 62 0
0 60 0
0 73 0
0 58 0
0 58 0
0 60 0
0 52 0
0 61 0
0 51 0
0 69 0
0 63 0
0 70 0
0 63 0
0 61 0
0 59 0
0 64 0
0 67 0
0 59 0
0 57 0
0 57 0
0 65 0
0 66 0
0 51 0
0 67 0
0 62 0
0 62 0
0 51 0
0 64 0
0 66 0
0 51 0
0 63 0
0 59 0
0 59 0
0 65 0
0 63 0
0 57 0
0 64 0
0 62 0
0 62 0
0 54 0
0 51 0
0 73 0
0 69 0
0 67 0
0 77 0
0 62 0
0 71 0
0 62 0
0 72 0
0 66 0
0 62 0
0 58 0
0 70 0
0 64 0
0 65 0
0 66 0
0 69 0
0 72 0
0 63 0
0 75 0
0 68 0
0 62 0
0 61 0
0 69 0
0 61 0
0 75 0
0 53 0
0 63 0
0 64 0
0 67 0
0 67 0
0 64 0
0 65 0
0 73 0
0 68 0
0 66 0
0 77 0
0 76 0
0 56 0
0 69 0
0 67 0
0 60 0
0 64 0
0 64 0
0 63 0
0 73 0
0 68 0
0 73 0
0 71 0
0 68 0
0 48 0
0 65 0
0 57 0
0 54 0
0 67 0
0 60 0
0 68 0
0 61 0
0 56 0
0 67 0
0 71 0
0 66 0
0 67 0
0 67 0
0 67 0
0 68 0
0 57 0
0 66 0
0 58 0
0 66 0
0 60 0
0 68 0
0 64 0
0 59 0
0 67 0
0 64 0
0 62 0
0 71 0
0 62 0
0 61 0
0 70 0
0 66 0
0 62 0
0 77 0
0 75 0
0 62 0
0 67 0
0 63 0
0 62 0
0 61 0
0 72 0
0 64 0
0 52 0
0 61 0
0 62 0
0 64 0
0 59 0
0 53 0
0 61 0
0 64 0
0 67 0
0 67 0
0 70 0
0 71 0
0 57 0
0 61 0
0 54 0
0 59 0
0 69 0
0 63 0
0 67 0
0 55 0
0 60 0
0 65 0
0 60 0
0 51 0
0 61 0
0 58 0
0 55 0
0 65 0
0 65 0
0 62 0
0 65 0
0 68 0
0 67 0
0 56 0
0 60 0
0 62 0
0 61 0
0 59 0
0 61 0
0 64 0
0 58 0
0 60 0
0 59 0
0 62 0
0 58 0
0 54 0
0 52 0
0 66 0
0 55 0
0 56 0
0 58 0
0 60 0
0 55 0
0 61 0
0 53 0
0 67 0
0 59 0
0 72 0
0 55 0
0 68 0
0 55 0
0 55 0
0 50 0
0 64 0
0 58 0
0 56 0
0 53 0
0 60 0
0 55 0
0 55 0
0 58 0
0 63 0
0 50 0
0 53 0
0 53 0
0 59 0
0 54 0
0 58 0
0 63 0
0 50 0
0 56 0
0 67 0
0 46 0
0 54 0
0 62 0
0 54 0
0 69 0
0 53 0
0 61 0
0 54 0
0 61 0
0 60 0
0 64 0
0 57 0
0 65 0
0 60 0
0 57 0
0 64 0
0 58 0
0 51 0
0 62 0
0 63 0
0 56 0
0 51 0
0 51 0
0 56 0
0 56 0
0 59 0
0 53 0
0 54 0
0 49 0
0 56 0
0 54 0
0 66 0
0 61 0
0 56 0
0 49 0
0 63 0
0 59 0
0 56 0
0 57 0
0 61 0
0 65 0
0 54 0
0 52 0
0 63 0
0 51 0
0 53 0
0 57 0
0 56 0
0 60 0
0 64 0
0 56 0
0 42 0
0 59 0
0 55 0
0 52 0
0 52 0
0 64 0
0 53 0
0 61 0
0 62 0
0 45 0
0 66 0
0 68 0
0 51 0
0 59 0
0 55 0
0 55 0
0 56 0
0 62 0
0 55 0
0 60 0
0 67 0
0 52 0
0 58 0
0 52 0
0 55 0
0 59 0
0 55 0
0 60 0
0 60 0
0 55 0
0 55 0
0 61 0
0 54 0
0 63 0
0 70 0
0 56 0
0 67 0
0 58 0
0 58 0
0 61 0
0 54 0
0 68 0
0 56 0
0 59 0
0 55 0
0 54 0
0 55 0
0 50 0
0 43 0
0 67 0
0 65 0
0 56 0
0 54 0
0 63 0
0 61 0
0 59 0
0 65 0
0 65 0
0 56 0
0 61 0
0 50 0
0 55 0
0 56 0
0 57 0
0 55 0
0 68 0
0 56 0
0 60 0
0 55 0
0 52 0
0 57 0
0 56 0
0 60 0
0 63 0
0 56 0
0 64 0
0 70 0
0 62 0
0 63 0
0 58 0
0 54 0
0 61 0
0 57 0
0 70 0
0 55 0
0 61 0
0 61 0
0 58 0
0 52 0
0 53 0
0 60 0
0 62 0
0 60 0
0 70 0
0 57 0
0 62 0
0 51 0
0 66 0
0 61 0
0 59 0
0 65 0
0 60 0
0 59 0
0 57 0
0 56 0
0 65 0
0 58 0
0 55 0
0 67 0
0 54 0
0 62 0
0 55 0
0 63 0
0 71 0
0 51 0
0 58 0
0 49 0
0 60 0
0 56 0
0 52 0
0 62 0
0 69 0
0 77 0
0 59 0
0 57 0
0 75 0
0 60 0
0 63 0
0 58 0
0 68 0
0 67 0
0 57 0
0 55 0
0 69 0
0 60 0
0 62 0
0 65 0
0 67 0
0 72 0
0 58 0
0 68 0
0 52 0
0 63 0
0 60 0
0 58 0
0 53 0
0 69 0
0 70 0
0 61 0
0 70 0
0 66 0
0 61 0
0 59 0
0 74 0
0 73 0
0 50 0
0 50 0
0 58 0
0 67 0
0 64 0
0 53 0
0 53 0
0 63 0
0 65 0
0 66 0
0 56 0
0 64 0
0 58 0
0 55 0
0 62 0
0 66 0
0 66 0
0 64 0
0 58 0
0 63 0
0 62 0
0 66 0
0 71 0
0 62 0
0 53 0
0 61 0
0 73 0
0 68 0
0 56 0
0 58 0
0 84 0
0 74 0
0 62 0
0 73 0
0 73 0
0 61 0
0 80 0
0 58 0
0 62 0
0 75 0
0 69 0
0 63 0
0 67 0
0 65 0
0 68 0
0 68 0
0 74 0
0 65 0
0 70 0
0 69 0
0 62 0
0 70 0
0 61 0
0 66 0
0 64 0
0 62 0
0 62 0
0 65 0
0 61 0
0 72 0
0 70 0
0 52 0
0 64 0
0 74 0
0 63 0
0 64 0
0 66 0
0 64 0
0 78 0
0 62 0
0 67 0
0 67 0
0 65 0
0 53 0
0 70 0
0 58 0
0 61 0
0 69 0
0 68 0
0 68 0
0 58 0
0 60 0
0 64 0
0 62 0
0 59 0
0 61 0
0 66 0
0 58 0
0 60 0
0 68 0
0 59 0
0 72 0
0 76 0
0 62 0
0 76 0
0 68 0
0 62 0
0 68 0
0 66 0
0 62 0
0 60 0
0 80 0
0 69 0
0 70 0
0 56 0
0 72 0
0 58 0
0 61 0
0 59 0
0 76 0
0 66 0
0 56 0
0 68 0
0 68 0
0 59 0
0 68 0
0 73 0
0 58 0
0 66 0
0 65 0
0 64 0
0 63 0
0 71 0
0 59 0
0 67 0
0 71 0
0 60 0
0 65 0
0 66 0
0 75 0
0 71 0
0 66 0
0 63 0
0 60 0
0 64 0
0 50 0
0 69 0
0 73 0
0 57 0
0 62 0
0 54 0
0 55 0
0 68 0
0 61 0
0 62 0
0 58 0
0 57 0
0 69 0
0 55 0
0 56 0
0 63 0
0 53 0
0 61 0
0 57 0
0 60 0
0 59 0
0 73 0
0 67 0
0 66 0
0 60 0
0 61 0
0 73 0
0 54 0
0 62 0
0 72 0
0 59 0
0 67 0
0 61 0
0 53 0
0 65 0
0 64 0
0 56 0
0 71 0
0 60 0
0 57 0
0 70 0
0 54 0
0 58 0
0 67 0
0 61 0
0 61 0
0 55 0
0 61 0
0 58 0
0 56 0
0 57 0
0 60 0
0 65 0
0 60 0
0 55 0
0 61 0
0 59 0
0 61 0
0 61 0
0 50 0
0 53 0
0 70 0
0 67 0
0 57 0
0 62 0
0 69 0
0 67 0
0 66 0
0 59 0
0 52 0
0 53 0
0 70 0
0 52 0
0 42 0
0 61 0
0 57 0
0 56 0
0 67 0
0 58 0
0 58 0
0 64 0
0 57 0
0 51 0
0 55 0
0 50 0
0 65 0
0 61 0
0 57 0
0 60 0
0 49 0
0 60 0
0 54 0
0 56 0
0 58 0
0 51 0
0 56 0
0 52 0
0 59 0
0 72 0
0 49 0
0 58 0
0 58 0
0 51 0
0 49 0
0 51 0
0 55 0
0 42 0
0 66 0
0 63 0
0 52 0
0 60 0
0 61 0
0 66 0
0 61 0
0 58 0
0 59 0
0 63 0
0 67 0
0 64 0
0 59 0
0 61 0
0 50 0
0 50 0
0 49 0
0 55 0
0 60 0
0 62 0
0 63 0
0 58 0
0 60 0
0 62 0
0 43 0
0 61 0
0 72 0
0 53 0
0 58 0
0 60 0
0 59 0
0 62 0
0 62 0
0 52 0
0 63 0
0 58 0
0 56 0
0 57 0
0 60 0
0 71 0
0 67 0
0 63 0
0 60 0
0 65 0
0 57 0
0 62 0
0 59 0
0 54 0
0 57 0
0 58 0
0 60 0
0 54 0
0 63 0
0 58 0
0 56 0
0 56 0
0 58 0
0 66 0
0 61 0
0 55 0
0 58 0
0 59 0
0 61 0
0 57 0
0 60 0
0 65 0
0 59 0
0 64 0
0 59 0
0 59 0
0 51 0
0 51 0
0 63 0
0 66 0
0 67 0
0 65 0
0 58 0
0 54 0
0 65 0
0 66 0
0 59 0
0 51 0
0 68 0
0 61 0
0 59 0
0 61 0
0 62 0
0 69 0
0 57 0
0 54 0
0 53 0
0 66 0
0 74 0
0 62 0
0 62 0
0 76 0
0 60 0
0 56 0
0 57 0
0 66 0
0 59 0
0 60 0
0 67 0
0 64 0
0 63 0
0 54 0
0 52 0
0 60 0
0 61 0
0 58 0
0 72 0
0 62 0
0 72 0
0 71 0
0 55 0
0 60 0
0 64 0
0 64 0
0 63 0
0 56 0
0 69 0
0 72 0
0 63 0
0 56 0
0 70 0
0 61 0
0 59 0
0 58 0
0 61 0
0 70 0
0 74 0
0 50 0
0 63 0
0 57 0
0 65 0
0 68 0
0 55 0
0 55 0
0 70 0
0 63 0
0 60 0
0 66 0
0 58 0
0 63 0
0 65 0
0 67 0
0 58 0
0 68 0
0 66 0
0 61 0
0 57 0
0 58 0
0 64 0
0 63 0
0 63 0
0 54 0
0 57 0
0 73 0
0 58 0
0 56 0
0 72 0
0 61 0
0 70 0
0 68 0
0 73 0
0 64 0
0 58 0
0 61 0
0 69 0
0 56 0
0 59 0
0 59 0
0 55 0
0 78 0
0 70 0
0 63 0
0 76 0
0 63 0
0 63 0
0 61 0
0 53 0
0 67 0
0 67 0
0 63 0
0 72 0
0 69 0
0 65 0
0 76 0
0 73 0
0 68 0
0 65 0
0 78 0
0 68 0
0 65 0
0 60 0
0 69 0
0 63 0
0 59 0
0 75 0
0 62 0
0 59 0
0 56 0
0 63 0
0 66 0
0 64 0
0 71 0
0 66 0
0 64 0
0 58 0
0 63 0
0 68 0
0 65 0
0 65 0
0 67 0
0 67 0
0 57 0
0 69 0
0 71 0
0 82 0
0 63 0
0 63 0
0 63 0
0 63 0
0 67 0
0 65 0
0 75 0
0 68 0
0 64 0
0 74 0
0 77 0
0 63 0
0 62 0
0 56 0
0 68 0
0 62 0
0 69 0
0 67 0
0 59 0
0 57 0
0 67 0
0 75 0
0 70 0
0 63 0
0 62 0
0 62 0
0 66 0
0 59 0
0 63 0
0 66 0
0 55 0
0 66 0
0 60 0
0 62 0
0 65 0
0 62 0
0 75 0
0 65 0
0 57 0
0 68 0
0 59 0
0 68 0
0 69 0
0 60 0
0 71 0
0 69 0
0 56 0
0 62 0
0 65 0
0 68 0
0 71 0
0 72 0
0 62 0
0 69 0
0 65 0
0 61 0
0 61 0
0 63 0
0 62 0
0 68 0
0 71 0
0 55 0
0 61 0
0 62 0
0 55 0
0 53 0
0 61 0
0 47 0
0 61 0
0 57 0
0 69 0
0 63 0
0 62 0
0 59 0
0 67 0
0 57 0
0 68 0
0 59 0
0 64 0
0 65 0
0 58 0
0 57 0
0 61 0
0 55 0
0 51 0
0 67 0
0 61 0
0 51 0
0 69 0
0 63 0
0 65 0
0 57 0
0 62 0
0 56 0
0 65 0
0 59 0
0 51 0
0 62 0
0 49 0
0 58 0
0 56 0
0 58 0
0 62 0
0 61 0
0 61 0
0 59 0
0 60 0
0 57 0
0 64 0
0 49 0
0 57 0
0 67 0
0 66 0
0 69 0
0 63 0
0 61 0
0 61 0
0 54 0
0 67 0
0 58 0
0 60 0
0 58 0
0 54 0
0 55 0
0 59 0
0 61 0
0 67 0
0 59 0
0 55 0
0 61 0
0 57 0
0 61 0
0 64 0
0 47 0
0 60 0
0 61 0
0 60 0
0 62 0
0 65 0
0 50 0
0 61 0
0 63 0
0 54 0
0 66 0
0 54 0
0 53 0
0 52 0
0 67 0
0 53 0
0 56 0
0 60 0
0 49 0
0 58 0
0 64 0
0 62 0
0 62 0
0 55 0
0 62 0
0 59 0
0 67 0
0 55 0
0 50 0
0 64 0
0 50 0
0 66 0
0 61 0
0 57 0
0 53 0
0 54 0
0 49 0
0 70 0
0 50 0
0 69 0
0 61 0
0 53 0
0 62 0
0 53 0
0 55 0
0 63 0
0 51 0
0 61 0
0 62 0
0 65 0
0 60 0
0 60 0
0 50 0
0 56 0
0 63 0
0 56 0
0 55 0
0 64 0
0 62 0
0 66 0
0 60 0
0 66 0
0 57 0
0 56 0
0 59 0
0 63 0
0 56 0
0 55 0
0 57 0
0 53 0
0 47 0
0 61 0
0 50 0
0 57 0
0 55 0
0 57 0
0 60 0
0 57 0
0 56 0
0 63 0
0 57 0
0 61 0
0 59 0
0 64 0
0 59 0
0 52 0
0 64 0
0 64 0
0 64 0
0 59 0
0 59 0
0 53 0
0 58 0
0 58 0
0 49 0
0 62 0
0 53 0
0 56 0
0 62 0
0 64 0
0 58 0
0 64 0
0 65 0
0 56 0
0 66 0
0 63 0
0 60 0
0 54 0
0 60 0
0 68 0
0 60 0
0 55 0
0 64 0
0 68 0
0 57 0
0 63 0
0 56 0
0 64 0
0 60 0
0 67 0
0 55 0
0 58 0
0 53 0
0 62 0
0 68 0
0 63 0
0 60 0
0 60 0
0 51 0
0 61 0
0 59 0
0 61 0
0 50 0
0 66 0
0 62 0
0 63 0
0 67 0
0 56 0
0 56 0
0 61 0
0 57 0
0 73 0
0 59 0
0 52 0
0 67 0
0 57 0
0 49 0
0 60 0
0 55 0
0 63 0
0 71 0
0 67 0
0 66 0
0 70 0
0 65 0
0 60 0
0 64 0
0 76 0
0 56 0
0 54 0
0 60 0
0 54 0
0 59 0
0 58 0
0 60 0
0 58 0
0 59 0
0 60 0
0 60 0
0 62 0
0 69 0
0 69 0
0 54 0
0 54 0
0 61 0
0 62 0
0 63 0
0 60 0
0 63 0
0 56 0
0 75 0
0 54 0
0 58 0
0 59 0
0 59 0
0 69 0
0 65 0
0 60 0
0 61 0
0 66 0
0 61 0
0 59 0
0 72 0
0 68 0
0 58 0
0 56 0
0 63 0
0 59 0
0 64 0
0 51 0
0 65 0
0 73 0
0 47 0
0 63 0
0 61 0
0 63 0
0 62 0
0 53 0
0 60 0
0 66 0
0 63 0
0 58 0
0 62 0
0 59 0
0 56 0
0 55 0
0 57 0
0 68 0
0 58 0
0 54 0
0 68 0
0 65 0
0 58 0
0 62 0
0 72 0
0 66 0
0 62 0
0 65 0
0 67 0
0 68 0
0 68 0
0 69 0
0 75 0
0 68 0
0 75 0
0 75 0
0 65 0
0 66 0
0 67 0
0 66 0
0 62 0
0 66 0
0 69 0
0 67 0
0 67 0
0 68 0
0 66 0
0 63 0
0 71 0
0 66 0
0 66 0
0 62 0
0 75 0
0 61 0
0 62 0
0 66 0
0 65 0
0 65 0
0 74 0
0 58 0
0 65 0
0 65 0
0 67 0
0 71 0
0 63 0
0 72 0
0 72 0
0 69 0
0 65 0
0 72 0
0 69 0
0 65 0
0 59 0
0 58 0
0 61 0
0 72 0
0 57 0
0 68 0
0 68 0
0 65 0
0 63 0
0 71 0
0 71 0
0 73 0
0 71 0
0 59 0
0 69 0
0 62 0
0 61 0
0 58 0
0 67 0
0 72 0
0 74 0
0 58 0
0 67 0
0 60 0
0 72 0
0 66 0
0 63 0
0 76 0
0 63 0
0 64 0
0 65 0
0 70 0
0 69 0
0 56 0
0 67 0
0 61 0
0 71 0
0 61 0
0 66 0
0 61 0
0 66 0
0 65 0
0 66 0
0 65 0
0 49 0
0 61 0
0 61 0
0 58 0
0 63 0
0 77 0
0 64 0
0 68 0
0 56 0
0 65 0
0 73 0
0 56 0
0 56 0
0 53 0
0 56 0
0 66 0
0 71 0
0 61 0
0 63 0
0 59 0
0 66 0
0 64 0
0 63 0
0 70 0
0 67 0
0 64 0
0 59 0
0 64 0
0 58 0
0 56 0
0 62 0
0 60 0
0 64 0
0 63 0
0 59 0
0 63 0
0 58 0
0 61 0
0 63 0
0 58 0
0 64 0
0 53 0
0 62 0
0 64 0
0 67 0
0 59 0
0 63 0
0 71 0
0 57 0
0 67 0
0 63 0
0 67 0
0 60 0
0 54 0
0 61 0
0 64 0
0 71 0
0 57 0
0 64 0
0 61 0
0 66 0
0 65 0
0 55 0
0 52 0
0 66 0
0 59 0
0 62 0
0 59 0
0 54 0
0 67 0
0 42 0
0 58 0
0 62 0
0 61 0
0 57 0
0 56 0
0 61 0
0 59 0
0 66 0
0 62 0
0 55 0
0 66 0
0 63 0
0 61 0
0 55 0
0 58 0
0 54 0
0 53 0
0 54 0
0 47 0
0 54 0
0 60 0
0 58 0
0 53 0
0 61 0
0 67 0
0 56 0
0 56 0
0 63 0
0 62 0
0 52 0
0 60 0
0 56 0
0 58 0
0 65 0
0 52 0
0 56 0
0 61 0
0 59 0
0 53 0
0 64 0
0 63 0
0 64 0
0 61 0
0 55 0
0 72 0
0 60 0
0 55 0
0 57 0
0 65 0
0 64 0
0 50 0
0 52 0
0 68 0
0 50 0
0 61 0
0 60 0
0 63 0
0 60 0
0 65 0
0 52 0
0 57 0
0 47 0
0 58 0
0 58 0
0 54 0
0 65 0
0 57 0
0 57 0
0 56 0
0 50 0
0 73 0
0 53 0
0 63 0
0 45 0
0 55 0
0 65 0
0 63 0
0 58 0
0 57 0
0 57 0
0 50 0
0 66 0
0 61 0
0 59 0
0 64 0
0 62 0
0 60 0
0 58 0
0 53 0
0 65 0
0 59 0
0 58 0
0 64 0
0 52 0
0 59 0
0 55 0
0 63 0
0 59 0
0 65 0
0 58 0
0 59 0
0 56 0
0 63 0
0 50 0
0 57 0
0 60 0
0 59 0
0 47 0
0 53 0
0 60 0
0 59 0
0 50 0
0 52 0
0 54 0
0 60 0
0 65 0
0 50 0
0 66 0
0 58 0
0 56 0
0 63 0
0 63 0
0 65 0
0 59 0
0 52 0
0 56 0
0 58 0
0 61 0
0 60 0
0 68 0
0 61 0
0 59 0
0 65 0
0 61 0
0 61 0
0 60 0
0 55 0
0 65 0
0 62 0
0 65 0
0 55 0
0 60 0
0 56 0
0 56 0
0 57 0
0 68 0
0 68 0
0 59 0
0 59 0
0 62 0
0 63 0
0 59 0
0 58 0
0 58 0
0 66 0
0 64 0
0 68 0
0 57 0
0 61 0
0 58 0
0 65 0
0 61 0
0 56 0
0 60 0
0 52 0
0 62 0
0 66 0
0 64 0
0 62 0
0 72 0
0 59 0
0 62 0
0 72 0
0 67 0
0 63 0
0 54 0
0 66 0
0 68 0
0 64 0
0 74 0
0 61 0
0 71 0
0 57 0
0 67 0
0 50 0
0 66 0
0 75 0
0 64 0
0 60 0
0 66 0
0 62 0
0 60 0
0 62 0
0 49 0
0 53 0
0 57 0
0 51 0
0 63 0
0 64 0
0 68 0
0 64 0
0 60 0
0 62 0
0 75 0
0 63 0
0 51 0
0 63 0
0 56 0
0 74 0
0 56 0
0 62 0
0 54 0
0 57 0
0 74 0
0 65 0
0 54 0
0 68 0
0 61 0
0 67 0
0 57 0
0 60 0
0 64 0
0 58 0
0 53 0
0 74 0
0 60 0
0 68 0
0 63 0
0 60 0
0 59 0
0 65 0
0 79 0
0 64 0
0 63 0
0 42 0
0 63 0
0 61 0
0 62 0
0 65 0
0 61 0
0 65 0
0 71 0
0 68 0
0 71 0
0 68 0
0 66 0
0 67 0
0 63 0
0 68 0
0 67 0
0 63 0
0 71 0
0 73 0
0 70 0
0 73 0
0 68 0
0 68 0
0 72 0
0 64 0
0 72 0
0 63 0
0 56 0
0 64 0
0 61 0
0 72 0
0 70 0
0 68 0
0 54 0
0 68 0
0 68 0
0 72 0
0 67 0
0 66 0
0 67 0
0 78 0
0 62 0
0 59 0
0 68 0
0 79 0
0 63 0
0 62 0
0 60 0
0 66 0
0 69 0
0 72 0
0 66 0
0 62 0
0 75 0
0 70 0
0 60 0
0 68 0
0 61 0
0 61 0
0 67 0
0 68 0
0 69 0
0 60 0
0 71 0
0 64 0
0 75 0
0 74 0
0 67 0
0 69 0
0 65 0
0 60 0
0 62 0
0 61 0
0 64 0
0 68 0
0 57 0
0 57 0
0 64 0
0 72 0
0 64 0
0 61 0
0 71 0
0 68 0
0 66 0
0 73 0
0 63 0
0 63 0
0 70 0
0 61 0
0 66 0
0 60 0
0 70 0
0 55 0
0 63 0
0 64 0
0 56 0
0 65 0
0 69 0
0 59 0
0 71 0
0 70 0
0 62 0
0 60 0
0 70 0
0 62 0
0 65 0
0 62 0
0 67 0
0 59 0
0 64 0
0 54 0
0 55 0
0 56 0
0 58 0
0 65 0
0 59 0
0 58 0
0 56 0
0 69 0
0 61 0
0 62 0
0 57 0
0 61 0
0 63 0
0 61 0
0 59 0
0 59 0
0 51 0
0 66 0
0 65 0
0 60 0
0 57 0
0 59 0
0 57 0
0 65 0
0 68 0
0 59 0
0 70 0
0 71 0
0 64 0
0 57 0
0 60 0
0 47 0
0 57 0
0 62 0
0 61 0
0 58 0
0 58 0
0 64 0
0 60 0
0 56 0
0 49 0
0 54 0
0 55 0
0 64 0
0 59 0
0 55 0
0 56 0
0 58 0
0 58 0
0 64 0
0 62 0
0 56 0
0 78 0
0 68 0
0 59 0
0 62 0
0 61 0
0 63 0
0 62 0
0 70 0
0 58 0
0 57 0
0 51 0
0 57 0
0 53 0
0 62 0
0 43 0
0 63 0
0 54 0
0 68 0
0 62 0
0 59 0
0 58 0
0 62 0
0 56 0
0 70 0
0 63 0
0 60 0
0 53 0
0 62 0
0 56 0
0 59 0
0 49 0
0 64 0
0 55 0
0 63 0
0 66 0
0 67 0
0 54 0
0 59 0
0 52 0
0 60 0
0 60 0
0 54 0
0 56 0
0 55 0
0 67 0
0 55 0
0 55 0
0 62 0
0 62 0
0 58 0
0 52 0
0 65 0
0 60 0
0 60 0
0 53 0
0 64 0
0 61 0
0 54 0
0 62 0
0 64 0
0 54 0
0 71 0
0 54 0
0 58 0
0 60 0
0 59 0
0 56 0
0 64 0
0 53 0
0 73 0
0 56 0
0 55 0
0 56 0
0 64 0
0 64 0
0 51 0
0 46 0
0 52 0
0 60 0
0 53 0
0 59 0
0 69 0
0 57 0
0 54 0
0 66 0
0 57 0
0 54 0
0 58 0
0 55 0
0 55 0
0 58 0
0 62 0
0 60 0
0 59 0
0 76 0
0 68 0
0 62 0
0 64 0
0 53 0
0 58 0
0 61 0
0 60 0
0 62 0
0 55 0
0 51 0
0 64 0
0 67 0
0 54 0
0 53 0
0 51 0
0 68 0
0 56 0
0 64 0
0 60 0
0 50 0
0 49 0
0 60 0
0 79 0
0 61 0
0 62 0
0 63 0
0 64 0
0 52 0
0 65 0
0 66 0
0 56 0
0 61 0
0 58 0
0 65 0
0 62 0
0 60 0
0 68 0
0 71 0
0 67 0
0 56 0
0 65 0
0 66 0
0 63 0
0 54 0
0 58 0
0 70 0
0 64 0
0 56 0
0 60 0
0 63 0
0 57 0
0 61 0
0 57 0
0 72 0
0 63 0
0 66 0
0 56 0
0 56 0
0 62 0
0 69 0
0 66 0
0 58 0
0 56 0
0 62 0
0 66 0
0 59 0
0 64 0
0 65 0
0 62 0
0 61 0
0 61 0
0 75 0
0 52 0
0 51 0
0 74 0
0 63 0
0 65 0
0 56 0
0 62 0
0 62 0
0 71 0
0 49 0
0 65 0
0 48 0
0 61 0
0 63 0
0 59 0
0 64 0
0 70 0
0 61 0
0 53 0
0 63 0
0 61 0
0 69 0
0 64 0
0 64 0
0 60 0
0 66 0
0 70 0
0 71 0
0 63 0
0 63 0
0 61 0
0 56 0
0 59 0
0 56 0
0 58 0
0 65 0
0 59 0
0 50 0
0 58 0
0 62 0
0 63 0
0 71 0
0 69 0
0 66 0
0 61 0
0 59 0
0 71 0
0 69 0
0 75 0
0 59 0
0 68 0
0 63 0
0 71 0
0 57 0
0 53 0
0 75 0
0 59 0
0 74 0
0 62 0
0 62 0
0 55 0
0 70 0
0 60 0
0 66 0
0 63 0
0 70 0
0 70 0
0 58 0
0 64 0
0 54 0
0 49 0
0 62 0
0 69 0
0 63 0
0 66 0
0 69 0
0 74 0
0 58 0
0 63 0
0 66 0
0 63 0
0 71 0
0 69 0
0 66 0
0 71 0
0 69 0
0 67 0
0 66 0
0 67 0
0 54 0
0 64 0
0 59 0
0 68 0
0 62 0
0 62 0
0 70 0
0 76 0
0 69 0
0 62 0
0 67 0
0 68 0
0 78 0
0 57 0
0 61 0
0 54 0
0 70 0
0 70 0
0 61 0
0 59 0
0 71 0
0 68 0
0 64 0
0 61 0
0 70 0
0 69 0
0 64 0
0 64 0
0 69 0
0 78 0
0 58 0
0 61 0
0 64 0
0 69 0
0 66 0
0 70 0
0 66 0
0 55 0
0 76 0
0 68 0
0 64 0
0 63 0
0 58 0
0 63 0
0 83 0
0 57 0
0 71 0
0 67 0
0 57 0
0 73 0
0 67 0
0 73 0
0 71 0
0 59 0
0 74 0
0 60 0
0 69 0
0 63 0
0 66 0
0 60 0
0 59 0
0 65 0
0 65 0
0 56 0
0 72 0
0 64 0
0 69 0
0 64 0
0 64 0
0 57 0
0 66 0
0 63 0
0 68 0
0 68 0
0 63 0
0 68 0
0 64 0
0 68 0
0 65 0
0 59 0
0 66 0
0 54 0
0 66 0
0 72 0
0 59 0
0 61 0
0 60 0
0 69 0
0 58 0
0 65 0
0 63 0
0 49 0
0 59 0
0 65 0
0 64 0
0 55 0
0 59 0
0 64 0
0 68 0
0 77 0
0 57 0
0 62 0
0 53 0
0 66 0
0 57 0
0 60 0
0 65 0
0 63 0
0 63 0
0 59 0
0 50 0
0 62 0
0 61 0
0 59 0
0 49 0
0 66 0
0 63 0
0 58 0
0 57 0
0 70 0
0 56 0
0 60 0
0 67 0
0 62 0
0 57 0
0 62 0
0 58 0
0 61 0
0 49 0
0 57 0
0 72 0
0 65 0
0 60 0
0 62 0
0 57 0
0 62 0
0 65 0
0 62 0
0 59 0
0 66 0
0 63 0
0 61 0
0 60 0
0 61 0
0 55 0
0 66 0
0 54 0
0 56 0
0 63 0
0 55 0
0 60 0
0 62 0
0 44 0
0 61 0
0 54 0
0 58 0
0 63 0
0 57 0
0 59 0
0 58 0
0 58 0
0 59 0
0 55 0
0 65 0
0 63 0
0 57 0
0 65 0
0 63 0
0 59 0
0 55 0
0 62 0
0 64 0
0 56 0
0 52 0
0 51 0
0 70 0
0 64 0
0 62 0
0 67 0
0 71 0
0 69 0
0 54 0
0 58 0
0 55 0
0 71 0
0 59 0
0 54 0
0 50 0
0 53 0
0 70 0
0 63 0
0 52 0
0 57 0
0 60 0
0 66 0
0 65 0
0 57 0
0 59 0
0 55 0
0 61 0
0 62 0
0 57 0
0 62 0
0 51 0
0 56 0
0 58 0
0 56 0
0 65 0
0 70 0
0 56 0
0 53 0
0 52 0
0 56 0
0 61 0
0 64 0
0 49 0
0 48 0
0 62 0
0 58 0
0 68 0
0 71 0
0 50 0
0 56 0
0 60 0
0 57 0
0 60 0
0 54 0
0 59 0
0 57 0
0 76 0
0 63 0
0 58 0
0 52 0
0 54 0
0 60 0
0 57 0
0 66 0
0 61 0
0 58 0
0 61 0
0 53 0
0 60 0
0 69 0
0 52 0
0 51 0
0 71 0
0 58 0
0 76 0
0 59 0
0 68 0
0 54 0
0 68 0
0 49 0
0 68 0
0 57 0
0 69 0
0 63 0
0 50 0
0 62 0
0 59 0
0 59 0
0 66 0
0 69 0
0 53 0
0 64 0
0 60 0
0 63 0
0 56 0
0 64 0
0 60 0
0 51 0
0 68 0
0 63 0
0 63 0
0 60 0
0 65 0
0 65 0
0 65 0
0 76 0
0 62 0
0 55 0
0 58 0
0 59 0
0 53 0
0 58 0
0 72 0
0 65 0
0 72 0
0 59 0
0 58 0
0 54 0
0 72 0
0 66 0
0 70 0
0 70 0
0 59 0
0 59 0
0 64 0
0 70 0
0 69 0
0 59 0
0 55 0
0 61 0
0 66 0
0 64 0
0 63 0
0 59 0
0 54 0
0 59 0
0 68 0
0 61 0
0 58 0
0 62 0
0 72 0
0 74 0
0 70 0
0 67 0
0 60 0
0 76 0
0 56 0
0 52 0
0 61 0
0 66 0
0 62 0
0 63 0
0 64 0
0 68 0
0 61 0
0 47 0
0 66 0
0 64 0
0 68 0
0 54 0
0 56 0
0 62 0
0 52 0
0 60 0
0 59 0
0 48 0
0 58 0
0 57 0
0 66 0
0 67 0
0 55 0
0 73 0
0 66 0
0 55 0
0 72 0
0 60 0
0 58 0
0 66 0
0 64 0
0 57 0
0 68 0
0 69 0
0 64 0
0 63 0
0 64 0
0 74 0
0 60 0
0 74 0
0 61 0
0 50 0
0 70 0
0 48 0
0 64 0
0 60 0
0 48 0
0 69 0
0 59 0
0 48 0
0 68 0
0 68 0
0 65 0
0 64 0
0 61 0
0 69 0
0 65 0
0 61 0
0 63 0
0 63 0
0 57 0
0 59 0
0 59 0
0 64 0
0 58 0
0 60 0
0 65 0
0 64 0
0 80 0
0 68 0
0 67 0
0 73 0
0 64 0
0 64 0
0 71 0
0 67 0
0 74 0
0 66 0
0 73 0
0 67 0
0 64 0
0 64 0
0 61 0
0 67 0
0 68 0
0 67 0
0 68 0
0 69 0
0 55 0
0 62 0
0 75 0
0 67 0
0 60 0
0 72 0
0 66 0
0 72 0
0 71 0
0 67 0
0 72 0
0 68 0
0 75 0
0 60 0
0 71 0
0 63 0
0 66 0
0 71 0
0 77 0
0 65 0
0 62 0
0 70 0
0 64 0
0 62 0
0 69 0
0 66 0
0 65 0
0 73 0
0 66 0
0 69 0
0 67 0
0 67 0
0 57 0
0 74 0
0 61 0
0 64 0
0 60 0
0 67 0
0 67 0
0 55 0
0 61 0
0 68 0
0 65 0
0 70 0
0 75 0
0 65 0
0 58 0
0 66 0
0 69 0
0 56 0
0 64 0
0 72 0
0 60 0
0 68 0
0 63 0
0 70 0
0 68 0
0 67 0
0 57 0
0 67 0
0 70 0
0 63 0
0 73 0
0 66 0
0 53 0
0 64 0
0 67 0
0 69 0
0 60 0
0 71 0
0 61 0
0 64 0
0 57 0
0 66 0
0 63 0
0 66 0
0 65 0
0 57 0
0 53 0
0 57 0
0 56 0
0 69 0
0 71 0
0 61 0
0 69 0
0 62 0
0 59 0
0 58 0
0 62 0
0 56 0
0 66 0
0 66 0
0 62 0
0 67 0
0 65 0
0 63 0
0 56 0
0 61 0
0 61 0
0 66 0
0 62 0
0 50 0
0 67 0
0 64 0
0 64 0
0 61 0
0 61 0
0 66 0
0 67 0
0 68 0
0 57 0
0 58 0
0 65 0
0 63 0
0 65 0
0 67 0
0 55 0
0 53 0
0 67 0
0 69 0
0 60 0
0 62 0
0 59 0
0 61 0
0 65 0
0 64 0
0 59 0
0 63 0
0 57 0
0 69 0
0 55 0
0 63 0
0 60 0
0 66 0
0 56 0
0 62 0
0 51 0
0 57 0
0 59 0
0 56 0
0 51 0
0 56 0
0 65 0
0 47 0
0 57 0
0 55 0
0 71 0
0 64 0
0 69 0
0 57 0
0 59 0
0 55 0
0 66 0
0 64 0
0 52 0
0 57 0
0 67 0
0 63 0
0 58 0
0 55 0
0 69 0
0 51 0
0 68 0
0 62 0
0 58 0
0 48 0
0 54 0
0 65 0
0 60 0
0 55 0
0 60 0
0 63 0
0 66 0
0 45 0
0 61 0
0 71 0
0 47 0
0 69 0
0 57 0
0 70 0
0 55 0
0 56 0
0 58 0
0 56 0
0 64 0
0 53 0
0 55 0
0 61 0
0 56 0
0 62 0
0 61 0
0 57 0
0 55 0
0 58 0
0 56 0
0 55 0
0 62 0
0 59 0
0 51 0
0 65 0
0 50 0
0 63 0
0 62 0
0 67 0
0 57 0
0 73 0
0 57 0
0 59 0
0 59 0
0 66 0
0 52 0
0 57 0
0 60 0
0 68 0
0 55 0
0 59 0
0 58 0
0 56 0
0 59 0
0 66 0
0 48 0
0 57 0
0 60 0
0 65 0
0 60 0
0 68 0
0 63 0
0 73 0
0 59 0
0 58 0
0 65 0
0 50 0
0 61 0
0 69 0
0 59 0
0 53 0
0 72 0
0 60 0
0 64 0
0 56 0
0 68 0
0 59 0
0 57 0
0 59 0
0 67 0
0 64 0
0 58 0
0 65 0
0 71 0
0 53 0
0 69 0
0 61 0
0 68 0
0 54 0
0 59 0
0 61 0
0 55 0
0 62 0
0 58 0
0 63 0
0 54 0
0 70 0
0 60 0
0 59 0
0 58 0
0 62 0
0 55 0
0 63 0
0 65 0
0 62 0
0 61 0
0 55 0
0 68 0
0 58 0
0 59 0
0 54 0
0 67 0
0 61 0
0 68 0
0 56 0
0 48 0
0 66 0
0 62 0
0 59 0
0 59 0
0 57 0
0 63 0
0 59 0
0 59 0
0 53 0
0 70 0
0 60 0
0 68 0
0 58 0
0 68 0
0 63 0
0 63 0
0 63 0
0 56 0
0 63 0
0 62 0
0 54 0
0 60 0
0 62 0
0 55 0
0 67 0
0 53 0
0 72 0
0 71 0
0 60 0
0 62 0
0 64 0
0 65 0
0 61 0
0 65 0
0 57 0
0 69 0
0 72 0
0 68 0
0 61 0
0 63 0
0 64 0
0 70 0
0 49 0
0 56 0
0 61 0
0 69 0
0 64 0
0 48 0
0 60 0
0 59 0
0 72 0
0 56 0
0 61 0
0 62 0
0 65 0
0 66 0
0 68 0
0 56 0
0 65 0
0 59 0
0 60 0
0 57 0
0 59 0
0 76 0
0 62 0
0 65 0
0 68 0
0 58 0
0 59 0
0 63 0
0 68 0
0 59 0
0 65 0
0 64 0
0 62 0
0 70 0
0 66 0
0 64 0
0 65 0
0 63 0
0 65 0
0 60 0
0 62 0
0 69 0
0 69 0
0 51 0
0 64 0
0 56 0
0 60 0
0 62 0
0 67 0
0 72 0
0 62 0
0 50 0
0 55 0
0 65 0
0 70 0
0 78 0
0 58 0
0 66 0
0 69 0
0 63 0
0 81 0
0 68 0
0 72 0
0 60 0
0 65 0
0 72 0
0 71 0
0 65 0
0 70 0
0 69 0
0 60 0
0 69 0
0 79 0
0 64 0
0 70 0
0 67 0
0 71 0
0 73 0
0 54 0
0 71 0
0 62 0
0 66 0
0 69 0
0 66 0
0 68 0
0 69 0
0 69 0
0 54 0
0 59 0
0 59 0
0 66 0
0 64 0
0 59 0
0 70 0
0 65 0
0 70 0
0 70 0
0 66 0
0 66 0
0 61 0
0 62 0
0 74 0
0 53 0
0 69 0
0 68 0
0 67 0
0 56 0
0 70 0
0 65 0
0 66 0
0 70 0
0 62 0
0 65 0
0 61 0
0 66 0
0 68 0
0 64 0
0 59 0
0 64 0
0 58 0
0 64 0
0 63 0
0 66 0
0 64 0
0 68 0
0 46 0
0 64 0
0 66 0
0 60 0
0 57 0
0 55 0
0 65 0
0 71 0
0 59 0
0 76 0
0 69 0
0 64 0
0 61 0
0 65 0
0 66 0
0 66 0
0 67 0
0 62 0
0 70 0
0 63 0
0 56 0
0 65 0
0 57 0
0 76 0
0 55 0
0 59 0
0 55 0
0 66 0
0 68 0
0 73 0
0 74 0
0 61 0
0 64 0
0 62 0
0 57 0
0 58 0
0 53 0
0 61 0
0 71 0
0 69 0
0 72 0
0 70 0
0 60 0
0 59 0
0 63 0
0 73 0
0 60 0
0 54 0
0 62 0
0 61 0
0 66 0
0 67 0
0 61 0
0 68 0
0 70 0
0 56 0
0 63 0
0 53 0
0 67 0
0 64 0
0 64 0
0 59 0
0 57 0
0 61 0
0 70 0
0 66 0
0 61 0
0 54 0
0 70 0
0 60 0
0 48 0
0 67 0
0 68 0
0 66 0
0 71 0
0 56 0
0 58 0
0 65 0
0 67 0
0 55 0
0 66 0
0 63 0
0 58 0
0 60 0
0 69 0
0 59 0
0 71 0
0 49 0
0 70 0
0 61 0
0 66 0
0 63 0
0 66 0
0 48 0
0 62 0
0 61 0
0 53 0
0 61 0
0 56 0
0 58 0
0 60 0
0 56 0
0 62 0
0 60 0
0 51 0
0 59 0
0 66 0
0 66 0
0 53 0
0 58 0
0 63 0
0 62 0
0 55 0
0 53 0
0 66 0
0 57 0
0 66 0
0 57 0
0 61 0
0 53 0
0 56 0
0 61 0
0 66 0
0 60 0
0 49 0
0 68 0
0 57 0
0 58 0
0 63 0
0 70 0
0 62 0
0 54 0
0 55 0
0 52 0
0 67 0
0 60 0
0 52 0
0 62 0
0 68 0
0 60 0
0 52 0
0 47 0
0 47 0
0 53 0
0 65 0
0 56 0
0 69 0
0 59 0
0 49 0
0 62 0
0 70 0
0 50 0
0 58 0
0 70 0
0 63 0
0 54 0
0 64 0
0 59 0
0 58 0
0 51 0
0 60 0
0 60 0
0 65 0
0 60 0
0 64 0
0 59 0
0 52 0
0 58 0
0 55 0
0 66 0
0 51 0
0 55 0
0 63 0
0 59 0
0 67 0
0 65 0
0 60 0
0 52 0
0 63 0
0 55 0
0 59 0
0 64 0
0 55 0
0 54 0
0 46 0
0 63 0
0 63 0
0 59 0
0 59 0
0 56 0
0 54 0
0 52 0
0 48 0
0 58 0
0 61 0
0 61 0
0 63 0
0 62 0
0 62 0
0 58 0
0 65 0
0 57 0
0 64 0
0 52 0
0 67 0
0 59 0
0 64 0
0 60 0
0 66 0
0 58 0
0 59 0
0 63 0
0 58 0
0 59 0
0 56 0
0 57 0
0 67 0
0 59 0
0 64 0
0 70 0
0 66 0
0 59 0
0 56 0
0 61 0
0 73 0
0 70 0
0 62 0
0 56 0
0 57 0
0 62 0
0 55 0
0 68 0
0 62 0
0 59 0
0 66 0
0 61 0
0 58 0
0 56 0
0 63 0
0 55 0
0 58 0
0 69 0
0 61 0
0 58 0
0 65 0
0 51 0
0 63 0
0 51 0
0 53 0
0 59 0
0 65 0
0 60 0
0 68 0
0 74 0
0 69 0
0 60 0
0 50 0
0 57 0
0 65 0
0 62 0
0 64 0
0 60 0
0 59 0
0 73 0
0 61 0
0 58 0
0 64 0
0 63 0
0 62 0
0 52 0
0 57 0
0 67 0
0 59 0
0 65 0
0 64 0
0 67 0
0 61 0
0 61 0
0 62 0
0 65 0
0 57 0
0 61 0
0 65 0
0 53 0
0 48 0
0 70 0
0 56 0
0 63 0
0 51 0
0 75 0
0 51 0
0 58 0
0 64 0
0 48 0
0 72 0
0 66 0
0 71 0
0 74 0
0 73 0
0 53 0
0 67 0
0 66 0
0 68 0
0 64 0
0 57 0
0 65 0
0 60 0
0 67 0
0 67 0
0 63 0
0 56 0
0 61 0
0 71 0
0 64 0
0 62 0
0 52 0
0 55 0
0 62 0
0 61 0
0 71 0
0 66 0
0 59 0
0 57 0
0 68 0
0 71 0
0 74 0
0 69 0
0 68 0
0 66 0
0 67 0
0 69 0
0 70 0
0 72 0
0 63 0
0 55 0
0 61 0
0 67 0
0 71 0
0 66 0
0 78 0
0 64 0
0 57 0
0 72 0
0 67 0
0 71 0
0 64 0
0 66 0
0 65 0
0 68 0
0 68 0
0 69 0
0 65 0
0 72 0
0 68 0
0 65 0
0 68 0
0 64 0
0 69 0
0 65 0
0 72 0
0 58 0
0 61 0
0 62 0
0 62 0
0 64 0
0 73 0
0 58 0
0 60 0
0 59 0
0 63 0
0 63 0
0 72 0
0 76 0
0 61 0
0 58 0
0 67 0
0 69 0
0 66 0
0 73 0
0 75 0
0 64 0
0 62 0
0 61 0
0 60 0
0 49 0
0 56 0
0 62 0
0 64 0
0 68 0
0 73 0
0 66 0
0 64 0
0 67 0
0 67 0
0 68 0
0 59 0
0 63 0
0 72 0
0 73 0
0 61 0
0 68 0
0 65 0
0 67 0
0 58 0
0 51 0
0 69 0
0 66 0
0 72 0
0 69 0
0 68 0
0 62 0
0 63 0
0 61 0
0 59 0
0 60 0
0 57 0
0 62 0
0 66 0
0 58 0
0 79 0
0 67 0
0 64 0
0 68 0
0 57 0
0 63 0
0 71 0
0 72 0
0 61 0
0 61 0
0 70 0
0 63 0
0 63 0
0 66 0
0 71 0
0 61 0
0 62 0
0 63 0
0 69 0
0 61 0
0 63 0
0 62 0
0 63 0
0 59 0
0 67 0
0 51 0
0 67 0
0 60 0
0 63 0
0 59 0
0 60 0
0 62 0
0 71 0
0 64 0
0 65 0
0 70 0
0 67 0
0 67 0
0 60 0
0 60 0
0 67 0
0 72 0
0 66 0
0 62 0
0 57 0
0 58 0
0 62 0
0 71 0
0 69 0
0 61 0
0 53 0
0 53 0
0 60 0
0 57 0
0 58 0
0 58 0
0 65 0
0 71 0
0 57 0
0 62 0
0 69 0
0 54 0
0 53 0
0 56 0
0 67 0
0 55 0
0 66 0
0 63 0
0 64 0
0 60 0
0 66 0
0 64 0
0 62 0
0 68 0
0 59 0
0 69 0
0 70 0
0 56 0
0 61 0
0 71 0
0 59 0
0 61 0
0 73 0
0 67 0
0 59 0
0 60 0
0 64 0
0 55 0
0 61 0
0 65 0
0 66 0
0 61 0
0 61 0
0 48 0
0 61 0
0 65 0
0 61 0
0 59 0
0 62 0
0 66 0
0 47 0
0 61 0
0 62 0
0 56 0
0 61 0
0 65 0
0 59 0
0 54 0
0 61 0
0 47 0
0 62 0
0 71 0
0 52 0
0 51 0
0 60 0
0 69 0
0 57 0
0 63 0
0 54 0
0 56 0
0 52 0
0 62 0
0 55 0
0 61 0
0 54 0
0 61 0
0 52 0
0 65 0
0 65 0
0 54 0
0 63 0
0 63 0
0 50 0
0 59 0
0 57 0
0 60 0
0 63 0
0 62 0
0 65 0
0 62 0
0 63 0
0 59 0
0 54 0
0 59 0
0 42 0
0 51 0
0 61 0
0 65 0
0 66 0
0 63 0
0 59 0
0 44 0
0 58 0
0 52 0
0 59 0
0 55 0
0 51 0
0 53 0
0 56 0
0 56 0
0 54 0
0 63 0
0 55 0
0 65 0
0 61 0
0 60 0
0 66 0
0 62 0
0 55 0
0 60 0
0 58 0
0 63 0
0 59 0
0 63 0
0 61 0
0 56 0
0 63 0
0 66 0
0 56 0
0 60 0
0 55 0
0 54 0
0 52 0
0 70 0
0 54 0
0 64 0
0 63 0
0 74 0
0 66 0
0 68 0
0 65 0
0 67 0
0 60 0
0 64 0
0 61 0
0 68 0
0 52 0
0 70 0
0 71 0
0 57 0
0 64 0
0 54 0
0 69 0
0 54 0
0 65 0
0 65 0
0 60 0
0 59 0
0 68 0
0 67 0
0 50 0
0 70 0
0 63 0
0 66 0
0 58 0
0 66 0
0 59 0
0 65 0
0 52 0
0 58 0
0 77 0
0 66 0
0 60 0
0 59 0
0 66 0
0 57 0
0 73 0
0 57 0
0 66 0
0 59 0
0 55 0
0 62 0
0 57 0
0 65 0
0 71 0
0 60 0
0 63 0
0 64 0
0 61 0
0 54 0
0 66 0
0 64 0
0 53 0
0 53 0
0 65 0
0 74 0
0 59 0
0 67 0
0 64 0
0 62 0
0 64 0
0 50 0
0 67 0
0 50 0
0 58 0
0 61 0
0 54 0
0 62 0
0 62 0
0 58 0
0 59 0
0 66 0
0 59 0
0 70 0
0 61 0
0 55 0
0 61 0
0 65 0
0 66 0
0 60 0
0 64 0
0 61 0
0 60 0
0 62 0
0 56 0
0 63 0
0 54 0
0 67 0
0 52 0
0 59 0
0 67 0
0 63 0
0 70 0
0 64 0
0 63 0
0 59 0
0 57 0
0 60 0
0 76 0
0 67 0
0 64 0
0 69 0
0 53 0
0 59 0
0 63 0
0 52 0
0 61 0
0 66 0
0 60 0
0 69 0
0 64 0
0 63 0
0 61 0
0 69 0
0 77 0
0 63 0
0 61 0
0 58 0
0 59 0
0 63 0
0 64 0
0 65 0
0 67 0
0 75 0
0 60 0
0 70 0
0 58 0
0 76 0
0 64 0
0 73 0
0 62 0
0 61 0
0 63 0
0 59 0
0 68 0
0 73 0
0 65 0
0 69 0
0 74 0
0 70 0
0 61 0
0 66 0
0 61 0
0 58 0
0 70 0
0 68 0
0 73 0
0 62 0
0 63 0
0 72 0
0 62 0
0 63 0
0 67 0
0 58 0
0 63 0
0 67 0
0 68 0
0 68 0
0 64 0
0 58 0
0 63 0
0 70 0
0 64 0
0 65 0
0 68 0
0 68 0
0 62 0
0 68 0
0 80 0
0 67 0
0 56 0
0 72 0
0 63 0
0 59 0
0 72 0
0 74 0
0 69 0
0 66 0
0 67 0
0 69 0
0 62 0
0 65 0
0 73 0
0 71 0
0 68 0
0 71 0
0 53 0
0 68 0
0 63 0
0 60 0
0 70 0
0 65 0
0 67 0
0 60 0
0 69 0
0 61 0
0 63 0
0 55 0
0 69 0
0 75 0
0 59 0
0 67 0
0 73 0
0 63 0
0 61 0
0 75 0
0 62 0
0 52 0
0 61 0
0 67 0
0 68 0
0 62 0
0 57 0
0 61 0
0 60 0
0 68 0
0 62 0
0 69 0
0 68 0
0 65 0
0 66 0
0 68 0
0 62 0
0 57 0
0 72 0
0 67 0
0 63 0
0 65 0
0 59 0
0 53 0
0 63 0
0 71 0
0 67 0
0 77 0
0 70 0
0 69 0
0 60 0
0 59 0
0 60 0
0 58 0
0 75 0
0 57 0
0 67 0
0 61 0
0 59 0
0 59 0
0 60 0
0 69 0
0 58 0
0 58 0
0 58 0
0 56 0
0 54 0
0 60 0
0 67 0
0 46 0
0 66 0
0 62 0
0 58 0
0 62 0
0 56 0
0 60 0
0 68 0
0 61 0
0 62 0
0 59 0
0 60 0
0 62 0
0 66 0
0 55 0
0 55 0
0 61 0
0 65 0
0 74 0
0 65 0
0 60 0
0 51 0
0 70 0
0 64 0
0 65 0
0 61 0
0 57 0
0 59 0
0 61 0
0 55 0
0 56 0
0 59 0
0 62 0
0 63 0
0 62 0
0 52 0
0 69 0
0 56 0
0 71 0
0 60 0
0 61 0
0 69 0
0 61 0
0 57 0
0 61 0
0 58 0
0 69 0
0 61 0
0 58 0
0 59 0
0 61 0
0 60 0
0 61 0
0 59 0
0 58 0
0 67 0
0 50 0
0 63 0
0 64 0
0 50 0
0 59 0
0 70 0
0 66 0
0 55 0
0 60 0
0 58 0
0 56 0
0 50 0
0 64 0
0 47 0
0 59 0
0 51 0
0 70 0
0 64 0
0 60 0
0 66 0
0 44 0
0 69 0
0 59 0
0 65 0
0 60 0
0 53 0
0 55 0
0 67 0
0 61 0
0 56 0
0 63 0
0 48 0
0 51 0
0 62 0
0 54 0
0 62 0
0 66 0
0 55 0
0 52 0
0 57 0
0 61 0
0 57 0
0 58 0
0 73 0
0 63 0
0 50 0
0 50 0
0 60 0
0 70 0
0 57 0
0 59 0
0 62 0
0 63 0
0 58 0
0 69 0
0 58 0
0 54 0
0 61 0
0 55 0
0 50 0
0 66 0
0 46 0
0 60 0
0 67 0
0 66 0
0 61 0
0 58 0
0 52 0
0 61 0
0 57 0
0 63 0
0 61 0
0 63 0
0 64 0
0 55 0
0 51 0
0 64 0
0 60 0
0 63 0
0 57 0
0 58 0
0 66 0
0 58 0
0 59 0
0 60 0
0 70 0
0 58 0
0 62 0
0 62 0
0 55 0
0 61 0
0 62 0
0 67 0
0 72 0
0 51 0
0 64 0
0 52 0
0 60 0
0 67 0
0 64 0
0 70 0
0 70 0
0 56 0
0 62 0
0 61 0
0 50 0
0 65 0
0 63 0
0 66 0
0 60 0
0 65 0
0 61 0
0 81 0
0 52 0
0 71 0
0 67 0
0 66 0
0 59 0
0 67 0
0 55 0
0 56 0
0 62 0
0 57 0
0 68 0
0 57 0
0 67 0
0 67 0
0 51 0
0 60 0
0 70 0
0 59 0
0 61 0
0 66 0
0 57 0
0 54 0
0 57 0
0 66 0
0 60 0
0 68 0
0 63 0
0 55 0
0 62 0
0 64 0
0 78 0
0 60 0
0 65 0
0 60 0
0 59 0
0 59 0
0 59 0
0 69 0
0 59 0
0 60 0
0 62 0
0 74 0
0 55 0
0 62 0
0 62 0
0 70 0
0 54 0
0 65 0
0 61 0
0 65 0
0 60 0
0 62 0
0 65 0
0 56 0
0 58 0
0 63 0
0 75 0
0 72 0
0 56 0
0 71 0
0 60 0
0 74 0
0 64 0
0 58 0
0 65 0
0 62 0
0 55 0
0 58 0
0 58 0
0 59 0
0 63 0
0 72 0
0 72 0
0 64 0
0 60 0
0 54 0
0 61 0
0 65 0
0 72 0
0 60 0
0 64 0
0 53 0
0 60 0
0 65 0
0 67 0
0 70 0
0 64 0
0 69 0
0 56 0
0 54 0
0 71 0
0 53 0
0 58 0
0 68 0
0 63 0
0 65 0
0 52 0
0 67 0
0 68 0
0 72 0
0 62 0
0 63 0
0 78 0
0 56 0
0 63 0
0 65 0
0 75 0
0 68 0
0 68 0
0 65 0
0 62 0
0 63 0
0 66 0
0 58 0
0 67 0
0 73 0
0 73 0
0 65 0
0 69 0
0 68 0
0 59 0
0 67 0
0 64 0
0 64 0
0 64 0
0 64 0
0 62 0
0 67 0
0 69 0
0 69 0
0 58 0
0 71 0
0 64 0
0 71 0
0 74 0
0 69 0
0 74 0
0 69 0
0 64 0
0 70 0
0 69 0
0 71 0
0 66 0
0 68 0
0 62 0
0 58 0
0 71 0
0 76 0
0 61 0
0 80 0
0 62 0
0 74 0
0 58 0
0 69 0
0 70 0
0 63 0
0 64 0
0 65 0
0 66 0
0 54 0
0 72 0
0 70 0
0 65 0
0 68 0
0 64 0
0 75 0
0 64 0
0 69 0
0 57 0
0 60 0
0 73 0
0 66 0
0 64 0
0 70 0
0 56 0
0 57 0
0 63 0
0 59 0
0 68 0
0 63 0
0 71 0
0 74 0
0 64 0
0 60 0
0 58 0
0 60 0
0 63 0
0 70 0
0 72 0
0 60 0
0 67 0
0 58 0
0 65 0
0 69 0
0 60 0
0 58 0
0 68 0
0 63 0
0 61 0
0 59 0
0 59 0
0 69 0
0 68 0
0 60 0
0 68 0
0 65 0
0 60 0
0 73 0
0 65 0
0 67 0
0 62 0
0 74 0
0 63 0
0 65 0
0 61 0
0 61 0
0 65 0
0 60 0
0 72 0
0 63 0
0 63 0
0 69 0
0 62 0
0 66 0
0 55 0
0 65 0
0 56 0
0 61 0
0 67 0
0 60 0
0 59 0
0 54 0
0 55 0
0 49 0
0 73 0
0 62 0
0 58 0
0 72 0
0 61 0
0 56 0
0 71 0
0 63 0
0 60 0
0 70 0
0 68 0
0 67 0
0 53 0
0 60 0
0 63 0
0 71 0
0 62 0
0 69 0
0 49 0
0 58 0
0 67 0
0 60 0
0 71 0
0 59 0
0 52 0
0 62 0
0 52 0
0 67 0
0 62 0
0 74 0
0 53 0
0 64 0
0 55 0
0 64 0
0 69 0
0 58 0
0 56 0
0 66 0
0 65 0
0 54 0
0 55 0
0 64 0
0 57 0
0 63 0
0 57 0
0 60 0
0 60 0
0 59 0
0 59 0
0 53 0
0 58 0
0 50 0
0 63 0
0 60 0
0 61 0
0 57 0
0 64 0
0 55 0
0 55 0
0 61 0
0 60 0
0 62 0
0 65 0
0 64 0
0 68 0
0 60 0
0 55 0
0 52 0
0 67 0
0 60 0
0 66 0
0 57 0
0 52 0
0 62 0
0 58 0
0 54 0
0 46 0
0 61 0
0 57 0
0 59 0
0 63 0
0 70 0
0 52 0
0 61 0
0 54 0
0 51 0
0 66 0
0 66 0
0 69 0
0 55 0
0 67 0
0 64 0
0 63 0
0 57 0
0 73 0
0 58 0
0 58 0
0 69 0
0 67 0
0 58 0
0 63 0
0 51 0
0 67 0
0 64 0
0 58 0
0 61 0
0 60 0
0 65 0
0 60 0
0 57 0
0 66 0
0 51 0
0 58 0
0 63 0
0 63 0
0 62 0
0 60 0
0 67 0
0 55 0
0 61 0
0 63 0
0 50 0
0 67 0
0 55 0
0 56 0
0 56 0
0 57 0
0 59 0
0 56 0
0 49 0
0 59 0
0 70 0
0 71 0
0 68 0
0 58 0
0 71 0
0 59 0
0 60 0
0 66 0
0 60 0
0 73 0
0 47 0
0 56 0
0 62 0
0 60 0
0 62 0
0 51 0
0 62 0
0 65 0
0 58 0
0 69 0
0 68 0
0 55 0
0 63 0
0 70 0
0 66 0
0 60 0
0 68 0
0 69 0
0 63 0
0 61 0
0 75 0
0 63 0
0 67 0
0 58 0
0 65 0
0 66 0
0 57 0
0 63 0
0 56 0
0 69 0
0 59 0
0 59 0
0 61 0
0 67 0
0 53 0
0 65 0
0 72 0
0 64 0
0 68 0
0 65 0
0 61 0
0 64 0
0 58 0
0 62 0
0 66 0
0 54 0
0 67 0
0 61 0
0 61 0
0 61 0
0 55 0
0 70 0
0 50 0
0 52 0
0 56 0
0 62 0
0 68 0
0 64 0
0 50 0
0 59 0
0 58 0
0 68 0
0 63 0
0 60 0
0 64 0
0 55 0
0 61 0
0 72 0
0 62 0
0 65 0
0 53 0
0 67 0
0 54 0
0 65 0
0 73 0
0 56 0
0 60 0
0 63 0
0 66 0
0 70 0
0 65 0
0 61 0
0 54 0
0 68 0
0 60 0
0 58 0
0 64 0
0 64 0
0 68 0
0 58 0
0 62 0
0 60 0
0 71 0
0 70 0
0 67 0
0 64 0
0 56 0
0 52 0
0 68 0
0 58 0
0 56 0
0 65 0
0 53 0
0 65 0
0 63 0
0 62 0
0 63 0
0 57 0
0 66 0
0 73 0
0 69 0
0 54 0
0 64 0
0 70 0
0 61 0
0 63 0
0 59 0
0 75 0
0 66 0
0 75 0
0 60 0
0 63 0
0 75 0
0 82 0
0 65 0
0 77 0
0 76 0
0 68 0
0 71 0
0 72 0
0 66 0
0 74 0
0 76 0
0 60 0
0 69 0
0 61 0
0 67 0
0 69 0
0 66 0
0 65 0
0 69 0
0 70 0
0 54 0
0 73 0
0 66 0
0 69 0
0 64 0
0 69 0
0 76 0
0 70 0
0 59 0
0 73 0
0 64 0
0 76 0
0 59 0
0 76 0
0 73 0
0 66 0
0 72 0
0 68 0
0 76 0
0 68 0
0 62 0
0 56 0
0 55 0
0 63 0
0 68 0
0 71 0
0 57 0
0 71 0
0 77 0
0 70 0
0 68 0
0 61 0
0 57 0
0 70 0
0 59 0
0 60 0
0 67 0
0 58 0
0 68 0
0 63 0
0 70 0
0 61 0
0 57 0
0 62 0
0 66 0
0 66 0
0 70 0
0 64 0
0 68 0
0 61 0
0 59 0
0 66 0
0 66 0
0 84 0
0 63 0
0 62 0
0 64 0
0 57 0
0 72 0
0 69 0
0 60 0
0 69 0
0 63 0
0 76 0
0 58 0
0 71 0
0 72 0
0 63 0
0 66 0
0 64 0
0 62 0
0 67 0
0 62 0
0 63 0
0 61 0
0 65 0
0 67 0
0 66 0
0 65 0
0 64 0
0 65 0
0 57 0
0 68 0
0 71 0
0 57 0
0 65 0
0 69 0
0 58 0
0 66 0
0 76 0
0 68 0
0 55 0
0 55 0
0 77 0
0 48 0
0 57 0
0 69 0
0 72 0
0 61 0
0 58 0
0 80 0
0 59 0
0 75 0
0 61 0
0 58 0
0 62 0
0 66 0
0 60 0
0 67 0
0 66 0
0 65 0
0 62 0
0 72 0
0 54 0
0 62 0
0 70 0
0 68 0
0 65 0
0 71 0
0 62 0
0 64 0
0 62 0
0 61 0
0 59 0
0 71 0
0 60 0
0 65 0
0 66 0
0 59 0
0 60 0
0 56 0
0 53 0
0 56 0
0 69 0
0 56 0
0 56 0
0 67 0
0 66 0
0 67 0
0 66 0
0 76 0
0 61 0
0 50 0
0 65 0
0 63 0
0 64 0
0 66 0
0 54 0
0 68 0
0 59 0
0 59 0
0 57 0
0 62 0
0 63 0
0 59 0
0 57 0
0 71 0
0 65 0
0 63 0
0 64 0
0 56 0
0 61 0
0 59 0
0 55 0
0 72 0
0 62 0
0 54 0
0 64 0
0 65 0
0 65 0
0 66 0
0 60 0
0 55 0
0 69 0
0 64 0
0 62 0
0 65 0
0 60 0
0 60 0
0 56 0
0 60 0
0 58 0
0 63 0
0 59 0
0 64 0
0 61 0
0 53 0
0 59 0
0 64 0
0 59 0
0 57 0
0 58 0
0 56 0
0 59 0
0 61 0
0 63 0
0 58 0
0 60 0
0 62 0
0 56 0
0 57 0
0 66 0
0 61 0
0 58 0
0 56 0
0 56 0
0 60 0
0 46 0
0 62 0
0 63 0
0 51 0
0 53 0
0 57 0
0 70 0
0 66 0
0 46 0
0 63 0
0 65 0
0 60 0
0 52 0
0 55 0
0 60 0
0 71 0
0 50 0
0 61 0
0 63 0
0 53 0
0 55 0
0 66 0
0 51 0
0 63 0
0 61 0
0 73 0
0 66 0
0 67 0
0 67 0
0 55 0
0 68 0
0 73 0
0 58 0
0 63 0
0 62 0
0 66 0
0 64 0
0 62 0
0 61 0
0 63 0
0 51 0
0 56 0
0 57 0
0 60 0
0 56 0
0 58 0
0 59 0
0 67 0
0 65 0
0 65 0
0 58 0
0 64 0
0 65 0
0 59 0
0 69 0
0 64 0
0 71 0
0 71 0
0 54 0
0 68 0
0 63 0
0 60 0
0 65 0
0 65 0
0 69 0
0 61 0
0 74 0
0 63 0
0 58 0
0 62 0
0 62 0
0 72 0
0 63 0
0 70 0
0 63 0
0 66 0
0 62 0
0 61 0
0 68 0
0 53 0
0 62 0
0 61 0
0 68 0
0 72 0
0 65 0
0 70 0
0 60 0
0 59 0
0 50 0
0 64 0
0 64 0
0 65 0
0 74 0
0 60 0
0 61 0
0 72 0
0 66 0
0 61 0
0 69 0
0 67 0
0 65 0
0 71 0
0 55 0
0 59 0
0 60 0
0 67 0
0 54 0
0 67 0
0 65 0
0 71 0
0 63 0
0 72 0
0 58 0
0 57 0
0 66 0
0 66 0
0 58 0
0 68 0
0 70 0
0 65 0
0 54 0
0 61 0
0 65 0
0 61 0
0 67 0
0 71 0
0 53 0
0 64 0
0 63 0
0 61 0
0 60 0
0 63 0
0 67 0
0 68 0
0 76 0
0 59 0
0 58 0
0 65 0
0 70 0
0 61 0
0 62 0
0 64 0
0 60 0
0 62 0
0 66 0
0 69 0
0 65 0
0 70 0
0 54 0
0 70 0
0 58 0
0 69 0
0 62 0
0 73 0
0 73 0
0 69 0
0 54 0
0 63 0
0 61 0
0 58 0
0 80 0
0 61 0
0 69 0
0 66 0
0 66 0
0 57 0
0 67 0
0 51 0
0 67 0
0 67 0
0 68 0
0 60 0
0 61 0
0 69 0
0 68 0
0 64 0
0 76 0
0 66 0
0 60 0
0 71 0
0 68 0
0 71 0
0 69 0
0 70 0
0 70 0
0 68 0
0 75 0
0 72 0
0 76 0
0 65 0
0 65 0
0 67 0
0 65 0
0 65 0
0 75 0
0 66 0
0 64 0
0 63 0
0 65 0
0 73 0
0 74 0
0 73 0
0 68 0
0 54 0
0 66 0
0 64 0
0 66 0
0 69 0
0 69 0
0 69 0
0 58 0
0 70 0
0 74 0
0 69 0
0 76 0
0 55 0
0 63 0
0 68 0
0 63 0
0 64 0
0 63 0
0 66 0
0 68 0
0 63 0
0 66 0
0 74 0
0 61 0
0 65 0
0 69 0
0 64 0
0 75 0
0 72 0
0 67 0
0 73 0
0 66 0
0 62 0
0 69 0
0 78 0
0 67 0
0 65 0
0 70 0
0 72 0
0 64 0
0 69 0
0 68 0
0 56 0
0 73 0
0 65 0
0 66 0
0 60 0
0 68 0
0 65 0
0 58 0
0 76 0
0 72 0
0 67 0
0 61 0
0 67 0
0 66 0
0 62 0
0 56 0
0 70 0
0 61 0
0 70 0
0 55 0
0 44 0
0 64 0
0 68 0
0 61 0
0 62 0
0 70 0
0 68 0
0 76 0
0 66 0
0 75 0
0 61 0
0 57 0
0 55 0
0 66 0
0 58 0
0 60 0
0 61 0
0 72 0
0 57 0
0 67 0
0 68 0
0 65 0
0 66 0
0 65 0
0 69 0
0 61 0
0 68 0
0 75 0
0 66 0
0 64 0
0 69 0
0 57 0
0 64 0
0 56 0
0 57 0
0 67 0
0 62 0
0 60 0
0 57 0
0 70 0
0 67 0
0 63 0
0 65 0
0 63 0
0 63 0
0 61 0
0 58 0
0 58 0
0 59 0
0 72 0
0 73 0
0 61 0
0 58 0
0 71 0
0 57 0
0 72 0
0 56 0
0 69 0
0 58 0
0 58 0
0 69 0
0 70 0
0 75 0
0 62 0
0 65 0
0 54 0
0 62 0
0 67 0
0 54 0
0 63 0
0 63 0
0 52 0
0 70 0
0 60 0
0 55 0
0 65 0
0 62 0
0 61 0
0 60 0
0 56 0
0 67 0
0 62 0
0 60 0
0 56 0
0 64 0
0 58 0
0 72 0
0 67 0
0 63 0
0 61 0
0 62 0
0 60 0
0 64 0
0 71 0
0 62 0
0 62 0
0 62 0
0 61 0
0 60 0
0 57 0
0 51 0
0 65 0
0 66 0
0 63 0
0 59 0
0 64 0
0 64 0
0 62 0
0 63 0
0 55 0
0 60 0
0 57 0
0 59 0
0 56 0
0 66 0
0 60 0
0 70 0
0 75 0
0 54 0
0 63 0
0 57 0
0 66 0
0 59 0
0 53 0
0 57 0
0 54 0
0 51 0
0 65 0
0 51 0
0 69 0
0 52 0
0 48 0
0 64 0
0 54 0
0 64 0
0 61 0
0 59 0
0 75 0
0 55 0
0 68 0
0 63 0
0 64 0
0 63 0
0 57 0
0 62 0
0 67 0
0 67 0
0 69 0
0 68 0
0 69 0
0 57 0
0 64 0
0 64 0
0 64 0
0 58 0
0 61 0
0 59 0
0 65 0
0 51 0
0 56 0
0 67 0
0 50 0
0 63 0
0 61 0
0 63 0
0 64 0
0 65 0
0 57 0
0 62 0
0 60 0
0 59 0
0 53 0
0 51 0
0 60 0
0 71 0
0 57 0
0 59 0
0 56 0
0 67 0
0 57 0
0 71 0
0 63 0
0 65 0
0 57 0
0 64 0
0 51 0
0 70 0
0 61 0
0 68 0
0 70 0
0 61 0
0 58 0
0 72 0
0 78 0
0 58 0
0 55 0
0 58 0
0 59 0
0 56 0
0 63 0
0 65 0
0 61 0
0 65 0
0 67 0
0 76 0
0 64 0
0 72 0
0 49 0
0 57 0
0 46 0
0 57 0
0 57 0
0 69 0
0 62 0
0 71 0
0 61 0
0 70 0
0 72 0
0 68 0
0 61 0
0 71 0
0 64 0
0 66 0
0 63 0
0 69 0
0 67 0
0 64 0
0 61 0
0 68 0
0 73 0
0 59 0
0 72 0
0 65 0
0 63 0
0 70 0
0 55 0
0 68 0
0 69 0
0 56 0
0 71 0
0 68 0
0 62 0
0 55 0
0 72 0
0 69 0
0 54 0
0 65 0
0 61 0
0 63 0
0 69 0
0 65 0
0 71 0
0 61 0
0 70 0
0 79 0
0 77 0
0 59 0
0 65 0
0 66 0
0 68 0
0 70 0
0 61 0
0 71 0
0 60 0
0 61 0
0 67 0
0 64 0
0 54 0
0 58 0
0 66 0
0 61 0
0 57 0
0 57 0
0 71 0
0 61 0
0 59 0
0 64 0
0 60 0
0 67 0
0 71 0
0 56 0
0 63 0
0 63 0
0 63 0
0 62 0
0 62 0
0 64 0
0 63 0
0 61 0
0 57 0
0 63 0
0 63 0
0 60 0
0 73 0
0 67 0
0 69 0
0 55 0
0 72 0
0 56 0
0 74 0
0 59 0
0 56 0
0 60 0
0 54 0
0 63 0
0 74 0
0 58 0
0 65 0
0 73 0
0 59 0
0 72 0
0 63 0
0 69 0
0 74 0
0 71 0
0 56 0
0 66 0
0 73 0
0 71 0
0 76 0
0 72 0
0 69 0
0 72 0
0 69 0
0 70 0
0 70 0
0 71 0
0 69 0
0 60 0
0 70 0
0 71 0
0 73 0
0 66 0
0 71 0
0 64 0
0 63 0
0 67 0
0 70 0
0 64 0
0 68 0
0 67 0
0 60 0
0 73 0
0 66 0
0 74 0
0 73 0
0 72 0
0 65 0
0 62 0
0 72 0
0 67 0
0 59 0
0 65 0
0 72 0
0 72 0
0 63 0
0 72 0
0 71 0
0 71 0
0 69 0
0 72 0
0 69 0
0 75 0
0 65 0
0 70 0
0 59 0
0 63 0
0 74 0
0 69 0
0 78 0
0 55 0
0 76 0
0 61 0
0 71 0
0 70 0
0 70 0
0 64 0
0 65 0
0 72 0
0 65 0
0 67 0
0 71 0
0 61 0
0 70 0
0 70 0
0 56 0
0 64 0
0 71 0
0 55 0
0 66 0
0 55 0
0 71 0
0 65 0
0 63 0
0 69 0
0 64 0
0 67 0
0 76 0
0 60 0
0 57 0
0 64 0
0 56 0
0 63 0
0 60 0
0 62 0
0 68 0
0 58 0
0 62 0
0 60 0
0 66 0
0 66 0
0 63 0
0 63 0
0 64 0
0 77 0
0 62 0
0 73 0
0 63 0
0 74 0
0 67 0
0 55 0
0 65 0
0 70 0
0 59 0
0 59 0
0 62 0
0 68 0
0 60 0
0 70 0
0 79 0
0 62 0
0 63 0
0 69 0
0 56 0
0 60 0
0 61 0
0 52 0
0 64 0
0 53 0
0 65 0
0 69 0
0 73 0
0 60 0
0 70 0
0 62 0
0 64 0
0 58 0
0 63 0
0 72 0
0 63 0
0 57 0
0 62 0
0 64 0
0 61 0
0 59 0
0 66 0
0 58 0
0 57 0
0 63 0
0 65 0
0 63 0
0 69 0
0 54 0
0 57 0
0 54 0
0 53 0
0 53 0
0 54 0
0 63 0
0 53 0
0 66 0
0 54 0
0 67 0
0 55 0
0 53 0
0 56 0
0 55 0
0 52 0
0 61 0
0 54 0
0 46 0
0 50 0
0 70 0
0 73 0
0 61 0
0 58 0
0 58 0
0 63 0
0 66 0
0 73 0
0 58 0
0 61 0
0 60 0
0 58 0
0 47 0
0 53 0
0 56 0
0 54 0
0 51 0
0 67 0
0 63 0
0 63 0
0 61 0
0 64 0
0 64 0
0 59 0
0 45 0
0 61 0
0 57 0
0 58 0
0 63 0
0 64 0
0 65 0
0 58 0
0 63 0
0 56 0
0 62 0
0 61 0
0 50 0
0 46 0
0 52 0
0 61 0
0 58 0
0 58 0
0 58 0
0 50 0
0 53 0
0 62 0
0 61 0
0 60 0
0 67 0
0 65 0
0 69 0
0 66 0
0 59 0
0 69 0
0 63 0
0 51 0
0 49 0
0 58 0
0 59 0
0 59 0
0 56 0
0 57 0
0 69 0
0 60 0
0 62 0
0 54 0
0 67 0
0 54 0
0 64 0
0 65 0
0 64 0
0 54 0
0 54 0
0 72 0
0 64 0
0 55 0
0 62 0
0 61 0
0 62 0
0 62 0
0 59 0
0 62 0
0 58 0
0 58 0
0 54 0
0 47 0
0 60 0
0 64 0
0 59 0
0 61 0
0 61 0
0 60 0
0 58 0
0 62 0
0 48 0
0 52 0
0 67 0
0 66 0
0 51 0
0 51 0
0 63 0
0 61 0
0 60 0
0 59 0
0 56 0
0 71 0
0 58 0
0 62 0
0 55 0
0 50 0
0 64 0
0 58 0
0 54 0
0 63 0
0 62 0
0 60 0
0 71 0
0 60 0
0 57 0
0 54 0
0 63 0
0 56 0
0 66 0
0 62 0
0 62 0
0 61 0
0 65 0
0 59 0
0 67 0
0 56 0
0 57 0
0 60 0
0 65 0
0 61 0
0 53 0
0 60 0
0 59 0
0 69 0
0 63 0
0 52 0
0 58 0
0 67 0
0 69 0
0 69 0
0 62 0
0 61 0
0 64 0
0 61 0
0 64 0
0 63 0
0 65 0
0 61 0
0 65 0
0 60 0
0 73 0
0 60 0
0 59 0
0 68 0
0 63 0
0 67 0
0 54 0
0 65 0
0 70 0
0 56 0
0 59 0
0 61 0
0 66 0
0 69 0
0 64 0
0 61 0
0 55 0
0 67 0
0 64 0
0 61 0
0 63 0
0 64 0
0 60 0
0 76 0
0 69 0
0 57 0
0 67 0
0 68 0
0 69 0
0 58 0
0 62 0
0 61 0
0 65 0
0 62 0
0 66 0
0 75 0
0 63 0
0 68 0
0 70 0
0 63 0
0 61 0
0 54 0
0 65 0
0 63 0
0 46 0
0 56 0
0 59 0
0 63 0
0 55 0
0 63 0
0 60 0
0 74 0
0 62 0
0 65 0
0 64 0
0 59 0
0 59 0
0 69 0
0 65 0
0 71 0
0 63 0
0 70 0
0 62 0
0 62 0
0 69 0
0 59 0
0 69 0
0 53 0
0 65 0
0 62 0
0 65 0
0 60 0
0 77 0
0 67 0
0 67 0
0 68 0
0 65 0
0 71 0
0 62 0
0 71 0
0 70 0
0 57 0
0 75 0
0 73 0
0 62 0
0 72 0
0 76 0
0 64 0
0 61 0
0 66 0
0 66 0
0 62 0
0 69 0
0 67 0
0 71 0
0 68 0
0 65 0
0 66 0
0 65 0
0 66 0
0 65 0
0 67 0
0 69 0
0 64 0
0 70 0
0 73 0
0 62 0
0 63 0
0 69 0
0 59 0
0 63 0
0 65 0
0 63 0
0 62 0
0 68 0
0 66 0
0 69 0
0 67 0
0 65 0
0 76 0
0 58 0
0 57 0
0 73 0
0 64 0
0 68 0
0 58 0
0 78 0
0 76 0
0 65 0
0 66 0
0 66 0
0 68 0
0 68 0
0 61 0
0 78 0
0 49 0
0 64 0
0 70 0
0 60 0
0 60 0
0 64 0
0 63 0
0 66 0
0 72 0
0 74 0
0 57 0
0 71 0
0 67 0
0 64 0
0 66 0
0 55 0
0 67 0
0 65 0
0 70 0
0 62 0
0 55 0
0 80 0
0 61 0
0 72 0
0 65 0
0 56 0
0 71 0
0 59 0
0 59 0
0 61 0
0 57 0
0 71 0
0 59 0
0 84 0
0 73 0
0 71 0
0 62 0
0 69 0
0 62 0
0 57 0
0 55 0
0 53 0
0 55 0
0 63 0
0 66 0
0 60 0
0 61 0
0 61 0
0 58 0
0 59 0
0 58 0
0 69 0
0 62 0
0 63 0
0 71 0
0 71 0
0 60 0
0 57 0
0 58 0
0 66 0
0 60 0
0 63 0
0 64 0
0 62 0
0 61 0
0 53 0
0 59 0
0 60 0
0 63 0
0 62 0
0 72 0
0 51 0
0 68 0
0 68 0
0 52 0
0 59 0
0 60 0
0 62 0
0 61 0
0 67 0
0 59 0
0 68 0
0 58 0
0 58 0
0 57 0
0 63 0
0 68 0
0 63 0
0 62 0
0 63 0
0 58 0
0 54 0
0 48 0
0 58 0
0 50 0
0 64 0
0 62 0
0 57 0
0 64 0
0 62 0
0 59 0
0 57 0
0 57 0
0 58 0
0 73 0
0 61 0
0 49 0
0 56 0
0 56 0
0 59 0
0 66 0
0 58 0
0 67 0
0 66 0
0 71 0
0 63 0
0 55 0
0 56 0
0 68 0
0 55 0
0 61 0
0 61 0
0 45 0
0 75 0
0 69 0
0 57 0
0 58 0
0 72 0
0 57 0
0 56 0
0 61 0
0 55 0
0 59 0
0 63 0
0 57 0
0 56 0
0 61 0
0 55 0
0 73 0
0 64 0
0 61 0
0 64 0
0 55 0
0 53 0
0 57 0
0 55 0
0 65 0
0 66 0
0 56 0
0 54 0
0 53 0
0 64 0
0 64 0
0 51 0
0 54 0
0 60 0
0 59 0
0 52 0
0 64 0
0 62 0
0 62 0
0 66 0
0 52 0
0 59 0
0 63 0
0 57 0
0 58 0
0 60 0
0 57 0
0 49 0
0 50 0
0 59 0
0 64 0
0 62 0
0 50 0
0 67 0
0 60 0
0 60 0
0 65 0
0 58 0
0 63 0
0 61 0
0 69 0
0 59 0
0 71 0
0 61 0
0 61 0
0 62 0
0 64 0
0 55 0
0 63 0
0 63 0
0 57 0
0 60 0
0 52 0
0 64 0
0 63 0
0 61 0
0 61 0
0 59 0
0 69 0
0 61 0
0 61 0
0 60 0
0 64 0
0 55 0
0 54 0
0 49 0
0 65 0
0 65 0
0 63 0
0 60 0
0 67 0
0 57 0
0 62 0
0 65 0
0 56 0
0 53 0
0 59 0
0 63 0
0 53 0
0 72 0
0 65 0
0 67 0
0 49 0
0 69 0
0 59 0
0 62 0
0 62 0
0 60 0
0 65 0
0 59 0
0 54 0
0 59 0
0 66 0
0 67 0
0 65 0
0 72 0
0 63 0
0 64 0
0 56 0
0 64 0
0 73 0
0 62 0
0 60 0
0 63 0
0 57 0
0 54 0
0 58 0
0 66 0
0 55 0
0 60 0
0 57 0
0 57 0
0 61 0
0 59 0
0 59 0
0 58 0
0 65 0
0 61 0
0 75 0
0 70 0
0 72 0
0 58 0
0 58 0
0 64 0
0 71 0
0 68 0
0 55 0
0 62 0
0 68 0
0 65 0
0 56 0
0 62 0
0 69 0
0 63 0
0 59 0
0 66 0
0 55 0
0 62 0
0 65 0
0 54 0
0 63 0
0 67 0
0 57 0
0 63 0
0 64 0
0 61 0
0 66 0
0 57 0
0 59 0
0 71 0
0 66 0
0 56 0
0 68 0
0 74 0
0 68 0
0 64 0
0 68 0
0 68 0
0 61 0
0 59 0
0 66 0
0 67 0
0 61 0
0 59 0
0 67 0
0 70 0
0 72 0
0 71 0
0 72 0
0 57 0
0 66 0
0 64 0
0 66 0
0 69 0
0 57 0
0 66 0
0 57 0
0 67 0
0 62 0
0 74 0
0 65 0
0 54 0
0 51 0
0 63 0
0 63 0
0 60 0
0 58 0
0 60 0
0 60 0
0 54 0
0 70 0
0 69 0
0 76 0
0 55 0
0 58 0
0 67 0
0 78 0
0 71 0
0 65 0
0 63 0
0 72 0
0 72 0
0 69 0
0 65 0
0 64 0
0 72 0
0 68 0
0 72 0
0 81 0
0 64 0
0 63 0
0 77 0
0 65 0
0 67 0
0 66 0
0 72 0
0 83 0
0 62 0
0 71 0
0 64 0
0 68 0
0 71 0
0 61 0
0 58 0
0 65 0
0 64 0
0 62 0
0 80 0
0 66 0
0 70 0
0 72 0
0 58 0
0 76 0
0 71 0
0 71 0
0 79 0
0 58 0
0 65 0
0 70 0
0 73 0
0 62 0
0 67 0
0 73 0
0 73 0
0 75 0
0 70 0
0 61 0
0 80 0
0 59 0
0 61 0
0 59 0
0 78 0
0 69 0
0 67 0
0 59 0
0 67 0
0 70 0
0 70 0
0 65 0
0 58 0
0 71 0
0 62 0
0 61 0
0 61 0
0 66 0
0 62 0
0 74 0
0 64 0
0 65 0
0 66 0
0 63 0
0 63 0
0 69 0
0 60 0
0 70 0
0 62 0
0 65 0
0 73 0
0 74 0
0 66 0
0 53 0
0 70 0
0 69 0
0 69 0
0 70 0
0 59 0
0 62 0
0 66 0
0 69 0
0 68 0
0 66 0
0 64 0
0 64 0
0 68 0
0 59 0
0 60 0
0 54 0
0 59 0
0 55 0
0 61 0
0 60 0
0 63 0
0 69 0
0 60 0
0 64 0
0 66 0
0 61 0
0 62 0
0 67 0
0 58 0
0 72 0
0 67 0
0 55 0
0 65 0
0 56 0
0 76 0
0 65 0
0 58 0
0 59 0
0 74 0
0 66 0
0 62 0
0 50 0
0 67 0
0 56 0
0 62 0
0 65 0
0 65 0
0 61 0
0 57 0
0 57 0
0 57 0
0 57 0
0 65 0
0 63 0
0 61 0
0 63 0
0 67 0
0 54 0
0 62 0
0 71 0
0 62 0
0 63 0
0 58 0
0 67 0
0 56 0
0 65 0
0 54 0
0 64 0
0 62 0
0 60 0
0 62 0
0 60 0
0 67 0
0 62 0
0 58 0
0 57 0
0 70 0
0 66 0
0 60 0
0 60 0
0 53 0
0 57 0
0 55 0
0 63 0
0 58 0
0 54 0
0 59 0
0 51 0
0 60 0
0 60 0
0 52 0
0 68 0
0 57 0
0 57 0
0 59 0
0 57 0
0 67 0
0 62 0
0 60 0
0 50 0
0 52 0
0 61 0
0 56 0
0 50 0
0 57 0
0 53 0
0 61 0
0 57 0
0 64 0
0 61 0
0 66 0
0 53 0
0 62 0
0 58 0
0 50 0
0 59 0
0 66 0
0 58 0
0 62 0
0 57 0
0 57 0
0 69 0
0 58 0
0 58 0
0 66 0
0 61 0
0 50 0
0 61 0
0 66 0
0 64 0
0 52 0
0 77 0
0 68 0
0 66 0
0 61 0
0 59 0
0 56 0
0 58 0
0 66 0
0 56 0
0 58 0
0 62 0
0 61 0
0 59 0
0 63 0
0 51 0
0 60 0
0 67 0
0 58 0
0 55 0
0 69 0
0 56 0
0 62 0
0 55 0
0 51 0
0 54 0
0 62 0
0 59 0
0 48 0
0 50 0
0 49 0
0 60 0
0 54 0
0 65 0
0 63 0
0 69 0
0 61 0
0 55 0
0 56 0
0 62 0
0 61 0
0 60 0
0 56 0
0 65 0
0 53 0
0 58 0
0 71 0
0 61 0
0 76 0
0 61 0
0 69 0
0 58 0
0 52 0
0 55 0
0 52 0
0 67 0
0 60 0
0 60 0
0 63 0
0 66 0
0 56 0
0 53 0
0 65 0
0 59 0
0 82 0
0 68 0
0 73 0
0 59 0
0 69 0
0 63 0
0 57 0
0 66 0
0 57 0
0 57 0
0 55 0
0 66 0
0 61 0
0 55 0
0 56 0
0 59 0
0 66 0
0 64 0
0 64 0
0 61 0
0 68 0
0 64 0
0 64 0
0 72 0
0 57 0
0 63 0
0 66 0
0 57 0
0 72 0
0 65 0
0 66 0
0 62 0
0 75 0
0 58 0
0 67 0
0 72 0
0 75 0
0 68 0
0 65 0
0 62 0
0 67 0
0 56 0
0 57 0
0 64 0
0 63 0
0 59 0
0 68 0
0 63 0
0 68 0
0 59 0
0 64 0
0 66 0
0 52 0
0 62 0
0 58 0
0 66 0
0 61 0
0 69 0
0 66 0
0 55 0
0 62 0
0 62 0
0 59 0
0 53 0
0 51 0
0 68 0
0 61 0
0 60 0
0 53 0
0 63 0
0 63 0
0 61 0
0 71 0
0 56 0
0 64 0
0 61 0
0 62 0
0 77 0
0 65 0
0 62 0
0 67 0
0 64 0
0 64 0
0 59 0
0 58 0
0 66 0
0 70 0
0 68 0
0 65 0
0 70 0
0 67 0
0 65 0
0 57 0
0 57 0
0 60 0
0 65 0
0 67 0
0 58 0
0 65 0
0 74 0
0 69 0
0 63 0
0 61 0
0 58 0
0 67 0
0 67 0
0 69 0
0 67 0
0 67 0
0 70 0
0 61 0
0 65 0
0 60 0
0 59 0
0 55 0
0 68 0
0 68 0
0 62 0
0 58 0
0 63 0
0 60 0
0 76 0
0 71 0
0 70 0
0 70 0
0 68 0
0 63 0
0 63 0
0 75 0
0 63 0
0 75 0
0 67 0
0 62 0
0 69 0
0 67 0
0 65 0
0 63 0
0 68 0
0 66 0
0 73 0
0 72 0
0 75 0
0 82 0
0 65 0
0 66 0
0 76 0
0 71 0
0 58 0
0 63 0
0 65 0
0 62 0
0 72 0
0 60 0
0 82 0
0 65 0
0 70 0
0 66 0
0 68 0
0 60 0
0 70 0
0 68 0
0 64 0
0 68 0
0 72 0
0 53 0
0 64 0
0 68 0
0 67 0
0 68 0
0 66 0
0 58 0
0 65 0
0 72 0
0 68 0
0 72 0
0 70 0
0 73 0
0 63 0
0 66 0
0 69 0
0 67 0
0 69 0
0 59 0
0 60 0
0 61 0
0 59 0
0 62 0
0 64 0
0 59 0
0 56 0
0 68 0
0 61 0
0 54 0
0 69 0
0 64 0
0 69 0
0 63 0
0 70 0
0 66 0
0 66 0
0 64 0
0 74 0
0 66 0
0 68 0
0 66 0
0 60 0
0 61 0
0 57 0
0 55 0
0 68 0
0 58 0
0 67 0
0 65 0
0 60 0
0 63 0
0 63 0
0 61 0
0 51 0
0 54 0
0 61 0
0 55 0
0 74 0
0 66 0
0 66 0
0 52 0
0 60 0
0 76 0
0 65 0
0 58 0
0 63 0
0 72 0
0 59 0
0 59 0
0 57 0
0 65 0
0 52 0
0 64 0
0 60 0
0 57 0
0 60 0
0 58 0
0 54 0
0 65 0
0 55 0
0 62 0
0 58 0
0 68 0
0 72 0
0 58 0
0 65 0
0 58 0
0 58 0
0 53 0
0 65 0
0 48 0
0 58 0
0 61 0
0 67 0
0 57 0
0 56 0
0 54 0
0 71 0
0 65 0
0 43 0
0 58 0
0 70 0
0 67 0
0 65 0
0 62 0
0 61 0
0 61 0
0 66 0
0 59 0
0 61 0
0 56 0
0 56 0
0 59 0
0 64 0
0 57 0
0 66 0
0 54 0
0 66 0
0 63 0
0 72 0
0 50 0
0 55 0
0 66 0
0 64 0
0 63 0
0 59 0
0 59 0
0 59 0
0 48 0
0 55 0
0 58 0
0 60 0
0 65 0
0 53 0
0 61 0
0 58 0
0 69 0
0 58 0
0 60 0
0 59 0
0 61 0
0 58 0
0 64 0
0 60 0
0 60 0
0 67 0
0 49 0
0 64 0
0 67 0
0 61 0
0 67 0
0 53 0
0 51 0
0 63 0
0 69 0
0 56 0
0 58 0
0 52 0
0 59 0
0 56 0
0 45 0
0 54 0
0 64 0
0 62 0
0 60 0
0 48 0
0 60 0
0 53 0
0 53 0
0 59 0
0 56 0
0 55 0
0 72 0
0 58 0
0 51 0
0 56 0
0 64 0
0 45 0
0 67 0
0 57 0
0 58 0
0 52 0
0 62 0
0 54 0
0 62 0
0 58 0
0 57 0
0 62 0
0 62 0
0 60 0
0 58 0
0 59 0
0 68 0
0 54 0
0 52 0
0 58 0
0 66 0
0 57 0
0 56 0
0 61 0
0 66 0
0 63 0
0 67 0
0 62 0
0 62 0
0 60 0
0 53 0
0 61 0
0 65 0
0 66 0
0 65 0
0 60 0
0 63 0
0 58 0
0 53 0
0 62 0
0 59 0
0 59 0
0 56 0
0 48 0
0 71 0
0 58 0
0 61 0
0 57 0
0 59 0
0 60 0
0 66 0
0 62 0
0 71 0
0 53 0
0 64 0
0 55 0
0 69 0
0 56 0
0 55 0
0 64 0
0 71 0
0 61 0
0 66 0
0 59 0
0 61 0
0 55 0
0 57 0
0 52 0
0 58 0
0 54 0
0 63 0
0 55 0
0 60 0
0 62 0
0 70 0
0 57 0
0 52 0
0 52 0
0 63 0
0 74 0
0 59 0
0 61 0
0 51 0
0 48 0
0 63 0
0 63 0
0 59 0
0 58 0
0 68 0
0 70 0
0 60 0
0 57 0
0 58 0
0 59 0
0 70 0
0 62 0
0 65 0
0 63 0
0 54 0
0 60 0
0 62 0
0 68 0
0 63 0
0 62 0
0 59 0
0 61 0
0 73 0
0 63 0
0 57 0
0 63 0
0 77 0
0 64 0
0 72 0
0 71 0
0 70 0
0 55 0
0 67 0
0 60 0
0 71 0
0 59 0
0 67 0
0 62 0
0 65 0
0 64 0
0 56 0
0 69 0
0 68 0
0 59 0
0 64 0
0 69 0
0 63 0
0 62 0
0 69 0
0 70 0
0 59 0
0 68 0
0 65 0
0 67 0
0 54 0
0 76 0
0 70 0
0 68 0
0 69 0
0 65 0
0 73 0
0 65 0
0 66 0
0 67 0
0 63 0
0 68 0
0 66 0
0 59 0
0 69 0
0 63 0
0 58 0
0 67 0
0 77 0
0 59 0
0 66 0
0 76 0
0 60 0
0 61 0
0 64 0
0 64 0
0 74 0
0 63 0
0 71 0
0 69 0
0 60 0
0 67 0
0 71 0
0 63 0
0 72 0
0 68 0
0 74 0
0 61 0
0 68 0
0 52 0
0 71 0
0 80 0
0 72 0
0 71 0
0 69 0
0 68 0
0 65 0
0 68 0
0 67 0
0 68 0
0 73 0
0 64 0
0 65 0
0 62 0
0 55 0
0 74 0
0 71 0
0 69 0
0 66 0
0 72 0
0 66 0
0 66 0
0 64 0
0 81 0
0 73 0
0 70 0
0 66 0
0 65 0
0 76 0
0 68 0
0 63 0
0 73 0
0 65 0
0 67 0
0 64 0
0 71 0
0 70 0
0 64 0
0 66 0
0 61 0
0 74 0
0 54 0
0 70 0
0 68 0
0 77 0
0 75 0
0 66 0
0 72 0
0 59 0
0 64 0
0 64 0
0 70 0
0 69 0
0 69 0
0 70 0
0 67 0
0 64 0
0 56 0
0 65 0
0 71 0
0 66 0
0 64 0
0 65 0
0 59 0
0 73 0
0 67 0
0 71 0
0 77 0
0 67 0
0 67 0
0 69 0
0 59 0
0 54 0
0 64 0
0 67 0
0 65 0
0 65 0
0 74 0
0 65 0
0 61 0
0 71 0
0 74 0
0 66 0
0 67 0
0 58 0
0 61 0
0 69 0
0 72 0
0 70 0
0 73 0
0 58 0
0 56 0
0 67 0
0 57 0
0 60 0
0 68 0
0 68 0
0 66 0
0 68 0
0 76 0
0 58 0
0 65 0
0 62 0
0 65 0
0 59 0
0 69 0
0 69 0
0 63 0
0 60 0
0 57 0
0 61 0
0 68 0
0 57 0
0 66 0
0 66 0
0 53 0
0 60 0
0 65 0
0 58 0
0 67 0
0 67 0
0 58 0
0 66 0
0 58 0
0 62 0
0 57 0
0 55 0
0 56 0
0 60 0
0 67 0
0 63 0
0 77 0
0 54 0
0 65 0
0 57 0
0 59 0
0 57 0
0 69 0
0 78 0
0 64 0
0 63 0
0 53 0
0 59 0
0 74 0
0 63 0
0 65 0
0 60 0
0 58 0
0 52 0
0 63 0
0 68 0
0 69 0
0 56 0
0 72 0
0 66 0
0 69 0
0 71 0
0 54 0
0 68 0
0 70 0
0 65 0
0 62 0
0 58 0
0 62 0
0 57 0
0 62 0
0 67 0
0 63 0
0 45 0
0 62 0
0 65 0
0 66 0
0 66 0
0 66 0
0 68 0
0 64 0
0 55 0
0 67 0
0 68 0
0 57 0
0 67 0
0 63 0
0 67 0
0 42 0
0 57 0
0 64 0
0 57 0
0 63 0
0 57 0
0 58 0
0 59 0
0 56 0
0 57 0
0 57 0
0 67 0
0 58 0
0 65 0
0 56 0
0 59 0
0 55 0
0 62 0
0 59 0
0 57 0
0 54 0
0 62 0
0 60 0
0 57 0
0 55 0
0 45 0
0 54 0
0 60 0
0 65 0
0 60 0
0 59 0
0 59 0
0 58 0
0 63 0
0 62 0
0 72 0
0 69 0
0 56 0
0 64 0
0 60 0
0 57 0
0 67 0
0 63 0
0 64 0
0 54 0
0 65 0
0 68 0
0 74 0
0 65 0
0 57 0
0 52 0
0 58 0
0 54 0
0 53 0
0 62 0
0 66 0
0 47 0
0 58 0
0 62 0
0 59 0
0 61 0
0 59 0
0 44 0
0 69 0
0 67 0
0 64 0
0 58 0
0 59 0
0 64 0
0 64 0
0 63 0
0 60 0
0 62 0
0 60 0
0 60 0
0 66 0
0 47 0
0 65 0
0 62 0
0 61 0
0 59 0
0 56 0
0 64 0
0 60 0
0 68 0
0 62 0
0 70 0
0 62 0
0 61 0
0 57 0
0 61 0
0 63 0
0 66 0
0 65 0
0 53 0
0 65 0
0 56 0
0 70 0
0 65 0
0 63 0
0 67 0
0 57 0
0 59 0
0 62 0
0 60 0
0 52 0
0 58 0
0 62 0
0 67 0
0 64 0
0 71 0
0 71 0
0 62 0
0 61 0
0 51 0
0 65 0
0 61 0
0 62 0
0 61 0
0 62 0
0 68 0
0 57 0
0 64 0
0 74 0
0 56 0
0 62 0
0 66 0
0 74 0
0 65 0
0 64 0
0 64 0
0 56 0
0 59 0
0 57 0
0 69 0
0 63 0
0 66 0
0 57 0
0 54 0
0 60 0
0 75 0
0 64 0
0 64 0
0 58 0
0 64 0
0 52 0
0 68 0
0 68 0
0 57 0
0 67 0
0 64 0
0 66 0
0 61 0
0 53 0
0 63 0
0 64 0
0 63 0
0 63 0
0 66 0
0 60 0
0 55 0
0 62 0
0 59 0
0 66 0
0 59 0
0 65 0
0 63 0
0 64 0
0 60 0
0 66 0
0 70 0
0 66 0
0 67 0
0 71 0
0 64 0
0 64 0
0 71 0
0 71 0
0 61 0
0 77 0
0 62 0
0 64 0
0 64 0
0 75 0
0 64 0
0 62 0
0 69 0
0 63 0
0 54 0
0 62 0
0 63 0
0 73 0
0 53 0
0 57 0
0 69 0
0 66 0
0 65 0
0 67 0
0 67 0
0 65 0
0 60 0
0 75 0
0 67 0
0 75 0
0 71 0
0 77 0
0 61 0
0 63 0
0 70 0
0 61 0
0 64 0
0 64 0
0 55 0
0 61 0
0 65 0
0 67 0
0 68 0
0 64 0
0 71 0
0 65 0
0 61 0
0 74 0
0 59 0
0 73 0
0 71 0
0 73 0
0 74 0
0 71 0
0 59 0
0 63 0
0 59 0
0 78 0
0 57 0
0 78 0
0 77 0
0 63 0
0 69 0
0 71 0
0 68 0
0 70 0
0 71 0
0 64 0
0 70 0
0 72 0
0 61 0
0 60 0
0 71 0
0 83 0
0 71 0
0 61 0
0 64 0
0 70 0
0 62 0
0 69 0
0 65 0
0 63 0
0 69 0
0 59 0
0 60 0
0 64 0
0 68 0
0 69 0
0 67 0
0 66 0
0 57 0
0 70 0
0 74 0
0 66 0
0 63 0
0 70 0
0 55 0
0 68 0
0 66 0
0 71 0
0 54 0
0 60 0
0 61 0
0 65 0
0 81 0
0 62 0
0 62 0
0 64 0
0 73 0
0 59 0
0 59 0
0 72 0
0 64 0
0 64 0
0 61 0
0 64 0
0 76 0
0 68 0
0 65 0
0 62 0
0 63 0
0 72 0
0 69 0
0 68 0
0 69 0
0 75 0
0 70 0
0 55 0
0 55 0
0 61 0
0 62 0
0 70 0
0 54 0
0 61 0
0 58 0
0 59 0
0 63 0
0 67 0
0 62 0
0 59 0
0 64 0
0 56 0
0 54 0
0 58 0
0 56 0
0 57 0
0 60 0
0 67 0
0 61 0
0 59 0
0 63 0
0 60 0
0 61 0
0 61 0
0 72 0
0 64 0
0 63 0
0 62 0
0 63 0
0 73 0
0 63 0
0 57 0
0 60 0
0 68 0
0 69 0
0 74 0
0 63 0
0 63 0
0 69 0
0 69 0
0 54 0
0 48 0
0 54 0
0 64 0
0 61 0
0 59 0
0 62 0
0 69 0
0 42 0
0 64 0
0 57 0
0 56 0
0 56 0
0 60 0
0 67 0
0 46 0
0 54 0
0 56 0
0 66 0
0 64 0
0 49 0
0 65 0
0 63 0
0 59 0
0 53 0
0 65 0
0 71 0
0 65 0
0 56 0
0 52 0
0 54 0
0 71 0
0 65 0
0 62 0
0 62 0
0 52 0
0 59 0
0 63 0
0 65 0
0 64 0
0 61 0
0 66 0
0 75 0
0 58 0
0 56 0
0 68 0
0 65 0
0 58 0
0 66 0
0 56 0
0 58 0
0 62 0
0 73 0
0 57 0
0 56 0
0 52 0
0 67 0
0 67 0
0 59 0
0 57 0
0 55 0
0 49 0
0 67 0
0 57 0
0 56 0
0 57 0
0 55 0
0 55 0
0 56 0
0 62 0
0 70 0
0 58 0
0 60 0
0 52 0
0 53 0
0 59 0
0 57 0
0 51 0
0 72 0
0 50 0
0 62 0
0 55 0
0 61 0
0 73 0
0 63 0
0 56 0
0 58 0
0 61 0
0 63 0
0 58 0
0 61 0
0 53 0
0 61 0
0 60 0
0 44 0
0 62 0
0 67 0
0 64 0
0 54 0
0 58 0
0 54 0
0 57 0
0 69 0
0 46 0
0 58 0
0 58 0
0 61 0
0 58 0
0 59 0
0 50 0
0 59 0
0 60 0
0 71 0
0 52 0
0 64 0
0 61 0
0 68 0
0 59 0
0 59 0
0 64 0
0 59 0
0 59 0
0 62 0
0 53 0
0 67 0
0 67 0
0 64 0
0 68 0
0 67 0
0 61 0
0 61 0
0 54 0
0 64 0
0 63 0
0 70 0
0 62 0
0 57 0
0 60 0
0 50 0
0 61 0
0 64 0
0 56 0
0 63 0
0 65 0
0 62 0
0 63 0
0 54 0
0 54 0
0 56 0
0 54 0
0 62 0
0 63 0
0 60 0
0 61 0
0 55 0
0 69 0
0 64 0
0 55 0
0 65 0
0 67 0
0 58 0
0 54 0
0 57 0
0 56 0
0 65 0
0 61 0
0 66 0
0 66 0
0 63 0
0 60 0
0 61 0
0 59 0
0 67 0
0 64 0
0 65 0
0 59 0
0 57 0
0 52 0
0 70 0
0 63 0
0 56 0
0 62 0
0 62 0
0 62 0
0 62 0
0 72 0
0 60 0
0 65 0
0 62 0
0 58 0
0 60 0
0 63 0
0 68 0
0 62 0
0 54 0
0 65 0
0 65 0
0 65 0
0 52 0
0 63 0
0 64 0
0 59 0
0 61 0
0 62 0
0 66 0
0 66 0
0 72 0
0 65 0
0 61 0
0 62 0
0 66 0
0 65 0
0 63 0
0 62 0
0 56 0
0 60 0
0 70 0
0 67 0
0 50 0
0 67 0
0 59 0
0 60 0
0 63 0
0 66 0
0 67 0
0 66 0
0 56 0
0 62 0
0 60 0
0 73 0
0 64 0
0 72 0
0 68 0
0 57 0
0 70 0
0 59 0
0 60 0
0 53 0
0 70 0
0 56 0
0 64 0
0 73 0
0 66 0
0 66 0
0 65 0
0 66 0
0 75 0
0 61 0
0 62 0
0 62 0
0 62 0
0 63 0
0 65 0
0 65 0
0 59 0
0 62 0
0 63 0
0 62 0
0 60 0
0 64 0
0 69 0
0 64 0
0 64 0
0 64 0
0 65 0
0 62 0
0 76 0
0 64 0
0 61 0
0 71 0
0 65 0
0 70 0
0 59 0
0 68 0
0 63 0
0 74 0
0 69 0
0 63 0
0 81 0
0 68 0
0 71 0
0 76 0
0 64 0
0 65 0
0 70 0
0 72 0
0 72 0
0 72 0
0 74 0
0 59 0
0 76 0
0 60 0
0 73 0
0 64 0
0 66 0
0 69 0
0 70 0
0 65 0
0 63 0
0 65 0
0 62 0
0 56 0
0 67 0
0 74 0
0 71 0
0 70 0
0 63 0
0 60 0
0 75 0
0 61 0
0 64 0
0 73 0
0 62 0
0 68 0
0 68 0
0 59 0
0 65 0
0 71 0
0 71 0
0 64 0
0 70 0
0 72 0
0 63 0
0 64 0
0 64 0
0 65 0
0 58 0
0 61 0
0 57 0
0 67 0
0 64 0
0 58 0
0 70 0
0 58 0
0 61 0
0 61 0
0 63 0
0 58 0
0 66 0
0 66 0
0 68 0
0 62 0
0 60 0
0 68 0
0 70 0
0 55 0
0 58 0
0 64 0
0 75 0
0 66 0
0 71 0
0 71 0
0 68 0
0 66 0
0 65 0
0 72 0
0 73 0
0 61 0
0 61 0
0 56 0
0 63 0
0 56 0
0 61 0
0 58 0
0 64 0
0 60 0
0 57 0
0 65 0
0 74 0
0 63 0
0 69 0
0 61 0
0 71 0
0 59 0
0 67 0
0 57 0
0 63 0
0 61 0
0 60 0
0 62 0
0 63 0
0 63 0
0 58 0
0 72 0
0 50 0
0 66 0
0 53 0
0 60 0
0 76 0
0 71 0
0 77 0
0 69 0
0 62 0
0 65 0
0 68 0
0 56 0
0 63 0
0 60 0
0 56 0
0 58 0
0 62 0
0 60 0
0 58 0
0 72 0
0 60 0
0 64 0
0 62 0
0 69 0
0 57 0
0 59 0
0 65 0
0 71 0
0 54 0
0 53 0
0 63 0
0 65 0
0 67 0
0 62 0
0 58 0
0 64 0
0 65 0
0 60 0
0 61 0
0 60 0
0 56 0
0 67 0
0 56 0
0 69 0
0 62 0
0 59 0
0 60 0
0 62 0
0 64 0
0 52 0
0 56 0
0 62 0
0 62 0
0 63 0
0 63 0
0 66 0
0 69 0
0 56 0
0 65 0
0 57 0
0 56 0
0 63 0
0 57 0
0 68 0
0 70 0
0 63 0
0 56 0
0 60 0
0 56 0
0 51 0
0 56 0
0 56 0
0 62 0
0 74 0
0 66 0
0 64 0
0 54 0
0 57 0
0 59 0
0 66 0
0 57 0
0 73 0
0 50 0
0 62 0
0 60 0
0 60 0
0 59 0
0 64 0
0 58 0
0 63 0
0 53 0
0 56 0
0 55 0
0 48 0
0 61 0
0 55 0
0 62 0
0 60 0
0 60 0
0 66 0
0 60 0
0 63 0
0 51 0
0 58 0
0 62 0
0 58 0
0 54 0
0 53 0
0 54 0
0 63 0
0 64 0
0 52 0
0 42 0
0 55 0
0 60 0
0 62 0
0 58 0
0 64 0
0 59 0
0 62 0
0 61 0
0 67 0
0 58 0
0 64 0
0 64 0
0 53 0
0 68 0
0 64 0
0 65 0
0 63 0
0 58 0
0 64 0
0 61 0
0 61 0
0 54 0
0 63 0
0 59 0
0 57 0
0 50 0
0 53 0
0 57 0
0 67 0
0 63 0
0 51 0
0 57 0
0 65 0
0 68 0
0 66 0
0 63 0
0 62 0
0 59 0
0 59 0
0 55 0
0 59 0
0 69 0
0 58 0
0 74 0
0 58 0
0 58 0
0 61 0
0 56 0
0 55 0
0 68 0
0 63 0
0 62 0
0 64 0
0 70 0
0 67 0
0 59 0
0 58 0
0 67 0
0 57 0
0 66 0
0 58 0
0 60 0
0 61 0
0 63 0
0 60 0
0 57 0
0 67 0
0 58 0
0 58 0
0 61 0
0 63 0
0 61 0
0 64 0
0 64 0
0 63 0
0 59 0
0 71 0
0 65 0
0 68 0
0 59 0
0 59 0
0 58 0
0 68 0
0 65 0
0 66 0
0 61 0
0 61 0
0 57 0
0 62 0
0 65 0
0 62 0
0 64 0
0 57 0
0 48 0
0 52 0
0 71 0
0 55 0
0 59 0
0 70 0
0 69 0
0 68 0
0 68 0
0 66 0
0 59 0
0 67 0
0 67 0
0 60 0
0 65 0
0 77 0
0 74 0
0 63 0
0 68 0
0 58 0
0 68 0
0 57 0
0 59 0
0 64 0
0 67 0
0 63 0
0 68 0
0 57 0
0 58 0
0 64 0
0 69 0
0 57 0
0 72 0
0 62 0
0 59 0
0 59 0
0 76 0
0 67 0
0 65 0
0 67 0
0 65 0
0 72 0
0 66 0
0 62 0
0 68 0
0 66 0
0 68 0
0 71 0
0 65 0
0 75 0
0 58 0
0 55 0
0 60 0
0 64 0
0 63 0
0 69 0
0 68 0
0 58 0
0 59 0
0 68 0
0 60 0
0 73 0
0 66 0
0 54 0
0 76 0
0 64 0
0 67 0
0 64 0
0 74 0
0 60 0
0 62 0
0 72 0
0 65 0
0 57 0
0 62 0
0 56 0
0 63 0
0 70 0
0 70 0
0 75 0
0 58 0
0 68 0
0 60 0
0 68 0
0 62 0
0 76 0
0 78 0
0 60 0
0 65 0
0 69 0
0 70 0
0 75 0
0 80 0
0 66 0
0 55 0
0 65 0
0 73 0
0 62 0
0 69 0
0 83 0
0 71 0
0 61 0
0 71 0
0 71 0
0 58 0
0 61 0
0 67 0
0 67 0
0 77 0
0 56 0
0 56 0
0 70 0
0 69 0
0 68 0
0 72 0
0 70 0
0 63 0
0 65 0
0 67 0
0 58 0
0 61 0
0 61 0
0 70 0
0 67 0
0 70 0
0 62 0
0 63 0
0 57 0
0 65 0
0 75 0
0 69 0
0 64 0
0 74 0
0 73 0
0 73 0
0 62 0
0 56 0
0 66 0
0 62 0
0 69 0
0 80 0
0 67 0
0 68 0
0 60 0
0 62 0
0 57 0
0 62 0
0 55 0
0 68 0
0 65 0
0 73 0
0 59 0
0 69 0
0 54 0
0 55 0
0 62 0
0 72 0
0 58 0
0 72 0
0 61 0
0 69 0
0 58 0
0 69 0
0 61 0
0 64 0
0 67 0
0 52 0
0 68 0
0 64 0
0 63 0
0 58 0
0 68 0
0 72 0
0 55 0
0 68 0
0 61 0
0 63 0
0 63 0
0 54 0
0 71 0
0 66 0
0 63 0
0 68 0
0 58 0
0 58 0
0 52 0
0 72 0
0 60 0
0 72 0
0 63 0
0 67 0
0 54 0
0 63 0
0 66 0
0 57 0
0 61 0
0 61 0
0 68 0
0 66 0
0 61 0
0 59 0
0 63 0
0 55 0
0 74 0
0 56 0
0 70 0
0 62 0
0 61 0
0 68 0
0 72 0
0 60 0
0 57 0
0 72 0
0 63 0
0 60 0
0 46 0
0 68 0
0 62 0
0 64 0
0 63 0
0 71 0
0 61 0
0 61 0
0 60 0
0 58 0
0 64 0
0 74 0
0 64 0
0 64 0
0 66 0
0 64 0
0 64 0
0 66 0
0 63 0
0 46 0
0 57 0
0 55 0
0 58 0
0 60 0
0 56 0
0 60 0
0 47 0
0 62 0
0 63 0
0 63 0
0 60 0
0 68 0
0 58 0
0 65 0
0 57 0
0 70 0
0 57 0
0 63 0
0 55 0
0 59 0
0 64 0
0 64 0
0 68 0
0 57 0
0 70 0
0 57 0
0 53 0
0 60 0
0 53 0
0 51 0
0 56 0
0 57 0
0 59 0
0 54 0
0 70 0
0 57 0
0 54 0
0 72 0
0 54 0
0 46 0
0 55 0
0 50 0
0 58 0
0 52 0
0 64 0
0 68 0
0 60 0
0 50 0
0 61 0
0 58 0
0 57 0
0 64 0
0 48 0
0 60 0
0 54 0
0 61 0
0 65 0
0 67 0
0 63 0
0 66 0
0 46 0
0 49 0
0 70 0
0 63 0
0 61 0
0 60 0
0 59 0
0 56 0
0 53 0
0 55 0
0 53 0
0 58 0
0 62 0
0 46 0
0 65 0
0 57 0
0 51 0
0 49 0
0 58 0
0 55 0
0 60 0
0 61 0
0 68 0
0 62 0
0 57 0
0 63 0
0 55 0
0 60 0
0 60 0
0 66 0
0 62 0
0 55 0
0 62 0
0 65 0
0 63 0
0 50 0
0 62 0
0 67 0
0 59 0
0 53 0
0 57 0
0 62 0
0 64 0
0 60 0
0 63 0
0 62 0
0 64 0
0 62 0
0 62 0
0 58 0
0 67 0
0 68 0
0 65 0
0 56 0
0 70 0
0 60 0
0 59 0
0 71 0
0 59 0
0 78 0
0 63 0
0 53 0
0 65 0
0 62 0
0 59 0
0 72 0
0 65 0
0 65 0
0 72 0
0 63 0
0 67 0
0 62 0
0 57 0
0 57 0
0 63 0
0 68 0
0 62 0
0 67 0
0 58 0
0 65 0
0 60 0
0 66 0
0 65 0
0 62 0
0 60 0
0 55 0
0 68 0
0 63 0
0 63 0
0 65 0
0 58 0
0 60 0
0 58 0
0 59 0
0 60 0
0 66 0
0 64 0
0 59 0
0 70 0
0 66 0
0 58 0
0 61 0
0 63 0
0 71 0
0 56 0
0 65 0
0 64 0
0 55 0
0 70 0
0 62 0
0 62 0
0 61 0
0 58 0
0 57 0
0 63 0
0 66 0
0 58 0
0 61 0
0 60 0
0 69 0
0 70 0
0 49 0
0 61 0
0 67 0
0 65 0
0 63 0
0 69 0
0 68 0
0 66 0
0 63 0
0 65 0
0 72 0
0 70 0
0 62 0
0 62 0
0 62 0
0 66 0
0 67 0
0 62 0
0 66 0
0 56 0
0 57 0
0 66 0
0 58 0
0 71 0
0 75 0
0 60 0
0 55 0
0 64 0
0 52 0
0 66 0
0 68 0
0 72 0
0 70 0
0 67 0
0 64 0
0 72 0
0 65 0
0 70 0
0 73 0
0 57 0
0 71 0
0 63 0
0 73 0
0 64 0
0 73 0
0 65 0
0 58 0
0 76 0
0 67 0
0 59 0
0 73 0
0 72 0
0 65 0
0 64 0
0 68 0
0 58 0
0 63 0
0 68 0
0 57 0
0 73 0
0 57 0
0 69 0
0 64 0
0 63 0
0 76 0
0 69 0
0 66 0
0 62 0
0 63 0
0 76 0
0 73 0
0 69 0
0 67 0
0 59 0
0 58 0
0 59 0
0 62 0
0 71 0
0 75 0
0 67 0
0 70 0
0 61 0
0 65 0
0 74 0
0 72 0
0 65 0
0 61 0
0 70 0
0 63 0
0 68 0
0 75 0
0 62 0
0 72 0
0 71 0
0 59 0
0 71 0
0 73 0
0 70 0
0 70 0
0 69 0
0 71 0
0 70 0
0 69 0
0 76 0
0 67 0
0 69 0
0 59 0
0 69 0
0 71 0
0 55 0
0 72 0
0 57 0
0 69 0
0 67 0
0 64 0
0 69 0
0 64 0
0 64 0
0 70 0
0 69 0
0 70 0
0 83 0
0 65 0
0 61 0
0 78 0
0 67 0
0 72 0
0 80 0
0 63 0
0 60 0
0 72 0
0 59 0
0 63 0
0 70 0
0 67 0
0 64 0
0 64 0
0 71 0
0 70 0
0 73 0
0 72 0
0 59 0
0 68 0
0 65 0
0 63 0
0 71 0
0 67 0
0 68 0
0 66 0
0 60 0
0 60 0
0 58 0
0 65 0
0 64 0
0 69 0
0 67 0
0 57 0
0 58 0
0 66 0
0 55 0
0 53 0
0 65 0
0 67 0
0 72 0
0 60 0
0 77 0
0 68 0
0 65 0
0 67 0
0 64 0
0 59 0
0 64 0
0 66 0
0 67 0
0 57 0
0 59 0
0 65 0
0 63 0
0 64 0
0 70 0
0 52 0
0 64 0
0 67 0
0 69 0
0 68 0
0 70 0
0 64 0
0 64 0
0 67 0
0 62 0
0 69 0
0 72 0
0 68 0
0 60 0
0 68 0
0 65 0
0 60 0
0 54 0
0 58 0
0 62 0
0 55 0
0 68 0
0 60 0
0 60 0
0 67 0
0 54 0
0 58 0
0 67 0
0 63 0
0 63 0
0 66 0
0 54 0
0 62 0
0 54 0
0 64 0
0 62 0
0 60 0
0 59 0
0 60 0
0 67 0
0 65 0
0 66 0
0 58 0
0 71 0
0 54 0
0 62 0
0 71 0
0 59 0
0 71 0
0 62 0
0 53 0
0 55 0
0 61 0
0 54 0
0 63 0
0 69 0
0 71 0
0 61 0
0 66 0
0 60 0
0 52 0
0 68 0
0 60 0
0 65 0
0 51 0
0 61 0
0 73 0
0 59 0
0 65 0
0 51 0
0 56 0
0 54 0
0 53 0
0 65 0
0 67 0
0 57 0
0 73 0
0 59 0
0 68 0
0 58 0
0 51 0
0 70 0
0 59 0
0 61 0
0 56 0
0 61 0
0 68 0
0 54 0
0 61 0
0 64 0
0 68 0
0 56 0
0 61 0
0 66 0
0 59 0
0 56 0
0 44 0
0 50 0
0 59 0
0 60 0
0 58 0
0 60 0
0 64 0
0 57 0
0 58 0
0 58 0
0 59 0
0 50 0
0 70 0
0 59 0
0 66 0
0 56 0
0 50 0
0 52 0
0 53 0
0 66 0
0 61 0
0 60 0
0 62 0
0 67 0
0 63 0
0 56 0
0 63 0
0 64 0
0 63 0
0 62 0
0 57 0
0 48 0
0 62 0
0 59 0
0 68 0
0 54 0
0 62 0
0 63 0
0 61 0
0 57 0
0 56 0
0 62 0
0 62 0
0 61 0
0 64 0
0 69 0
0 71 0
0 53 0
0 65 0
0 55 0
0 55 0
0 63 0
0 66 0
0 62 0
0 66 0
0 62 0
0 69 0
0 67 0
0 51 0
0 65 0
0 56 0
0 68 0
0 65 0
0 62 0
0 64 0
0 60 0
0 60 0
0 54 0
0 58 0
0 58 0
0 58 0
0 50 0
0 52 0
0 55 0
0 60 0
0 52 0
0 68 0
0 59 0
0 74 0
0 53 0
0 59 0
0 54 0
0 63 0
0 61 0
0 56 0
0 60 0
0 61 0
0 58 0
0 60 0
0 57 0
0 59 0
0 61 0
0 62 0
0 65 0
0 72 0
0 62 0
0 62 0
0 64 0
0 79 0
0 67 0
0 56 0
0 68 0
0 70 0
0 71 0
0 70 0
0 59 0
0 54 0
0 75 0
0 62 0
0 66 0
0 63 0
0 63 0
0 65 0
0 64 0
0 68 0
0 61 0
0 60 0
0 54 0
0 61 0
0 66 0
0 55 0
0 56 0
0 59 0
0 65 0
0 64 0
0 64 0
0 67 0
0 64 0
0 65 0
0 70 0
0 68 0
0 56 0
0 67 0
0 62 0
0 68 0
0 62 0
0 57 0
0 69 0
0 73 0
0 66 0
0 68 0
0 59 0
0 60 0
0 76 0
0 61 0
0 68 0
0 60 0
0 60 0
0 50 0
0 66 0
0 65 0
0 62 0
0 69 0
0 55 0
0 68 0
0 71 0
0 62 0
0 64 0
0 63 0
0 59 0
0 65 0
0 66 0
0 68 0
0 65 0
0 68 0
0 65 0
0 64 0
0 65 0
0 66 0
0 72 0
0 61 0
0 58 0
0 62 0
0 66 0
0 69 0
0 61 0
0 58 0
0 63 0
0 67 0
0 62 0
0 63 0
0 59 0
0 62 0
0 69 0
0 67 0
0 71 0
0 57 0
0 60 0
0 72 0
0 57 0
0 67 0
0 63 0
0 65 0
0 71 0
0 67 0
0 66 0
0 68 0
0 65 0
0 75 0
0 74 0
0 69 0
0 68 0
0 80 0
0 60 0
0 55 0
0 66 0
0 65 0
0 71 0
0 60 0
0 67 0
0 68 0
0 68 0
0 66 0
0 67 0
0 63 0
0 65 0
0 63 0
0 74 0
0 71 0
0 71 0
0 71 0
0 68 0
0 62 0
0 66 0
0 69 0
0 77 0
0 65 0
0 68 0
0 71 0
0 67 0
0 52 0
0 66 0
0 61 0
0 67 0
0 72 0
0 79 0
0 65 0
0 76 0
0 62 0
0 68 0
0 67 0
0 71 0
0 68 0
0 79 0
0 66 0
0 64 0
0 65 0
0 70 0
0 71 0
0 64 0
0 68 0
0 74 0
0 65 0
0 59 0
0 66 0
0 64 0
0 55 0
0 54 0
0 55 0
0 74 0
0 69 0
0 71 0
0 60 0
0 64 0
0 67 0
0 66 0
0 70 0
0 79 0
0 72 0
0 67 0
0 62 0
0 74 0
0 69 0
0 68 0
0 71 0
0 64 0
0 68 0
0 59 0
0 52 0
0 65 0
0 63 0
0 60 0
0 63 0
0 60 0
0 77 0
0 57 0
0 65 0
0 64 0
0 58 0
0 65 0
0 65 0
0 62 0
0 72 0
0 65 0
0 62 0
0 64 0
0 61 0
0 61 0
0 67 0
0 62 0
0 56 0
0 75 0
0 72 0
0 64 0
0 70 0
0 68 0
0 55 0
0 60 0
0 71 0
0 73 0
0 68 0
0 61 0
0 57 0
0 59 0
0 77 0
0 58 0
0 68 0
0 64 0
0 66 0
0 62 0
0 68 0
0 61 0
0 68 0
0 66 0
0 68 0
0 67 0
0 61 0
0 62 0
0 65 0
0 61 0
0 62 0
0 62 0
0 65 0
0 74 0
0 58 0
0 54 0
0 67 0
0 55 0
0 64 0
0 60 0
0 57 0
0 58 0
0 62 0
0 63 0
0 60 0
0 59 0
0 54 0
0 61 0
0 67 0
0 54 0
0 55 0
0 70 0
0 60 0
0 65 0
0 66 0
0 62 0
0 58 0
0 65 0
0 60 0
0 61 0
0 61 0
0 69 0
0 69 0
0 64 0
0 61 0
0 59 0
0 59 0
0 61 0
0 62 0
0 66 0
0 53 0
0 61 0
0 68 0
0 70 0
0 54 0
0 67 0
0 59 0
0 60 0
0 70 0
0 66 0
0 69 0
0 61 0
0 53 0
0 62 0
0 63 0
0 59 0
0 56 0
0 56 0
0 61 0
0 68 0
0 52 0
0 57 0
0 59 0
0 66 0
0 58 0
0 62 0
0 59 0
0 61 0
0 60 0
0 66 0
0 56 0
0 55 0
0 62 0
0 64 0
0 68 0
0 57 0
0 60 0
0 61 0
0 54 0
0 67 0
0 67 0
0 60 0
0 57 0
0 71 0
0 54 0
0 56 0
0 55 0
0 61 0
0 62 0
0 61 0
0 61 0
0 60 0
0 56 0
0 58 0
0 62 0
0 60 0
0 71 0
0 61 0
0 54 0
0 60 0
0 63 0
0 60 0
0 74 0
0 61 0
0 78 0
0 60 0
0 54 0
0 61 0
0 57 0
0 58 0
0 64 0
0 61 0
0 48 0
0 72 0
0 58 0
0 62 0
0 57 0
0 54 0
0 64 0
0 57 0
0 56 0
0 73 0
0 55 0
0 55 0
0 72 0
0 67 0
0 57 0
0 63 0
0 56 0
0 61 0
0 61 0
0 70 0
0 54 0
0 64 0
0 65 0
0 56 0
0 70 0
0 64 0
0 56 0
0 49 0
0 62 0
0 67 0
0 66 0
0 70 0
0 62 0
0 59 0
0 61 0
0 53 0
0 62 0
0 67 0
0 70 0
0 59 0
0 57 0
0 64 0
0 67 0
0 65 0
0 54 0
0 68 0
0 61 0
0 70 0
0 65 0
0 66 0
0 63 0
0 58 0
0 63 0
0 59 0
0 66 0
0 60 0
0 62 0
0 59 0
0 63 0
0 67 0
0 62 0
0 68 0
0 55 0
0 64 0
0 66 0
0 66 0
0 68 0
0 58 0
0 59 0
0 56 0
0 73 0
0 62 0
0 59 0
0 61 0
0 65 0
0 61 0
0 65 0
0 64 0
0 60 0
0 68 0
0 60 0
0 66 0
0 73 0
0 62 0
0 54 0
0 66 0
0 58 0
0 58 0
0 64 0
0 66 0
0 64 0
0 67 0
0 72 0
0 71 0
0 66 0
0 54 0
0 68 0
0 65 0
0 77 0
0 64 0
0 68 0
0 65 0
0 62 0
0 66 0
0 73 0
0 72 0
0 64 0
0 62 0
0 64 0
0 58 0
0 67 0
0 67 0
0 69 0
0 67 0
0 80 0
0 63 0
0 65 0
0 69 0
0 71 0
0 65 0
0 63 0
0 69 0
0 56 0
0 65 0
0 58 0
0 61 0
0 63 0
0 56 0
0 71 0
0 65 0
0 71 0
0 72 0
0 61 0
0 69 0
0 61 0
0 71 0
0 66 0
0 75 0
0 68 0
0 69 0
0 59 0
0 68 0
0 80 0
0 54 0
0 59 0
0 61 0
0 67 0
0 60 0
0 49 0
0 76 0
0 70 0
0 69 0
0 59 0
0 57 0
0 65 0
0 62 0
0 66 0
0 69 0
0 58 0
0 67 0
0 71 0
0 62 0
0 65 0
0 62 0
0 64 0
0 72 0
0 77 0
0 65 0
0 59 0
0 50 0
0 70 0
0 67 0
0 71 0
0 68 0
0 73 0
0 70 0
0 66 0
0 82 0
0 64 0
0 59 0
0 72 0
0 58 0
0 79 0
0 56 0
0 62 0
0 74 0
0 67 0
0 67 0
0 63 0
0 62 0
0 71 0
0 65 0
0 67 0
0 62 0
0 57 0
0 72 0
0 72 0
0 71 0
0 62 0
0 64 0
0 66 0
0 74 0
0 66 0
0 69 0
0 63 0
0 72 0
0 74 0
0 63 0
0 68 0
0 71 0
0 73 0
0 64 0
0 53 0
0 70 0
0 70 0
0 73 0
0 66 0
0 66 0
0 70 0
0 67 0
0 70 0
0 65 0
0 80 0
0 61 0
0 65 0
0 59 0
0 61 0
0 63 0
0 58 0
0 54 0
0 65 0
0 67 0
0 57 0
0 56 0
0 59 0
0 62 0
0 54 0
0 66 0
0 62 0
0 72 0
0 59 0
0 69 0
0 67 0
0 73 0
0 62 0
0 67 0
0 62 0
0 58 0
0 68 0
0 61 0
0 65 0
0 54 0
0 60 0
0 64 0
0 66 0
0 64 0
0 55 0
0 62 0
0 75 0
0 77 0
0 64 0
0 65 0
0 62 0
0 65 0
0 55 0
0 65 0
0 63 0
0 66 0
0 68 0
0 67 0
0 60 0
0 67 0
0 68 0
0 58 0
0 55 0
0 70 0
0 62 0
0 68 0
0 66 0
0 65 0
0 67 0
0 64 0
0 60 0
0 62 0
0 59 0
0 57 0
0 65 0
0 58 0
0 55 0
0 69 0
0 62 0
0 66 0
0 60 0
0 70 0
0 68 0
0 67 0
0 64 0
0 63 0
0 74 0
0 51 0
0 64 0
0 66 0
0 75 0
0 64 0
0 76 0
0 70 0
0 56 0
0 64 0
0 67 0
0 57 0
0 55 0
0 76 0
0 60 0
0 61 0
0 65 0
0 60 0
0 57 0
0 63 0
0 61 0
0 58 0
0 61 0
0 57 0
0 51 0
0 59 0
0 56 0
0 66 0
0 64 0
0 67 0
0 61 0
0 65 0
0 60 0
0 78 0
0 53 0
0 49 0
0 57 0
0 62 0
0 55 0
0 54 0
0 69 0
0 58 0
0 55 0
0 59 0
0 54 0
0 58 0
0 58 0
0 66 0
0 64 0
0 62 0
0 59 0
0 62 0
0 63 0
0 64 0
0 59 0
0 56 0
0 63 0
0 70 0
0 69 0
0 61 0
0 57 0
0 52 0
0 57 0
0 62 0
0 65 0
0 59 0
0 60 0
0 53 0
0 61 0
0 64 0
0 64 0
0 54 0
0 68 0
0 52 0
0 56 0
0 67 0
0 57 0
0 61 0
0 68 0
0 62 0
0 60 0
0 56 0
0 65 0
0 57 0
0 64 0
0 66 0
0 67 0
0 62 0
0 64 0
0 55 0
0 63 0
0 64 0
0 56 0
0 70 0
0 60 0
0 63 0
0 62 0
0 67 0
0 69 0
0 57 0
0 60 0
0 71 0
0 63 0
0 58 0
0 54 0
0 59 0
0 69 0
0 54 0
0 65 0
0 68 0
0 67 0
0 57 0
0 59 0
0 66 0
0 70 0
0 67 0
0 52 0
0 70 0
0 60 0
0 60 0
0 51 0
0 60 0
0 55 0
0 60 0
0 65 0
0 65 0
0 57 0
0 68 0
0 56 0
0 55 0
0 58 0
0 54 0
0 60 0
0 57 0
0 56 0
0 56 0
0 61 0
0 61 0
0 59 0
0 63 0
0 74 0
0 62 0
0 65 0
0 65 0
0 68 0
0 61 0
0 59 0
0 62 0
0 67 0
0 64 0
0 63 0
0 62 0
0 64 0
0 70 0
0 65 0
0 61 0
0 66 0
0 64 0
0 66 0
0 63 0
0 74 0
0 73 0
0 62 0
0 53 0
0 66 0
0 72 0
0 61 0
0 62 0
0 70 0
0 69 0
0 68 0
0 59 0
0 66 0
0 53 0
0 54 0
0 60 0
0 67 0
0 56 0
0 71 0
0 62 0
0 60 0
0 68 0
0 72 0
0 64 0
0 63 0
0 64 0
0 64 0
0 64 0
0 57 0
0 60 0
0 77 0
0 63 0
0 72 0
0 64 0
0 66 0
0 63 0
0 60 0
0 69 0
0 62 0
0 69 0
0 65 0
0 65 0
0 61 0
0 62 0
0 67 0
0 60 0
0 70 0
0 66 0
0 67 0
0 71 0
0 60 0
0 71 0
0 53 0
0 63 0
0 56 0
0 62 0
0 58 0
0 64 0
0 65 0
0 78 0
0 67 0
0 65 0
0 63 0
0 69 0
0 66 0
0 58 0
0 63 0
0 68 0
0 61 0
0 62 0
0 56 0
0 55 0
0 67 0
0 59 0
0 68 0
0 56 0
0 71 0
0 64 0
0 72 0
0 59 0
0 60 0
0 66 0
0 71 0
0 65 0
0 67 0
0 54 0
0 65 0
0 63 0
0 66 0
0 61 0
0 63 0
0 58 0
0 62 0
0 70 0
0 71 0
0 78 0
0 78 0
0 68 0
0 73 0
0 67 0
0 69 0
0 69 0
0 71 0
0 71 0
0 74 0
0 74 0
0 73 0
0 62 0
0 62 0
0 76 0
0 72 0
0 65 0
0 64 0
0 69 0
0 72 0
0 60 0
0 66 0
0 60 0
0 68 0
0 63 0
0 69 0
0 71 0
0 62 0
0 68 0
0 62 0
0 70 0
0 59 0
0 61 0
0 73 0
0 75 0
0 70 0
0 65 0
0 71 0
0 66 0
0 62 0
0 71 0
0 59 0
0 64 0
0 58 0
0 73 0
0 58 0
0 66 0
0 60 0
0 64 0
0 69 0
0 68 0
0 67 0
0 78 0
0 69 0
0 64 0
0 65 0
0 57 0
0 81 0
0 61 0
0 58 0
0 67 0
0 70 0
0 63 0
0 76 0
0 58 0
0 61 0
0 66 0
0 58 0
0 52 0
0 58 0
0 62 0
0 68 0
0 68 0
0 54 0
0 57 0
0 68 0
0 66 0
0 59 0
0 68 0
0 73 0
0 74 0
0 63 0
0 59 0
0 60 0
0 68 0
0 61 0
0 65 0
0 65 0
0 65 0
0 68 0
0 63 0
0 65 0
0 66 0
0 70 0
0 64 0
0 67 0
0 71 0
0 58 0
0 52 0
0 65 0
0 58 0
0 61 0
0 74 0
0 68 0
0 57 0
0 65 0
0 66 0
0 72 0
0 58 0
0 65 0
0 70 0
0 66 0
0 80 0
0 78 0
0 62 0
0 57 0
0 62 0
0 61 0
0 65 0
0 62 0
0 63 0
0 65 0
0 65 0
0 64 0
0 55 0
0 66 0
0 66 0
0 65 0
0 63 0
0 57 0
0 63 0
0 60 0
0 62 0
0 59 0
0 49 0
0 62 0
0 63 0
0 67 0
0 66 0
0 66 0
0 61 0
0 68 0
0 60 0
0 63 0
0 63 0
0 61 0
0 65 0
0 65 0
0 76 0
0 66 0
0 63 0
0 69 0
0 53 0
0 58 0
0 54 0
0 61 0
0 55 0
0 62 0
0 62 0
0 65 0
0 66 0
0 52 0
0 53 0
0 61 0
0 65 0
0 68 0
0 57 0
0 71 0
0 57 0
0 58 0
0 64 0
0 67 0
0 64 0
0 56 0
0 63 0
0 45 0
0 67 0
0 56 0
0 61 0
0 70 0
0 66 0
0 56 0
0 57 0
0 58 0
0 62 0
0 53 0
0 66 0
0 63 0
0 69 0
0 68 0
0 66 0
0 57 0
0 58 0
0 60 0
0 65 0
0 69 0
0 69 0
0 53 0
0 69 0
0 56 0
0 61 0
0 61 0
0 59 0
0 61 0
0 64 0
0 64 0
0 53 0
0 59 0
0 67 0
0 62 0
0 70 0
0 60 0
0 65 0
0 68 0
0 58 0
0 51 0
0 64 0
0 57 0
0 68 0
0 62 0
0 60 0
0 61 0
0 70 0
0 65 0
0 65 0
0 61 0
0 71 0
0 62 0
0 52 0
0 67 0
0 64 0
0 62 0
0 46 0
0 65 0
0 64 0
0 53 0
0 53 0
0 59 0
0 54 0
0 57 0
0 56 0
0 52 0
0 64 0
0 61 0
0 58 0
0 55 0
0 59 0
0 72 0
0 61 0
0 67 0
0 62 0
0 64 0
0 64 0
0 51 0
0 58 0
0 60 0
0 59 0
0 66 0
0 64 0
0 66 0
0 64 0
0 68 0
0 61 0
0 68 0
0 57 0
0 68 0
0 62 0
0 64 0
0 56 0
0 71 0
0 67 0
0 67 0
0 55 0
0 71 0
0 64 0
0 60 0
0 62 0
0 63 0
0 58 0
0 62 0
0 64 0
0 62 0
0 70 0
0 63 0
0 65 0
0 57 0
0 63 0
0 71 0
0 65 0
0 68 0
0 60 0
0 65 0
0 74 0
0 72 0
0 62 0
0 62 0
0 61 0
0 66 0
0 61 0
0 60 0
0 66 0
0 73 0
0 57 0
0 64 0
0 63 0
0 56 0
0 58 0
0 59 0
0 56 0
0 65 0
0 62 0
0 57 0
0 60 0
0 59 0
0 67 0
0 67 0
0 66 0
0 77 0
0 59 0
0 71 0
0 65 0
0 67 0
0 65 0
0 63 0
0 70 0
0 51 0
0 64 0
0 60 0
0 69 0
0 73 0
0 58 0
0 54 0
0 68 0
0 75 0
0 63 0
0 54 0
0 63 0
0 64 0
0 70 0
0 63 0
0 59 0
0 62 0
0 62 0
0 72 0
0 68 0
0 63 0
0 65 0
0 65 0
0 61 0
0 63 0
0 67 0
0 65 0
0 52 0
0 63 0
0 67 0
0 63 0
0 61 0
0 62 0
0 68 0
0 60 0
0 71 0
0 71 0
0 68 0
0 64 0
0 62 0
0 68 0
0 70 0
0 72 0
0 68 0
0 66 0
0 65 0
0 64 0
0 67 0
0 79 0
0 62 0
0 67 0
0 68 0
0 59 0
0 55 0
0 70 0
0 68 0
0 64 0
0 61 0
0 64 0
0 63 0
0 72 0
0 57 0
0 65 0
0 69 0
0 73 0
0 70 0
0 68 0
0 69 0
0 56 0
0 67 0
0 64 0
0 66 0
0 56 0
0 70 0
0 69 0
0 71 0
0 62 0
0 65 0
0 66 0
0 76 0
0 68 0
0 72 0
0 55 0
0 73 0
0 67 0
0 76 0
0 65 0
0 77 0
0 72 0
0 56 0
0 75 0
0 76 0
0 70 0
0 66 0
0 54 0
0 64 0
0 62 0
0 71 0
0 67 0
0 71 0
0 58 0
0 73 0
0 71 0
0 63 0
0 61 0
0 74 0
0 62 0
0 67 0
0 77 0
0 66 0
0 61 0
0 67 0
0 59 0
0 66 0
0 64 0
0 58 0
0 63 0
0 71 0
0 66 0
0 70 0
0 65 0
0 71 0
0 70 0
0 61 0
0 68 0
0 65 0
0 70 0
0 69 0
0 70 0
0 68 0
0 74 0
0 68 0
0 75 0
0 61 0
0 66 0
0 62 0
0 62 0
0 69 0
0 67 0
0 52 0
0 80 0
0 66 0
0 64 0
0 66 0
0 67 0
0 72 0
0 63 0
0 63 0
0 78 0
0 59 0
0 72 0
0 64 0
0 67 0
0 58 0
0 64 0
0 75 0
0 63 0
0 66 0
0 58 0
0 75 0
0 76 0
0 58 0
0 70 0
0 66 0
0 66 0
0 57 0
0 66 0
0 66 0
0 62 0
0 56 0
0 66 0
0 65 0
0 52 0
0 60 0
0 59 0
0 61 0
0 58 0
0 62 0
0 59 0
0 66 0
0 67 0
0 67 0
0 66 0
0 61 0
0 63 0
0 56 0
0 61 0
0 55 0
0 64 0
0 56 0
0 70 0
0 56 0
0 59 0
0 64 0
0 63 0
0 60 0
0 63 0
0 62 0
0 57 0
0 63 0
0 61 0
0 67 0
0 58 0
0 69 0
0 70 0
0 64 0
0 67 0
0 70 0
0 56 0
0 59 0
0 61 0
0 59 0
0 54 0
0 57 0
0 59 0
0 65 0
0 60 0
0 62 0
0 58 0
0 71 0
0 65 0
0 59 0
0 65 0
0 64 0
0 68 0
0 57 0
0 60 0
0 67 0
0 41 0
0 67 0
0 67 0
0 58 0
0 62 0
0 58 0
0 52 0
0 69 0
0 54 0
0 69 0
0 60 0
0 70 0
0 70 0
0 61 0
0 50 0
0 54 0
0 67 0
0 50 0
0 62 0
0 66 0
0 58 0
0 62 0
0 60 0
0 57 0
0 57 0
0 52 0
0 64 0
0 69 0
0 66 0
0 56 0
0 57 0
0 63 0
0 63 0
0 60 0
0 64 0
0 58 0
0 59 0
0 64 0
0 61 0
0 65 0
0 55 0
0 56 0
0 63 0
0 62 0
0 54 0
0 62 0
0 59 0
0 61 0
0 63 0
0 62 0
0 66 0
0 64 0
0 71 0
0 60 0
0 59 0
0 65 0
0 52 0
0 62 0
0 65 0
0 47 0
0 67 0
0 58 0
0 59 0
0 60 0
0 62 0
0 66 0
0 58 0
0 64 0
0 58 0
0 75 0
0 59 0
0 58 0
0 62 0
0 76 0
0 54 0
0 65 0
0 65 0
0 55 0
0 70 0
0 60 0
0 57 0
0 64 0
0 67 0
0 70 0
0 66 0
0 53 0
0 67 0
0 58 0
0 69 0
0 60 0
0 60 0
0 58 0
0 56 0
0 58 0
0 64 0
0 58 0
0 59 0
0 72 0
0 60 0
0 58 0
0 71 0
0 63 0
0 64 0
0 70 0
0 61 0
0 58 0
0 55 0
0 56 0
0 64 0
0 66 0
0 62 0
0 65 0
0 62 0
0 64 0
0 60 0
0 60 0
0 63 0
0 73 0
0 70 0
0 51 0
0 60 0
0 62 0
0 58 0
0 65 0
0 66 0
0 66 0
0 62 0
0 56 0
0 58 0
0 64 0
0 65 0
0 71 0
0 61 0
0 47 0
0 74 0
0 62 0
0 65 0
0 61 0
0 60 0
0 66 0
0 57 0
0 76 0
0 72 0
0 65 0
0 57 0
0 64 0
0 59 0
0 70 0
0 64 0
0 60 0
0 51 0
0 55 0
0 68 0
0 62 0
0 66 0
0 66 0
0 64 0
0 59 0
0 57 0
0 52 0
0 60 0
0 68 0
0 67 0
0 59 0
0 69 0
0 71 0
0 60 0
0 67 0
0 60 0
0 63 0
0 59 0
0 62 0
0 66 0
0 77 0
0 61 0
0 64 0
0 66 0
0 58 0
0 70 0
0 60 0
0 60 0
0 63 0
0 57 0
0 65 0
0 67 0
0 64 0
0 60 0
0 62 0
0 63 0
0 64 0
0 51 0
0 69 0
0 63 0
0 66 0
0 63 0
0 66 0
0 67 0
0 69 0
0 60 0
0 63 0
0 64 0
0 60 0
0 69 0
0 64 0
0 51 0
0 67 0
0 65 0
0 63 0
0 63 0
0 71 0
0 76 0
0 69 0
0 66 0
0 71 0
0 81 0
0 59 0
0 65 0
0 71 0
0 62 0
0 71 0
0 60 0
0 66 0
0 65 0
0 69 0
0 66 0
0 58 0
0 71 0
0 72 0
0 57 0
0 68 0
0 75 0
0 67 0
0 53 0
0 75 0
0 62 0
0 61 0
0 68 0
0 72 0
0 75 0
0 66 0
0 68 0
0 66 0
0 60 0
0 59 0
0 62 0
0 77 0
0 76 0
0 77 0
0 72 0
0 75 0
0 75 0
0 59 0
0 70 0
0 55 0
0 68 0
0 80 0
0 71 0
0 69 0
0 67 0
0 63 0
0 71 0
0 59 0
0 69 0
0 62 0
0 71 0
0 64 0
0 65 0
0 64 0
0 76 0
0 68 0
0 82 0
0 69 0
0 64 0
0 71 0
0 73 0
0 69 0
0 77 0
0 71 0
0 74 0
0 64 0
0 70 0
0 70 0
0 60 0
0 65 0
0 67 0
0 66 0
0 62 0
0 60 0
0 68 0
0 69 0
0 64 0
0 67 0
0 68 0
0 69 0
0 73 0
0 80 0
0 65 0
0 76 0
0 72 0
0 66 0
0 69 0
0 60 0
0 62 0
0 68 0
0 67 0
0 67 0
0 71 0
0 68 0
0 59 0
0 70 0
0 68 0
0 63 0
0 61 0
0 55 0
0 64 0
0 66 0
0 71 0
0 70 0
0 67 0
0 73 0
0 63 0
0 66 0
0 56 0
0 66 0
0 67 0
0 69 0
0 62 0
0 62 0
0 68 0
0 66 0
0 63 0
0 71 0
0 62 0
0 65 0
0 69 0
0 74 0
0 59 0
0 70 0
0 52 0
0 65 0
0 67 0
0 66 0
0 65 0
0 69 0
0 71 0
0 59 0
0 60 0
0 70 0
0 70 0
0 70 0
0 65 0
0 59 0
0 61 0
0 72 0
0 69 0
0 72 0
0 69 0
0 52 0
0 67 0
0 55 0
0 64 0
0 59 0
0 65 0
0 59 0
0 56 0
0 58 0
0 60 0
0 62 0
0 66 0
0 57 0
0 63 0
0 66 0
0 56 0
0 69 0
0 63 0
0 69 0
0 65 0
0 71 0
0 67 0
0 64 0
0 70 0
0 57 0
0 69 0
0 64 0
0 65 0
0 64 0
0 62 0
0 71 0
0 66 0
0 66 0
0 57 0
0 62 0
0 67 0
0 69 0
0 75 0
0 63 0
0 62 0
0 68 0
0 71 0
0 72 0
0 54 0
0 62 0
0 65 0
0 64 0
0 58 0
0 70 0
0 59 0
0 63 0
0 61 0
0 60 0
0 50 0
0 64 0
0 60 0
0 55 0
0 70 0
0 57 0
0 58 0
0 56 0
0 60 0
0 52 0
0 66 0
0 61 0
0 67 0
0 54 0
0 65 0
0 63 0
0 56 0
0 63 0
0 54 0
0 68 0
0 65 0
0 64 0
0 65 0
0 64 0
0 63 0
0 71 0
0 65 0
0 63 0
0 67 0
0 71 0
0 60 0
0 56 0
0 58 0
0 66 0
0 68 0
0 56 0
0 63 0
0 56 0
0 67 0
0 56 0
0 57 0
0 62 0
0 69 0
0 72 0
0 64 0
0 65 0
0 66 0
0 57 0
0 57 0
0 64 0
0 53 0
0 60 0
0 66 0
0 64 0
0 68 0
0 59 0
0 65 0
0 52 0
0 68 0
0 66 0
0 62 0
0 52 0
0 66 0
0 70 0
0 65 0
0 66 0
0 66 0
0 62 0
0 49 0
0 61 0
0 48 0
0 62 0
0 66 0
0 63 0
0 63 0
0 61 0
0 59 0
0 60 0
0 65 0
0 69 0
0 64 0
0 58 0
0 73 0
0 60 0
0 57 0
0 55 0
0 62 0
0 61 0
0 61 0
0 53 0
0 50 0
0 59 0
0 68 0
0 65 0
0 72 0
0 70 0
0 70 0
0 66 0
0 59 0
0 61 0
0 62 0
0 69 0
0 62 0
0 61 0
0 56 0
0 70 0
0 58 0
0 56 0
0 65 0
0 60 0
0 67 0
0 64 0
0 68 0
0 64 0
0 56 0
0 57 0
0 69 0
0 66 0
0 59 0
0 65 0
0 62 0
0 62 0
0 64 0
0 65 0
0 64 0
0 58 0
0 72 0
0 56 0
0 58 0
0 66 0
0 53 0
0 61 0
0 63 0
0 65 0
0 67 0
0 57 0
0 57 0
0 68 0
0 55 0
0 72 0
0 65 0
0 64 0
0 63 0
0 63 0
0 50 0
0 62 0
0 64 0
0 65 0
0 67 0
0 65 0
0 60 0
0 56 0
0 55 0
0 59 0
0 53 0
0 65 0
0 63 0
0 69 0
0 55 0
0 63 0
0 71 0
0 66 0
0 69 0
0 68 0
0 55 0
0 61 0
0 67 0
0 61 0
0 64 0
0 63 0
0 68 0
0 64 0
0 59 0
0 66 0
0 62 0
0 57 0
0 65 0
0 65 0
0 59 0
0 69 0
0 69 0
0 68 0
0 74 0
0 74 0
0 73 0
0 61 0
0 66 0
0 60 0
0 74 0
0 67 0
0 62 0
0 70 0
0 67 0
0 72 0
0 55 0
0 58 0
0 72 0
0 66 0
0 60 0
0 72 0
0 60 0
0 69 0
0 63 0
0 60 0
0 65 0
0 67 0
0 59 0
0 66 0
0 75 0
0 69 0
0 66 0
0 76 0
0 67 0
0 54 0
0 69 0
0 57 0
0 57 0
0 82 0
0 60 0
0 64 0
0 67 0
0 68 0
0 61 0
0 68 0
0 71 0
0 69 0
0 52 0
0 70 0
0 55 0
0 68 0
0 69 0
0 64 0
0 64 0
0 53 0
0 70 0
0 68 0
0 69 0
0 72 0
0 64 0
0 72 0
0 67 0
0 75 0
0 67 0
0 72 0
0 64 0
0 73 0
0 83 0
0 69 0
0 68 0
0 67 0
0 65 0
0 71 0
0 70 0
0 60 0
0 64 0
0 72 0
0 73 0
0 64 0
0 72 0
0 69 0
0 64 0
0 64 0
0 64 0
0 72 0
0 80 0
0 66 0
0 70 0
0 64 0
0 70 0
0 61 0
0 72 0
0 77 0
0 63 0
0 62 0
0 67 0
0 69 0
0 62 0
0 65 0
0 64 0
0 64 0
0 72 0
0 63 0
0 68 0
0 62 0
0 70 0
0 65 0
0 70 0
0 78 0
0 71 0
0 59 0
0 63 0
0 68 0
0 66 0
0 62 0
0 79 0
0 79 0
0 67 0
0 60 0
0 70 0
0 63 0
0 68 0
0 68 0
0 74 0
0 69 0
0 77 0
0 69 0
0 56 0
0 69 0
0 64 0
0 72 0
0 74 0
0 65 0
0 59 0
0 62 0
0 63 0
0 61 0
0 62 0
0 64 0
0 58 0
0 71 0
0 69 0
0 64 0
0 73 0
0 71 0
0 72 0
0 65 0
0 59 0
0 59 0
0 72 0
0 59 0
0 67 0
0 69 0
0 64 0
0 60 0
0 60 0
0 55 0
0 77 0
0 67 0
0 56 0
0 64 0
0 61 0
0 74 0
0 68 0
0 69 0
0 63 0
0 74 0
0 62 0
0 72 0
0 61 0
0 64 0
0 63 0
0 68 0
0 62 0
0 56 0
0 70 0
0 61 0
0 65 0
0 84 0
0 61 0
0 56 0
0 64 0
0 55 0
0 61 0
0 66 0
0 65 0
0 55 0
0 71 0
0 70 0
0 56 0
0 63 0
0 58 0
0 74 0
0 62 0
0 63 0
0 66 0
0 56 0
0 55 0
0 65 0
0 63 0
0 75 0
0 63 0
0 59 0
0 57 0
0 75 0
0 75 0
0 64 0
0 60 0
0 62 0
0 65 0
0 50 0
0 61 0
0 64 0
0 69 0
0 56 0
0 53 0
0 57 0
0 62 0
0 58 0
0 77 0
0 66 0
0 63 0
0 62 0
0 59 0
0 61 0
0 63 0
0 60 0
0 74 0
0 54 0
0 66 0
0 55 0
0 53 0
0 68 0
0 72 0
0 61 0
0 65 0
0 64 0
0 54 0
0 56 0
0 63 0
0 60 0
0 59 0
0 62 0
0 69 0
0 68 0
0 51 0
0 62 0
0 63 0
0 60 0
0 59 0
0 60 0
0 55 0
0 57 0
0 67 0
0 60 0
0 58 0
0 73 0
0 67 0
0 60 0
0 67 0
0 64 0
0 64 0
0 65 0
0 68 0
0 64 0
0 61 0
0 72 0
0 64 0
0 54 0
0 64 0
0 62 0
0 57 0
0 57 0
0 77 0
0 70 0
0 66 0
0 57 0
0 59 0
0 68 0
0 59 0
0 62 0
0 60 0
0 64 0
0 51 0
0 53 0
0 66 0
0 67 0
0 65 0
0 62 0
0 63 0
0 64 0
0 70 0
0 71 0
0 67 0
0 62 0
0 66 0
0 67 0
0 61 0
0 59 0
0 64 0
0 60 0
0 62 0
0 53 0
0 63 0
0 61 0
0 72 0
0 68 0
0 56 0
0 53 0
0 51 0
0 54 0
0 61 0
0 62 0
0 62 0
0 62 0
0 64 0
0 73 0
0 71 0
0 65 0
0 57 0
0 58 0
0 56 0
0 65 0
0 69 0
0 68 0
0 61 0
0 60 0
0 66 0
0 66 0
0 60 0
0 67 0
0 64 0
0 58 0
0 59 0
0 64 0
0 53 0
0 64 0
0 69 0
0 60 0
0 61 0
0 64 0
0 59 0
0 60 0
0 55 0
0 56 0
0 58 0
0 59 0
0 61 0
0 58 0
0 71 0
0 71 0
0 68 0
0 64 0
0 65 0
0 68 0
0 62 0
0 67 0
0 71 0
0 71 0
0 53 0
0 66 0
0 70 0
0 66 0
0 66 0
0 62 0
0 61 0
0 69 0
0 67 0
0 57 0
0 59 0
0 61 0
0 61 0
0 59 0
0 54 0
0 67 0
0 70 0
0 64 0
0 69 0
0 56 0
0 63 0
0 65 0
0 79 0
0 62 0
0 68 0
0 61 0
0 63 0
0 74 0
0 60 0
0 62 0
0 69 0
0 59 0
0 66 0
0 62 0
0 65 0
0 65 0
0 69 0
0 75 0
0 67 0
0 62 0
0 60 0
0 61 0
0 63 0
0 57 0
0 64 0
0 68 0
0 65 0
0 60 0
0 71 0
0 60 0
0 65 0
0 67 0
0 61 0
0 65 0
0 68 0
0 59 0
0 72 0
0 70 0
0 64 0
0 69 0
0 67 0
0 74 0
0 69 0
0 70 0
0 66 0
0 63 0
0 68 0
0 84 0
0 67 0
0 64 0
0 62 0
0 59 0
0 64 0
0 61 0
0 69 0
0 64 0
0 64 0
0 79 0
0 59 0
0 63 0
0 73 0
0 62 0
0 65 0
0 69 0
0 66 0
0 66 0
0 66 0
0 61 0
0 65 0
0 67 0
0 65 0
0 72 0
0 62 0
0 75 0
0 59 0
0 65 0
0 65 0
0 68 0
0 64 0
0 75 0
0 72 0
0 82 0
0 70 0
0 73 0
0 62 0
0 67 0
0 69 0
0 72 0
0 66 0
0 59 0
0 72 0
0 69 0
0 74 0
0 69 0
0 75 0
0 68 0
0 63 0
0 61 0
0 64 0
0 63 0
0 59 0
0 65 0
0 68 0
0 67 0
0 67 0
0 66 0
0 69 0
0 69 0
0 71 0
0 76 0
0 76 0
0 59 0
0 61 0
0 67 0
0 62 0
0 70 0
0 68 0
0 63 0
0 66 0
0 68 0
0 79 0
0 66 0
0 73 0
0 71 0
0 71 0
0 64 0
0 57 0
0 64 0
0 77 0
0 68 0
0 67 0
0 65 0
0 71 0
0 56 0
0 63 0
0 67 0
0 60 0
0 67 0
0 64 0
0 65 0
0 60 0
0 63 0
0 62 0
0 65 0
0 57 0
0 60 0
0 72 0
0 72 0
0 61 0
0 65 0
0 56 0
0 69 0
0 66 0
0 60 0
0 71 0
0 67 0
0 69 0
0 69 0
0 63 0
0 70 0
0 71 0
0 67 0
0 68 0
0 70 0
0 66 0
0 56 0
0 69 0
0 66 0
0 67 0
0 60 0
0 74 0
0 67 0
0 63 0
0 62 0
0 67 0
0 69 0
0 73 0
0 74 0
0 71 0
0 66 0
0 55 0
0 62 0
0 66 0
0 72 0
0 67 0
0 66 0
0 61 0
0 62 0
0 70 0
0 73 0
0 65 0
0 63 0
0 60 0
0 75 0
0 66 0
0 66 0
0 63 0
0 58 0
0 57 0
0 53 0
0 58 0
0 53 0
0 64 0
0 74 0
0 66 0
0 70 0
0 76 0
0 72 0
0 58 0
0 60 0
0 68 0
0 55 0
0 76 0
0 54 0
0 61 0
0 72 0
0 62 0
0 66 0
0 59 0
0 49 0
0 71 0
0 60 0
0 56 0
0 75 0
0 62 0
0 70 0
0 68 0
0 62 0
0 53 0
0 68 0
0 61 0
0 54 0
0 64 0
0 62 0
0 57 0
0 49 0
0 65 0
0 58 0
0 59 0
0 66 0
0 65 0
0 66 0
0 62 0
0 60 0
0 60 0
0 71 0
0 55 0
0 66 0
0 71 0
0 62 0
0 62 0
0 62 0
0 71 0
0 58 0
0 73 0
0 60 0
0 67 0
0 64 0
0 61 0
0 60 0
0 61 0
0 67 0
0 71 0
0 65 0
0 63 0
0 50 0
0 64 0
0 69 0
0 51 0
0 63 0
0 49 0
0 64 0
0 68 0
0 71 0
0 63 0
0 63 0
0 61 0
0 59 0
0 57 0
0 54 0
0 70 0
0 60 0
0 59 0
0 72 0
0 62 0
0 63 0
0 65 0
0 65 0
0 59 0
0 55 0
0 67 0
0 54 0
0 69 0
0 61 0
0 59 0
0 63 0
0 56 0
0 63 0
0 55 0
0 67 0
0 66 0
0 62 0
0 66 0
0 71 0
0 54 0
0 70 0
0 67 0
0 63 0
0 64 0
0 67 0
0 61 0
0 63 0
0 69 0
0 59 0
0 61 0
0 62 0
0 59 0
0 49 0
0 54 0
0 57 0
0 57 0
0 61 0
0 64 0
0 67 0
0 68 0
0 65 0
0 63 0
0 67 0
0 76 0
0 54 0
0 51 0
0 60 0
0 60 0
0 68 0
0 65 0
0 64 0
0 59 0
0 54 0
0 63 0
0 60 0
0 69 0
0 66 0
0 63 0
0 66 0
0 63 0
0 58 0
0 53 0
0 65 0
0 57 0
0 59 0
0 61 0
0 70 0
0 75 0
0 61 0
0 71 0
0 72 0
0 74 0
0 64 0
0 61 0
0 64 0
0 62 0
0 55 0
0 61 0
0 53 0
0 65 0
0 68 0
0 66 0
0 77 0
0 58 0
0 59 0
0 64 0
0 58 0
0 71 0
0 65 0
0 63 0
0 60 0
0 69 0
0 64 0
0 63 0
0 68 0
0 66 0
0 66 0
0 57 0
0 66 0
0 68 0
0 56 0
0 65 0
0 68 0
0 54 0
0 59 0
0 70 0
0 58 0
0 60 0
0 67 0
0 52 0
0 65 0
0 65 0
0 56 0
0 67 0
0 70 0
0 68 0
0 62 0
0 57 0
0 60 0
0 66 0
0 71 0
0 58 0
0 66 0
0 70 0
0 54 0
0 68 0
0 71 0
0 63 0
0 64 0
0 60 0
0 65 0
0 61 0
0 65 0
0 65 0
0 71 0
0 70 0
0 71 0
0 68 0
0 65 0
0 72 0
0 68 0
0 57 0
0 67 0
0 56 0
0 67 0
0 62 0
0 69 0
0 67 0
0 65 0
0 73 0
0 61 0
0 61 0
0 81 0
0 69 0
0 69 0
0 71 0
0 69 0
0 65 0
0 57 0
0 81 0
0 63 0
0 72 0
0 71 0
0 65 0
0 74 0
0 72 0
0 68 0
0 70 0
0 66 0
0 71 0
0 66 0
0 68 0
0 67 0
0 64 0
0 66 0
0 66 0
0 73 0
0 73 0
0 66 0
0 71 0
0 73 0
0 52 0
0 70 0
0 77 0
0 65 0
0 63 0
0 67 0
0 67 0
0 76 0
0 54 0
0 71 0
0 72 0
0 71 0
0 76 0
0 75 0
0 62 0
0 75 0
0 70 0
0 67 0
0 73 0
0 81 0
0 70 0
0 62 0
0 72 0
0 72 0
0 68 0
0 68 0
0 60 0
0 72 0
0 65 0
0 70 0
0 70 0
0 73 0
0 76 0
0 67 0
0 67 0
0 71 0
0 63 0
0 63 0
0 65 0
0 70 0
0 64 0
0 63 0
0 63 0
0 66 0
0 76 0
0 74 0
0 60 0
0 62 0
0 73 0
0 72 0
0 70 0
0 69 0
0 67 0
0 60 0
0 66 0
0 64 0
0 65 0
0 67 0
0 75 0
0 61 0
0 69 0
0 66 0
0 72 0
0 61 0
0 65 0
0 74 0
0 74 0
0 64 0
0 68 0
0 67 0
0 62 0
0 70 0
0 61 0
0 68 0
0 73 0
0 63 0
0 68 0
0 64 0
0 59 0
0 69 0
0 72 0
0 61 0
0 68 0
0 69 0
0 66 0
0 60 0
0 66 0
0 61 0
0 58 0
0 64 0
0 55 0
0 67 0
0 63 0
0 60 0
0 61 0
0 61 0
0 69 0
0 65 0
0 65 0
0 64 0
0 66 0
0 68 0
0 68 0
0 62 0
0 63 0
0 75 0
0 61 0
0 76 0
0 76 0
0 75 0
0 61 0
0 66 0
0 59 0
0 74 0
0 58 0
0 73 0
0 60 0
0 52 0
0 68 0
0 61 0
0 63 0
0 51 0
0 62 0
0 70 0
0 56 0
0 72 0
0 60 0
0 76 0
0 69 0
0 68 0
0 70 0
0 61 0
0 55 0
0 52 0
0 56 0
0 69 0
0 74 0
0 71 0
0 64 0
0 66 0
0 55 0
0 73 0
0 67 0
0 58 0
0 60 0
0 58 0
0 69 0
0 65 0
0 66 0
0 57 0
0 58 0
0 57 0
0 58 0
0 61 0
0 48 0
0 59 0
0 63 0
0 66 0
0 58 0
0 60 0
0 73 0
0 64 0
0 58 0
0 71 0
0 55 0
0 55 0
0 58 0
0 64 0
0 62 0
0 72 0
0 61 0
0 61 0
0 67 0
0 62 0
0 68 0
0 68 0
0 64 0
0 68 0
0 57 0
0 68 0
0 53 0
0 64 0
0 56 0
0 57 0
0 66 0
0 66 0
0 60 0
0 67 0
0 71 0
0 68 0
0 61 0
0 77 0
0 59 0
0 64 0
0 61 0
0 64 0
0 61 0
0 66 0
0 67 0
0 65 0
0 55 0
0 62 0
0 60 0
0 59 0
0 62 0
0 66 0
0 56 0
0 71 0
0 52 0
0 62 0
0 56 0
0 68 0
0 54 0
0 71 0
0 55 0
0 63 0
0 61 0
0 55 0
0 56 0
0 64 0
0 65 0
0 68 0
0 69 0
0 59 0
0 62 0
0 71 0
0 68 0
0 64 0
0 65 0
0 64 0
0 57 0
0 73 0
0 67 0
0 54 0
0 61 0
0 59 0
0 68 0
0 58 0
0 56 0
0 59 0
0 71 0
0 66 0
0 70 0
0 66 0
0 61 0
0 61 0
0 58 0
0 62 0
0 64 0
0 71 0
0 58 0
0 70 0
0 58 0
0 60 0
0 63 0
0 73 0
0 56 0
0 59 0
0 66 0
0 59 0
0 68 0
0 59 0
0 56 0
0 58 0
0 62 0
0 60 0
0 59 0
0 61 0
0 64 0
0 59 0
0 67 0
0 55 0
0 65 0
0 53 0
0 58 0
0 68 0
0 65 0
0 61 0
0 66 0
0 65 0
0 70 0
0 73 0
0 64 0
0 67 0
0 63 0
0 50 0
0 67 0
0 66 0
0 62 0
0 64 0
0 60 0
0 68 0
0 63 0
0 71 0
0 54 0
0 59 0
0 61 0
0 65 0
0 55 0
0 68 0
0 67 0
0 56 0
0 52 0
0 60 0
0 63 0
0 60 0
0 61 0
0 64 0
0 51 0
0 70 0
0 54 0
0 63 0
0 65 0
0 65 0
0 55 0
0 74 0
0 64 0
0 63 0
0 61 0
0 56 0
0 64 0
0 64 0
0 63 0
0 67 0
0 52 0
0 62 0
0 62 0
0 65 0
0 65 0
0 62 0
0 69 0
0 59 0
0 63 0
0 70 0
0 67 0
0 64 0
0 62 0
0 77 0
0 61 0
0 71 0
0 57 0
0 59 0
0 66 0
0 58 0
0 57 0
0 57 0
0 51 0
0 60 0
0 69 0
0 79 0
0 79 0
0 68 0
0 72 0
0 57 0
0 64 0
0 61 0
0 65 0
0 57 0
0 69 0
0 56 0
0 66 0
0 71 0
0 67 0
0 64 0
0 64 0
0 73 0
0 69 0
0 59 0
0 69 0
0 65 0
0 62 0
0 73 0
0 66 0
0 65 0
0 73 0
0 72 0
0 66 0
0 65 0
0 65 0
0 65 0
0 63 0
0 67 0
0 75 0
0 65 0
0 70 0
0 71 0
0 66 0
0 61 0
0 65 0
0 68 0
0 78 0
0 78 0
0 58 0
0 58 0
0 58 0
0 58 0
0 65 0
0 71 0
0 70 0
0 64 0
0 51 0
0 68 0
0 72 0
0 73 0
0 52 0
0 67 0
0 71 0
0 65 0
0 69 0
0 66 0
0 59 0
0 71 0
0 66 0
0 66 0
0 66 0
0 68 0
0 58 0
0 73 0
0 74 0
0 77 0
0 71 0
0 61 0
0 65 0
0 69 0
0 74 0
0 78 0
0 67 0
0 66 0
0 58 0
0 69 0
0 75 0
0 67 0
0 63 0
0 74 0
0 72 0
0 72 0
0 66 0
0 66 0
0 65 0
0 76 0
0 77 0
0 68 0
0 66 0
0 63 0
0 64 0
0 67 0
0 64 0
0 72 0
0 70 0
0 73 0
0 72 0
0 68 0
0 65 0
0 61 0
0 81 0
0 74 0
0 71 0
0 59 0
0 63 0
0 72 0
0 66 0
0 76 0
0 68 0
0 72 0
0 62 0
0 66 0
0 68 0
0 69 0
0 66 0
0 74 0
0 74 0
0 68 0
0 63 0
0 70 0
0 75 0
0 66 0
0 69 0
0 71 0
0 66 0
0 72 0
0 66 0
0 71 0
0 61 0
0 70 0
0 65 0
0 58 0
0 60 0
0 70 0
0 62 0
0 65 0
0 74 0
0 69 0
0 63 0
0 62 0
0 64 0
0 58 0
0 59 0
0 58 0
0 72 0
0 58 0
0 61 0
0 54 0
0 55 0
0 65 0
0 69 0
0 66 0
0 55 0
0 70 0
0 65 0
0 62 0
0 71 0
0 63 0
0 58 0
0 62 0
0 66 0
0 54 0
0 60 0
0 64 0
0 65 0
0 68 0
0 66 0
0 63 0
0 59 0
0 61 0
0 66 0
0 66 0
0 65 0
0 59 0
0 68 0
0 58 0
0 57 0
0 68 0
0 67 0
0 66 0
0 60 0
0 74 0
0 60 0
0 59 0
0 73 0
0 64 0
0 71 0
0 71 0
0 61 0
0 66 0
0 64 0
0 47 0
0 70 0
0 64 0
0 63 0
0 64 0
0 78 0
0 71 0
0 65 0
0 76 0
0 69 0
0 48 0
0 68 0
0 63 0
0 62 0
0 62 0
0 70 0
0 67 0
0 68 0
0 60 0
0 56 0
0 61 0
0 76 0
0 60 0
0 69 0
0 55 0
0 63 0
0 67 0
0 64 0
0 59 0
0 59 0
0 70 0
0 58 0
0 74 0
0 64 0
0 54 0
0 64 0
0 65 0
0 66 0
0 55 0
0 73 0
0 62 0
0 62 0
0 57 0
0 64 0
0 63 0
0 55 0
0 63 0
0 59 0
0 62 0
0 65 0
0 57 0
0 66 0
0 60 0
0 64 0
0 57 0
0 59 0
0 72 0
0 62 0
0 54 0
0 65 0
0 70 0
0 60 0
0 68 0
0 67 0
0 59 0
0 60 0
0 63 0
0 46 0
0 63 0
0 52 0
0 65 0
0 60 0
0 56 0
0 60 0
0 60 0
0 58 0
0 52 0
0 68 0
0 66 0
0 61 0
0 62 0
0 65 0
0 66 0
0 62 0
0 60 0
0 69 0
0 63 0
0 59 0
0 57 0
0 64 0
0 58 0
0 58 0
0 62 0
0 59 0
0 64 0
0 60 0
0 59 0
0 62 0
0 60 0
0 61 0
0 59 0
0 63 0
0 54 0
0 65 0
0 61 0
0 64 0
0 64 0
0 58 0
0 64 0
0 66 0
0 56 0
0 70 0
0 56 0
0 60 0
0 57 0
0 57 0
0 60 0
0 51 0
0 54 0
0 60 0
0 67 0
0 60 0
0 62 0
0 69 0
0 53 0
0 60 0
0 63 0
0 48 0
0 63 0
0 61 0
0 61 0
0 61 0
0 75 0
0 73 0
0 71 0
0 54 0
0 60 0
0 67 0
0 63 0
0 57 0
0 59 0
0 58 0
0 56 0
0 61 0
0 58 0
0 71 0
0 59 0
0 65 0
0 56 0
0 70 0
0 64 0
0 63 0
0 65 0
0 61 0
0 57 0
0 61 0
0 72 0
0 67 0
0 62 0
0 58 0
0 65 0
0 55 0
0 61 0
0 66 0
0 62 0
0 67 0
0 76 0
0 64 0
0 61 0
0 66 0
0 57 0
0 69 0
0 67 0
0 63 0
0 70 0
0 69 0
0 78 0
0 63 0
0 56 0
0 72 0
0 68 0
0 74 0
0 55 0
0 63 0
0 58 0
0 60 0
0 56 0
0 56 0
0 59 0
0 69 0
0 71 0
0 64 0
0 59 0
0 64 0
0 76 0
0 71 0
0 67 0
0 62 0
0 71 0
0 62 0
0 59 0
0 58 0
0 71 0
0 61 0
0 67 0
0 61 0
0 54 0
0 71 0
0 68 0
0 77 0
0 68 0
0 64 0
0 70 0
0 61 0
0 74 0
0 64 0
0 66 0
0 59 0
0 72 0
0 74 0
0 68 0
0 75 0
0 55 0
0 65 0
0 65 0
0 64 0
0 59 0
0 58 0
0 59 0
0 59 0
0 65 0
0 65 0
0 72 0
0 68 0
0 70 0
0 60 0
0 63 0
0 56 0
0 61 0
0 69 0
0 60 0
0 61 0
0 73 0
0 71 0
0 68 0
0 52 0
0 65 0
0 58 0
0 64 0
0 62 0
0 71 0
0 66 0
0 65 0
0 70 0
0 66 0
0 70 0
0 67 0
0 66 0
0 73 0
0 70 0
0 67 0
0 66 0
0 77 0
0 65 0
0 72 0
0 75 0
0 69 0
0 61 0
0 80 0
0 76 0
0 80 0
0 69 0
0 68 0
0 75 0
0 78 0
0 70 0
0 67 0
0 63 0
0 65 0
0 65 0
0 75 0
0 72 0
0 56 0
0 77 0
0 75 0
0 62 0
0 69 0
0 72 0
0 68 0
0 73 0
0 73 0
0 78 0
0 75 0
0 74 0
0 71 0
0 67 0
0 71 0
0 80 0
0 65 0
0 74 0
0 72 0
0 73 0
0 70 0
0 75 0
0 73 0
0 75 0
0 61 0
0 72 0
0 62 0
0 77 0
0 79 0
0 67 0
0 66 0
0 71 0
0 64 0
0 71 0
0 63 0
0 70 0
0 58 0
0 57 0
0 69 0
0 65 0
0 68 0
0 54 0
0 73 0
0 66 0
0 71 0
0 65 0
0 61 0
0 71 0
0 70 0
0 62 0
0 69 0
0 71 0
0 71 0
0 79 0
0 69 0
0 68 0
0 59 0
0 65 0
0 70 0
0 73 0
0 54 0
0 58 0
0 75 0
0 65 0
0 59 0
0 65 0
0 59 0
0 61 0
0 62 0
0 65 0
0 54 0
0 56 0
0 69 0
0 64 0
0 65 0
0 69 0
0 72 0
0 63 0
0 58 0
0 69 0
0 54 0
0 73 0
0 63 0
0 76 0
0 69 0
0 81 0
0 68 0
0 55 0
0 67 0
0 59 0
0 65 0
0 57 0
0 63 0
0 67 0
0 65 0
0 75 0
0 63 0
0 60 0
0 70 0
0 62 0
0 68 0
0 64 0
0 65 0
0 69 0
0 61 0
0 66 0
0 68 0
0 55 0
0 62 0
0 65 0
0 57 0
0 70 0
0 69 0
0 61 0
0 61 0
0 60 0
0 70 0
0 66 0
0 66 0
0 69 0
0 65 0
0 55 0
0 64 0
0 69 0
0 68 0
0 58 0
0 64 0
0 68 0
0 62 0
0 72 0
0 74 0
0 52 0
0 60 0
0 76 0
0 68 0
0 72 0
0 55 0
0 65 0
0 62 0
0 61 0
0 58 0
0 58 0
0 58 0
0 60 0
0 69 0
0 64 0
0 63 0
0 67 0
0 56 0
0 56 0
0 69 0
0 66 0
0 62 0
0 65 0
0 70 0
0 59 0
0 62 0
0 61 0
0 61 0
0 64 0
0 60 0
0 68 0
0 62 0
0 56 0
0 63 0
0 57 0
0 56 0
0 67 0
0 55 0
0 68 0
0 62 0
0 65 0
0 58 0
0 65 0
0 65 0
0 57 0
0 64 0
0 59 0
0 51 0
0 63 0
0 59 0
0 58 0
0 57 0
0 67 0
0 60 0
0 76 0
0 63 0
0 44 0
0 65 0
0 60 0
0 54 0
0 59 0
0 53 0
0 69 0
0 60 0
0 63 0
0 51 0
0 70 0
0 52 0
0 65 0
0 56 0
0 66 0
0 72 0
0 57 0
0 65 0
0 61 0
0 62 0
0 70 0
0 54 0
0 63 0
0 63 0
0 54 0
0 56 0
0 60 0
0 63 0
0 63 0
0 63 0
0 67 0
0 74 0
0 58 0
0 62 0
0 61 0
0 63 0
0 73 0
0 59 0
0 64 0
0 59 0
0 51 0
0 74 0
0 58 0
0 59 0
0 68 0
0 54 0
0 74 0
0 63 0
0 70 0
0 64 0
0 64 0
0 69 0
0 64 0
0 67 0
0 70 0
0 71 0
0 62 0
0 61 0
0 58 0
0 63 0
0 62 0
0 57 0
0 66 0
0 57 0
0 69 0
0 69 0
0 56 0
0 67 0
0 69 0
0 60 0
0 74 0
0 60 0
0 63 0
0 68 0
0 74 0
0 63 0
0 68 0
0 57 0
0 59 0
0 67 0
0 67 0
0 62 0
0 55 0
0 63 0
0 55 0
0 66 0
0 75 0
0 63 0
0 58 0
0 62 0
0 58 0
0 67 0
0 63 0
0 70 0
0 62 0
0 63 0
0 66 0
0 65 0
0 72 0
0 71 0
0 74 0
0 65 0
0 66 0
0 61 0
0 62 0
0 67 0
0 72 0
0 56 0
0 57 0
0 67 0
0 56 0
0 57 0
0 73 0
0 63 0
0 67 0
0 70 0
0 62 0
0 63 0
0 69 0
0 65 0
0 68 0
0 68 0
0 67 0
0 65 0
0 67 0
0 59 0
0 69 0
0 57 0
0 70 0
0 73 0
0 63 0
0 60 0
0 73 0
0 60 0
0 73 0
0 65 0
0 66 0
0 63 0
0 67 0
0 71 0
0 61 0
0 62 0
0 75 0
0 61 0
0 67 0
0 61 0
0 68 0
0 57 0
0 72 0
0 69 0
0 67 0
0 54 0
0 65 0
0 62 0
0 64 0
0 64 0
0 58 0
0 69 0
0 65 0
0 64 0
0 59 0
0 71 0
0 66 0
0 64 0
0 47 0
0 70 0
0 65 0
0 61 0
0 69 0
0 67 0
0 55 0
0 70 0
0 66 0
0 57 0
0 62 0
0 64 0
0 66 0
0 66 0
0 62 0
0 61 0
0 69 0
0 62 0
0 74 0
0 64 0
0 69 0
0 66 0
0 70 0
0 76 0
0 71 0
0 69 0
0 68 0
0 72 0
0 64 0
0 68 0
0 72 0
0 65 0
0 61 0
0 63 0
0 64 0
0 62 0
0 76 0
0 71 0
0 80 0
0 69 0
0 63 0
0 67 0
0 65 0
0 70 0
0 80 0
0 69 0
0 70 0
0 66 0
0 74 0
0 75 0
0 84 0
0 71 0
0 61 0
0 57 0
0 72 0
0 63 0
0 69 0
0 69 0
0 71 0
0 59 0
0 58 0
0 73 0
0 70 0
0 75 0
0 66 0
0 60 0
0 84 0
0 65 0
0 74 0
0 71 0
0 66 0
0 68 0
0 61 0
0 68 0
0 67 0
0 63 0
0 50 0
0 70 0
0 66 0
0 73 0
0 59 0
0 68 0
0 64 0
0 65 0
0 64 0
0 68 0
0 59 0
0 64 0
0 78 0
0 56 0
0 65 0
0 73 0
0 69 0
0 63 0
0 59 0
0 69 0
0 59 0
0 67 0
0 60 0
0 67 0
0 61 0
0 72 0
0 68 0
0 72 0
0 74 0
0 68 0
0 64 0
0 75 0
0 64 0
0 65 0
0 70 0
0 73 0
0 69 0
0 74 0
0 67 0
0 67 0
0 69 0
0 69 0
0 64 0
0 68 0
0 63 0
0 70 0
0 60 0
0 70 0
0 67 0
0 67 0
0 68 0
0 76 0
0 65 0
0 58 0
0 60 0
0 74 0
0 56 0
0 65 0
0 78 0
0 61 0
0 57 0
0 58 0
0 73 0
0 68 0
0 58 0
0 69 0
0 61 0
0 68 0
0 65 0
0 63 0
0 66 0
0 68 0
0 71 0
0 72 0
0 72 0
0 61 0
0 70 0
0 48 0
0 59 0
0 71 0
0 60 0
0 62 0
0 60 0
0 60 0
0 79 0
0 75 0
0 64 0
0 66 0
0 56 0
0 63 0
0 70 0
0 69 0
0 59 0
0 61 0
0 60 0
0 70 0
0 54 0
0 65 0
0 64 0
0 53 0
0 62 0
0 64 0
0 68 0
0 58 0
0 69 0
0 59 0
0 77 0
0 65 0
0 71 0
0 62 0
0 75 0
0 67 0
0 66 0
0 53 0
0 78 0
0 64 0
0 59 0
0 67 0
0 55 0
0 51 0
0 60 0
0 64 0
0 61 0
0 65 0
0 60 0
0 63 0
0 62 0
0 61 0
0 63 0
0 62 0
0 58 0
0 58 0
0 66 0
0 63 0
0 58 0
0 55 0
0 62 0
0 62 0
0 68 0
0 63 0
0 54 0
0 67 0
0 62 0
0 56 0
0 71 0
0 63 0
0 63 0
0 74 0
0 59 0
0 67 0
0 63 0
0 69 0
0 55 0
0 69 0
0 70 0
0 68 0
0 65 0
0 68 0
0 64 0
0 61 0
0 59 0
0 75 0
0 56 0
0 61 0
0 62 0
0 71 0
0 50 0
0 62 0
0 61 0
0 69 0
0 60 0
0 68 0
0 58 0
0 53 0
0 57 0
0 60 0
0 55 0
0 53 0
0 65 0
0 58 0
0 59 0
0 57 0
0 67 0
0 60 0
0 58 0
0 62 0
0 59 0
0 60 0
0 60 0
0 57 0
0 45 0
0 60 0
0 72 0
0 59 0
0 69 0
0 66 0
0 67 0
0 61 0
0 72 0
0 69 0
0 69 0
0 75 0
0 63 0
0 62 0
0 68 0
0 61 0
0 61 0
0 56 0
0 60 0
0 68 0
0 51 0
0 69 0
0 74 0
0 64 0
0 55 0
0 61 0
0 64 0
0 68 0
0 84 0
0 60 0
0 59 0
0 71 0
0 74 0
0 59 0
0 58 0
0 54 0
0 65 0
0 55 0
0 58 0
0 53 0
0 58 0
0 60 0
0 72 0
0 56 0
0 65 0
0 68 0
0 69 0
0 62 0
0 64 0
0 72 0
0 58 0
0 64 0
0 65 0
0 64 0
0 68 0
0 67 0
0 63 0
0 68 0
0 71 0
0 69 0
0 68 0
0 67 0
0 59 0
0 57 0
0 69 0
0 65 0
0 54 0
0 58 0
0 64 0
0 51 0
0 63 0
0 66 0
0 61 0
0 70 0
0 55 0
0 59 0
0 59 0
0 68 0
0 65 0
0 63 0
0 63 0
0 59 0
0 64 0
0 67 0
0 65 0
0 65 0
0 54 0
0 60 0
0 65 0
0 69 0
0 64 0
0 49 0
0 57 0
0 58 0
0 68 0
0 55 0
0 67 0
0 61 0
0 57 0
0 62 0
0 55 0
0 60 0
0 64 0
0 71 0
0 64 0
0 73 0
0 65 0
0 57 0
0 65 0
0 58 0
0 59 0
0 70 0
0 65 0
0 48 0
0 67 0
0 61 0
0 63 0
0 64 0
0 69 0
0 76 0
0 73 0
0 63 0
0 58 0
0 68 0
0 69 0
0 53 0
0 57 0
0 59 0
0 69 0
0 61 0
0 68 0
0 68 0
0 56 0
0 59 0
0 62 0
0 60 0
0 62 0
0 64 0
0 63 0
0 57 0
0 62 0
0 73 0
0 74 0
0 66 0
0 69 0
0 62 0
0 68 0
0 69 0
0 61 0
0 61 0
0 66 0
0 70 0
0 62 0
0 73 0
0 65 0
0 80 0
0 66 0
0 53 0
0 64 0
0 64 0
0 64 0
0 67 0
0 65 0
0 68 0
0 67 0
0 70 0
0 69 0
0 71 0
0 76 0
0 68 0
0 63 0
0 64 0
0 69 0
0 77 0
0 70 0
0 71 0
0 70 0
0 70 0
0 76 0
0 61 0
0 78 0
0 72 0
0 70 0
0 68 0
0 76 0
0 66 0
0 68 0
0 52 0
0 65 0
0 59 0
0 70 0
0 62 0
0 54 0
0 65 0
0 69 0
0 61 0
0 69 0
0 72 0
0 61 0
0 73 0
0 67 0
0 71 0
0 62 0
0 69 0
0 65 0
0 74 0
0 71 0
0 73 0
0 72 0
0 59 0
0 68 0
0 60 0
0 64 0
0 66 0
0 77 0
0 68 0
0 65 0
0 74 0
0 84 0
0 67 0
0 65 0
0 63 0
0 67 0
0 81 0
0 69 0
0 66 0
0 75 0
0 70 0
0 60 0
0 60 0
0 68 0
0 70 0
0 61 0
0 66 0
0 68 0
0 67 0
0 68 0
0 70 0
0 74 0
0 62 0
0 65 0
0 68 0
0 60 0
0 66 0
0 69 0
0 68 0
0 70 0
0 55 0
0 72 0
0 65 0
0 64 0
0 73 0
0 64 0
0 64 0
0 62 0
0 69 0
0 51 0
0 61 0
0 64 0
0 80 0
0 59 0
0 76 0
0 50 0
0 62 0
0 65 0
0 64 0
0 65 0
0 68 0
0 67 0
0 61 0
0 62 0
0 70 0
0 59 0
0 64 0
0 70 0
0 69 0
0 59 0
0 67 0
0 56 0
0 57 0
0 72 0
0 62 0
0 63 0
0 70 0
0 73 0
0 65 0
0 69 0
0 63 0
0 67 0
0 61 0
0 61 0
0 52 0
0 78 0
0 61 0
0 62 0
0 63 0
0 58 0
0 77 0
0 72 0
0 65 0
0 57 0
0 60 0
0 71 0
0 73 0
0 62 0
0 63 0
0 54 0
0 71 0
0 63 0
0 63 0
0 67 0
0 67 0
0 69 0
0 57 0
0 66 0
0 65 0
0 60 0
0 64 0
0 55 0
0 68 0
0 61 0
0 71 0
0 65 0
0 52 0
0 64 0
0 61 0
0 57 0
0 68 0
0 63 0
0 60 0
0 67 0
0 62 0
0 60 0
0 70 0
0 81 0
0 64 0
0 59 0
0 58 0
0 64 0
0 59 0
0 58 0
0 72 0
0 55 0
0 58 0
0 65 0
0 61 0
0 63 0
0 61 0
0 59 0
0 68 0
0 48 0
0 58 0
0 55 0
0 61 0
0 59 0
0 64 0
0 70 0
0 77 0
0 72 0
0 54 0
0 59 0
0 73 0
0 55 0
0 78 0
0 58 0
0 68 0
0 62 0
0 57 0
0 72 0
0 70 0
0 64 0
0 75 0
0 68 0
0 52 0
0 58 0
0 69 0
0 61 0
0 66 0
0 61 0
0 69 0
0 57 0
0 75 0
0 74 0
0 69 0
0 66 0
0 66 0
0 72 0
0 73 0
0 66 0
0 73 0
0 64 0
0 67 0
0 70 0
0 57 0
0 73 0
0 58 0
0 68 0
0 57 0
0 75 0
0 56 0
0 56 0
0 69 0
0 62 0
0 58 0
0 69 0
0 71 0
0 67 0
0 74 0
0 68 0
0 67 0
0 62 0
0 65 0
0 64 0
0 67 0
0 56 0
0 63 0
0 66 0
0 62 0
0 64 0
0 67 0
0 69 0
0 57 0
0 59 0
0 61 0
0 59 0
0 61 0
0 68 0
0 63 0
0 61 0
0 69 0
0 57 0
0 66 0
0 71 0
0 71 0
0 70 0
0 61 0
0 67 0
0 53 0
0 62 0
0 64 0
0 70 0
0 60 0
0 65 0
0 69 0
0 64 0
0 61 0
0 61 0
0 71 0
0 73 0
0 59 0
0 69 0
0 73 0
0 68 0
0 67 0
0 59 0
0 65 0
0 65 0
0 58 0
0 56 0
0 75 0
0 65 0
0 63 0
0 63 0
0 65 0
0 60 0
0 68 0
0 67 0
0 62 0
0 66 0
0 61 0
0 65 0
0 60 0
0 60 0
0 72 0
0 72 0
0 64 0
0 64 0
0 73 0
0 70 0
0 66 0
0 61 0
0 66 0
0 65 0
0 74 0
0 62 0
0 70 0
0 72 0
0 61 0
0 64 0
0 67 0
0 68 0
0 61 0
0 64 0
0 62 0
0 60 0
0 72 0
0 72 0
0 65 0
0 62 0
0 61 0
0 75 0
0 60 0
0 67 0
0 69 0
0 69 0
0 63 0
0 61 0
0 58 0
0 61 0
0 65 0
0 62 0
0 64 0
0 64 0
0 59 0
0 63 0
0 71 0
0 65 0
0 65 0
0 64 0
0 53 0
0 69 0
0 57 0
0 52 0
0 67 0
0 60 0
0 68 0
0 66 0
0 66 0
0 67 0
0 78 0
0 59 0
0 72 0
0 68 0
0 59 0
0 65 0
0 61 0
0 65 0
0 60 0
0 65 0
0 72 0
0 73 0
0 65 0
0 58 0
0 66 0
0 72 0
0 66 0
0 66 0
0 71 0
0 59 0
0 79 0
0 62 0
0 75 0
0 65 0
0 72 0
0 64 0
0 67 0
0 71 0
0 66 0
0 74 0
0 73 0
0 66 0
0 67 0
0 64 0
0 73 0
0 63 0
0 72 0
0 57 0
0 78 0
0 70 0
0 67 0
0 68 0
0 73 0
0 70 0
0 78 0
0 73 0
0 68 0
0 60 0
0 65 0
0 71 0
0 66 0
0 75 0
0 59 0
0 73 0
0 65 0
0 69 0
0 63 0
0 64 0
0 70 0
0 64 0
0 69 0
0 71 0
0 63 0
0 70 0
0 62 0
0 70 0
0 65 0
0 65 0
0 82 0
0 69 0
0 68 0
0 66 0
0 60 0
0 72 0
0 72 0
0 66 0
0 64 0
0 72 0
0 64 0
0 72 0
0 76 0
0 61 0
0 64 0
0 67 0
0 63 0
0 66 0
0 69 0
0 71 0
0 70 0
0 64 0
0 68 0
0 67 0
0 59 0
0 64 0
0 72 0
0 78 0
0 64 0
0 65 0
0 72 0
0 64 0
0 64 0
0 77 0
0 71 0
0 67 0
0 74 0
0 75 0
0 66 0
0 77 0
0 71 0
0 62 0
0 66 0
0 59 0
0 58 0
0 64 0
0 69 0
0 69 0
0 66 0
0 76 0
0 60 0
0 60 0
0 65 0
0 62 0
0 64 0
0 69 0
0 60 0
0 66 0
0 72 0
0 67 0
0 61 0
0 64 0
0 71 0
0 80 0
0 72 0
0 62 0
0 66 0
0 68 0
0 59 0
0 56 0
0 62 0
0 69 0
0 60 0
0 66 0
0 57 0
0 65 0
0 64 0
0 71 0
0 62 0
0 59 0
0 73 0
0 51 0
0 64 0
0 63 0
0 58 0
0 63 0
0 64 0
0 60 0
0 61 0
0 72 0
0 65 0
0 73 0
0 70 0
0 75 0
0 72 0
0 66 0
0 62 0
0 67 0
0 65 0
0 65 0
0 80 0
0 63 0
0 60 0
0 56 0
0 71 0
0 55 0
0 71 0
0 64 0
0 62 0
0 52 0
0 65 0
0 69 0
0 73 0
0 60 0
0 71 0
0 67 0
0 64 0
0 62 0
0 68 0
0 65 0
0 68 0
0 52 0
0 71 0
0 61 0
0 72 0
0 68 0
0 56 0
0 60 0
0 60 0
0 68 0
0 65 0
0 62 0
0 73 0
0 60 0
0 69 0
0 64 0
0 67 0
0 72 0
0 66 0
0 61 0
0 66 0
0 61 0
0 64 0
0 61 0
0 63 0
0 62 0
0 60 0
0 63 0
0 68 0
0 61 0
0 59 0
0 65 0
0 59 0
0 59 0
0 66 0
0 68 0
0 66 0
0 63 0
0 65 0
0 58 0
0 64 0
0 73 0
0 65 0
0 61 0
0 60 0
0 59 0
0 62 0
0 67 0
0 59 0
0 64 0
0 73 0
0 60 0
0 71 0
0 58 0
0 60 0
0 80 0
0 53 0
0 58 0
0 64 0
0 62 0
0 64 0
0 72 0
0 67 0
0 64 0
0 54 0
0 72 0
0 61 0
0 68 0
0 71 0
0 63 0
0 64 0
0 58 0
0 67 0
0 59 0
0 69 0
0 65 0
0 63 0
0 60 0
0 65 0
0 65 0
0 59 0
0 65 0
0 59 0
0 58 0
0 68 0
0 62 0
0 64 0
0 72 0
0 58 0
0 68 0
0 67 0
0 59 0
0 75 0
0 59 0
0 63 0
0 71 0
0 65 0
0 62 0
0 67 0
0 66 0
0 69 0
0 61 0
0 52 0
0 69 0
0 67 0
0 62 0
0 66 0
0 58 0
0 53 0
0 59 0
0 77 0
0 64 0
0 60 0
0 65 0
0 58 0
0 64 0
0 67 0
0 63 0
0 59 0
0 64 0
0 62 0
0 62 0
0 69 0
0 59 0
0 70 0
0 65 0
0 64 0
0 56 0
0 74 0
0 58 0
0 64 0
0 59 0
0 63 0
0 62 0
0 62 0
0 71 0
0 63 0
0 64 0
0 66 0
0 71 0
0 68 0
0 66 0
0 66 0
0 73 0
0 68 0
0 64 0
0 64 0
0 69 0
0 63 0
0 64 0
0 68 0
0 69 0
0 61 0
0 62 0
0 61 0
0 62 0
0 63 0
0 63 0
0 61 0
0 65 0
0 57 0
0 60 0
0 67 0
0 58 0
0 72 0
0 71 0
0 66 0
0 77 0
0 62 0
0 66 0
0 65 0
0 71 0
0 60 0
0 55 0
0 77 0
0 76 0
0 67 0
0 62 0
0 62 0
0 67 0
0 75 0
0 67 0
0 70 0
0 67 0
0 62 0
0 63 0
0 67 0
0 65 0
0 71 0
0 70 0
0 66 0
0 58 0
0 65 0
0 64 0
0 71 0
0 72 0
0 77 0
0 68 0
0 60 0
0 66 0
0 54 0
0 57 0
0 64 0
0 59 0
0 69 0
0 71 0
0 63 0
0 60 0
0 61 0
0 67 0
0 76 0
0 76 0
0 68 0
0 66 0
0 75 0
0 64 0
0 72 0
0 60 0
0 67 0
0 68 0
0 55 0
0 63 0
0 71 0
0 60 0
0 61 0
0 71 0
0 69 0
0 62 0
0 67 0
0 61 0
0 63 0
0 65 0
0 66 0
0 67 0
0 69 0
0 64 0
0 67 0
0 70 0
0 74 0
0 62 0
0 57 0
0 74 0
0 67 0
0 67 0
0 65 0
0 61 0
0 61 0
0 68 0
0 65 0
0 68 0
0 79 0
0 67 0
0 67 0
0 67 0
0 70 0
0 70 0
0 63 0
0 70 0
0 68 0
0 61 0
0 63 0
0 63 0
0 70 0
0 61 0
0 68 0
0 62 0
0 67 0
0 68 0
0 67 0
0 68 0
0 71 0
0 66 0
0 68 0
0 73 0
0 74 0
0 62 0
0 76 0
0 68 0
0 68 0
0 68 0
0 68 0
0 68 0
0 65 0
0 56 0
0 67 0
0 64 0
0 65 0
0 79 0
0 60 0
0 77 0
0 67 0
0 65 0
0 67 0
0 65 0
0 69 0
0 70 0
0 68 0
0 65 0
0 78 0
0 73 0
0 67 0
0 68 0
0 69 0
0 65 0
0 59 0
0 66 0
0 69 0
0 67 0
0 71 0
0 71 0
0 73 0
0 75 0
0 81 0
0 66 0
0 68 0
0 66 0
0 57 0
0 68 0
0 67 0
0 72 0
0 70 0
0 61 0
0 65 0
0 64 0
0 69 0
0 79 0
0 67 0
0 60 0
0 62 0
0 55 0
0 70 0
0 73 0
0 62 0
0 61 0
0 73 0
0 59 0
0 59 0
0 68 0
0 62 0
0 75 0
0 73 0
0 63 0
0 65 0
0 73 0
0 67 0
0 65 0
0 64 0
0 74 0
0 63 0
0 75 0
0 66 0
0 69 0
0 61 0
0 67 0
0 67 0
0 68 0
0 67 0
0 71 0
0 61 0
0 66 0
0 66 0
0 60 0
0 63 0
0 65 0
0 68 0
0 62 0
0 66 0
0 63 0
0 64 0
0 60 0
0 70 0
0 58 0
0 63 0
0 64 0
0 68 0
0 55 0
0 57 0
0 70 0
0 65 0
0 68 0
0 65 0
0 72 0
0 66 0
0 63 0
0 68 0
0 63 0
0 62 0
0 61 0
0 65 0
0 63 0
0 62 0
0 56 0
0 65 0
0 67 0
0 71 0
0 60 0
0 62 0
0 60 0
0 57 0
0 61 0
0 67 0
0 66 0
0 56 0
0 58 0
0 58 0
0 63 0
0 57 0
0 63 0
0 64 0
0 65 0
0 61 0
0 61 0
0 61 0
0 60 0
0 62 0
0 62 0
0 64 0
0 66 0
0 63 0
0 69 0
0 68 0
0 68 0
0 58 0
0 67 0
0 63 0
0 61 0
0 58 0
0 61 0
0 64 0
0 63 0
0 63 0
0 60 0
0 61 0
0 58 0
0 74 0
0 69 0
0 55 0
0 73 0
0 68 0
0 67 0
0 68 0
0 73 0
0 66 0
0 67 0
0 63 0
0 58 0
0 64 0
0 64 0
0 65 0
0 68 0
0 55 0
0 68 0
0 64 0
0 63 0
0 62 0
0 62 0
0 67 0
0 63 0
0 64 0
0 64 0
0 71 0
0 57 0
0 62 0
0 62 0
0 61 0
0 63 0
0 62 0
0 60 0
0 57 0
0 64 0
0 68 0
0 68 0
0 54 0
0 62 0
0 67 0
0 65 0
0 57 0
0 65 0
0 62 0
0 67 0
0 61 0
0 60 0
0 61 0
0 63 0
0 67 0
0 60 0
0 57 0
0 65 0
0 66 0
0 59 0
0 66 0
0 64 0
0 69 0
0 61 0
0 71 0
0 44 0
0 62 0
0 60 0
0 68 0
0 67 0
0 75 0
0 56 0
0 76 0
0 73 0
0 66 0
0 79 0
0 64 0
0 67 0
0 57 0
0 63 0
0 56 0
0 61 0
0 59 0
0 62 0
0 62 0
0 68 0
0 67 0
0 58 0
0 57 0
0 63 0
0 66 0
0 66 0
0 69 0
0 64 0
0 60 0
0 61 0
0 68 0
0 68 0
0 78 0
0 70 0
0 74 0
0 60 0
0 69 0
0 68 0
0 65 0
0 45 0
0 57 0
0 78 0
0 70 0
0 65 0
0 69 0
0 60 0
0 64 0
0 63 0
0 61 0
0 58 0
0 65 0
0 63 0
0 63 0
0 61 0
0 69 0
0 65 0
0 67 0
0 70 0
0 68 0
0 55 0
0 61 0
0 59 0
0 65 0
0 57 0
0 65 0
0 67 0
0 65 0
0 59 0
0 73 0
0 73 0
0 73 0
0 66 0
0 53 0
0 61 0
0 69 0
0 71 0
0 58 0
0 65 0
0 63 0
0 73 0
0 60 0
0 72 0
0 66 0
0 67 0
0 62 0
0 75 0
0 64 0
0 71 0
0 55 0
0 59 0
0 65 0
0 73 0
0 57 0
0 60 0
0 73 0
0 68 0
0 64 0
0 64 0
0 64 0
0 68 0
0 60 0
0 65 0
0 63 0
0 58 0
0 69 0
0 68 0
0 64 0
0 73 0
0 70 0
0 71 0
0 65 0
0 75 0
0 75 0
0 69 0
0 63 0
0 67 0
0 67 0
0 67 0
0 69 0
0 60 0
0 69 0
0 64 0
0 59 0
0 69 0
0 65 0
0 65 0
0 73 0
0 58 0
0 75 0
0 59 0
0 74 0
0 69 0
0 71 0
0 72 0
0 74 0
0 62 0
0 73 0
0 58 0
0 71 0
0 68 0
0 70 0
0 75 0
0 71 0
0 76 0
0 69 0
0 72 0
0 72 0
0 60 0
0 72 0
0 59 0
0 67 0
0 68 0
0 57 0
0 66 0
0 69 0
0 72 0
0 69 0
0 65 0
0 66 0
0 62 0
0 68 0
0 71 0
0 71 0
0 68 0
0 67 0
0 77 0
0 69 0
0 75 0
0 67 0
0 63 0
0 68 0
0 62 0
0 66 0
0 79 0
0 66 0
0 65 0
0 64 0
0 77 0
0 58 0
0 66 0
0 68 0
0 61 0
0 77 0
0 71 0
0 76 0
0 74 0
0 74 0
0 64 0
0 64 0
0 65 0
0 69 0
0 62 0
0 67 0
0 73 0
0 73 0
0 67 0
0 64 0
0 72 0
0 48 0
0 68 0
0 64 0
0 64 0
0 71 0
0 52 0
0 68 0
0 64 0
0 62 0
0 77 0
0 60 0
0 79 0
0 64 0
0 73 0
0 57 0
0 65 0
0 63 0
0 64 0
0 71 0
0 69 0
0 69 0
0 76 0
0 69 0
0 65 0
0 65 0
0 75 0
0 57 0
0 68 0
0 61 0
0 74 0
0 62 0
0 78 0
0 73 0
0 68 0
0 62 0
0 68 0
0 63 0
0 56 0
0 61 0
0 63 0
0 76 0
0 68 0
0 78 0
0 68 0
0 70 0
0 69 0
0 67 0
0 62 0
0 68 0
0 71 0
0 63 0
0 65 0
0 64 0
0 55 0
0 74 0
0 70 0
0 60 0
0 74 0
0 65 0
0 65 0
0 67 0
0 61 0
0 67 0
0 59 0
0 61 0
0 65 0
0 63 0
0 73 0
0 67 0
0 63 0
0 62 0
0 59 0
0 67 0
0 75 0
0 71 0
0 62 0
0 61 0
0 74 0
0 69 0
0 71 0
0 63 0
0 68 0
0 65 0
0 62 0
0 55 0
0 72 0
0 70 0
0 58 0
0 64 0
0 71 0
0 77 0
0 67 0
0 59 0
0 71 0
0 62 0
0 71 0
0 62 0
0 58 0
0 70 0
0 67 0
0 71 0
0 66 0
0 57 0
0 67 0
0 70 0
0 59 0
0 69 0
0 65 0
0 69 0
0 68 0
0 69 0
0 70 0
0 60 0
0 61 0
0 62 0
0 55 0
0 78 0
0 66 0
0 61 0
0 53 0
0 68 0
0 63 0
0 57 0
0 60 0
0 67 0
0 76 0
0 63 0
0 69 0
0 66 0
0 75 0
0 65 0
0 61 0
0 68 0
0 62 0
0 44 0
0 62 0
0 63 0
0 64 0
0 75 0
0 65 0
0 61 0
0 56 0
0 62 0
0 65 0
0 62 0
0 62 0
0 57 0
0 62 0
0 60 0
0 69 0
0 71 0
0 64 0
0 64 0
0 60 0
0 69 0
0 66 0
0 52 0
0 67 0
0 53 0
0 72 0
0 55 0
0 66 0
0 59 0
0 55 0
0 65 0
0 69 0
0 61 0
0 63 0
0 72 0
0 65 0
0 68 0
0 62 0
0 64 0
0 57 0
0 62 0
0 52 0
0 65 0
0 70 0
0 65 0
0 60 0
0 53 0
0 59 0
0 64 0
0 55 0
0 65 0
0 53 0
0 71 0
0 68 0
0 63 0
0 64 0
0 70 0
0 66 0
0 68 0
0 59 0
0 62 0
0 62 0
0 62 0
0 66 0
0 68 0
0 76 0
0 63 0
0 67 0
0 62 0
0 69 0
0 68 0
0 56 0
0 64 0
0 67 0
0 60 0
0 60 0
0 54 0
0 61 0
0 71 0
0 57 0
0 60 0
0 75 0
0 60 0
0 59 0
0 66 0
0 67 0
0 62 0
0 66 0
0 62 0
0 63 0
0 65 0
0 67 0
0 53 0
0 69 0
0 66 0
0 68 0
0 66 0
0 70 0
0 63 0
0 56 0
0 64 0
0 68 0
0 71 0
0 57 0
0 66 0
0 66 0
0 66 0
0 71 0
0 59 0
0 64 0
0 70 0
0 66 0
0 68 0
0 65 0
0 67 0
0 65 0
0 60 0
0 59 0
0 61 0
0 65 0
0 54 0
0 59 0
0 63 0
0 62 0
0 72 0
0 66 0
0 64 0
0 70 0
0 66 0
0 79 0
0 62 0
0 60 0
0 58 0
0 66 0
0 70 0
0 70 0
0 60 0
0 54 0
0 60 0
0 68 0
0 58 0
0 71 0
0 66 0
0 77 0
0 72 0
0 70 0
0 66 0
0 75 0
0 60 0
0 65 0
0 60 0
0 64 0
0 63 0
0 63 0
0 65 0
0 62 0
0 71 0
0 66 0
0 64 0
0 58 0
0 65 0
0 75 0
0 66 0
0 68 0
0 76 0
0 65 0
0 69 0
0 75 0
0 65 0
0 69 0
0 68 0
0 67 0
0 66 0
0 62 0
0 64 0
0 66 0
0 78 0
0 61 0
0 64 0
0 57 0
0 61 0
0 64 0
0 70 0
0 65 0
0 65 0
0 64 0
0 64 0
0 54 0
0 53 0
0 69 0
0 72 0
0 62 0
0 68 0
0 73 0
0 62 0
0 64 0
0 70 0
0 69 0
0 69 0
0 62 0
0 67 0
0 67 0
0 67 0
0 72 0
0 67 0
0 61 0
0 59 0
0 68 0
0 70 0
0 71 0
0 69 0
0 54 0
0 60 0
0 64 0
0 60 0
0 62 0
0 70 0
0 70 0
0 67 0
0 62 0
0 59 0
0 66 0
0 58 0
0 61 0
0 79 0
0 72 0
0 75 0
0 67 0
0 78 0
0 74 0
0 54 0
0 66 0
0 70 0
0 73 0
0 72 0
0 64 0
0 72 0
0 66 0
0 64 0
0 75 0
0 64 0
0 70 0
0 65 0
0 72 0
0 62 0
0 67 0
0 69 0
0 79 0
0 65 0
0 64 0
0 71 0
0 64 0
0 63 0
0 70 0
0 76 0
0 62 0
0 65 0
0 67 0
0 70 0
0 63 0
0 70 0
0 62 0
0 63 0
0 67 0
0 65 0
0 68 0
0 69 0
0 60 0
0 66 0
0 79 0
0 73 0
0 64 0
0 72 0
0 73 0
0 53 0
0 60 0
0 71 0
0 64 0
0 60 0
0 71 0
0 58 0
0 71 0
0 58 0
0 63 0
0 78 0
0 67 0
0 66 0
0 71 0
0 66 0
0 60 0
0 68 0
0 65 0
0 67 0
0 65 0
0 61 0
0 68 0
0 68 0
0 68 0
0 76 0
0 70 0
0 66 0
0 69 0
0 68 0
0 72 0
0 70 0
0 68 0
0 63 0
0 59 0
0 53 0
0 64 0
0 67 0
0 54 0
0 57 0
0 70 0
0 61 0
0 60 0
0 71 0
0 72 0
0 69 0
0 65 0
0 67 0
0 63 0
0 86 0
0 63 0
0 64 0
0 62 0
0 68 0
0 60 0
0 71 0
0 66 0
0 64 0
0 66 0
0 65 0
0 65 0
0 62 0
0 52 0
0 70 0
0 62 0
0 65 0
0 61 0
0 68 0
0 64 0
0 62 0
0 76 0
0 61 0
0 58 0
0 68 0
0 61 0
0 70 0
0 65 0
0 70 0
0 57 0
0 61 0
0 72 0
0 71 0
0 60 0
0 66 0
0 64 0
0 65 0
0 60 0
0 52 0
0 56 0
0 63 0
0 71 0
0 61 0
0 57 0
0 73 0
0 61 0
0 61 0
0 66 0
0 64 0
0 60 0
0 68 0
0 72 0
0 56 0
0 73 0
0 67 0
0 60 0
0 64 0
0 64 0
0 66 0
0 71 0
0 76 0
0 62 0
0 61 0
0 70 0
0 62 0
0 59 0
0 73 0
0 63 0
0 55 0
0 60 0
0 61 0
0 61 0
0 74 0
0 54 0
0 63 0
0 62 0
0 64 0
0 63 0
0 69 0
0 60 0
0 71 0
0 69 0
0 47 0
0 62 0
0 55 0
0 58 0
0 66 0
0 65 0
0 67 0
0 64 0
0 61 0
0 65 0
0 68 0
0 68 0
0 57 0
0 70 0
0 62 0
0 67 0
0 58 0
0 61 0
0 63 0
0 65 0
0 59 0
0 59 0
0 70 0
0 70 0
0 63 0
0 71 0
0 60 0
0 60 0
0 54 0
0 61 0
0 65 0
0 68 0
0 69 0
0 64 0
0 65 0
0 68 0
0 67 0
0 68 0
0 62 0
0 66 0
0 64 0
0 62 0
0 62 0
0 72 0
0 62 0
0 61 0
0 57 0
0 60 0
0 63 0
0 68 0
0 57 0
0 63 0
0 75 0
0 65 0
0 65 0
0 62 0
0 61 0
0 63 0
0 70 0
0 65 0
0 57 0
0 58 0
0 63 0
0 66 0
0 57 0
0 64 0
0 64 0
0 63 0
0 61 0
0 63 0
0 69 0
0 62 0
0 62 0
0 71 0
0 66 0
0 63 0
0 65 0
0 56 0
0 70 0
0 63 0
0 62 0
0 76 0
0 78 0
0 61 0
0 61 0
0 71 0
0 57 0
0 64 0
0 59 0
0 59 0
0 65 0
0 60 0
0 65 0
0 66 0
0 57 0
0 72 0
0 61 0
0 62 0
0 64 0
0 78 0
0 60 0
0 71 0
0 62 0
0 66 0
0 63 0
0 54 0
0 69 0
0 62 0
0 61 0
0 63 0
0 66 0
0 63 0
0 65 0
0 73 0
0 63 0
0 47 0
0 64 0
0 61 0
0 72 0
0 69 0
0 61 0
0 60 0
0 72 0
0 65 0
0 58 0
0 72 0
0 59 0
0 61 0
0 59 0
0 68 0
0 62 0
0 60 0
0 64 0
0 74 0
0 58 0
0 78 0
0 60 0
0 64 0
0 65 0
0 65 0
0 70 0
0 62 0
0 64 0
0 52 0
0 58 0
0 64 0
0 57 0
0 62 0
0 69 0
0 62 0
0 67 0
0 80 0
0 73 0
0 66 0
0 65 0
0 69 0
0 61 0
0 64 0
0 66 0
0 66 0
0 66 0
0 61 0
0 69 0
0 69 0
0 63 0
0 62 0
0 75 0
0 64 0
0 64 0
0 66 0
0 62 0
0 58 0
0 69 0
0 59 0
0 55 0
0 64 0
0 66 0
0 62 0
0 68 0
0 68 0
0 68 0
0 74 0
0 65 0
0 63 0
0 69 0
0 69 0
0 71 0
0 56 0
0 76 0
0 67 0
0 64 0
0 66 0
0 78 0
0 62 0
0 68 0
0 75 0
0 63 0
0 65 0
0 74 0
0 71 0
0 57 0
0 74 0
0 73 0
0 61 0
0 75 0
0 63 0
0 67 0
0 74 0
0 67 0
0 73 0
0 72 0
0 63 0
0 57 0
0 64 0
0 61 0
0 68 0
0 61 0
0 73 0
0 77 0
0 72 0
0 72 0
0 75 0
0 72 0
0 68 0
0 72 0
0 73 0
0 67 0
0 71 0
0 61 0
0 75 0
0 70 0
0 81 0
0 76 0
0 66 0
0 76 0
0 67 0
0 61 0
0 65 0
0 71 0
0 64 0
0 68 0
0 63 0
0 70 0
0 60 0
0 69 0
0 67 0
0 77 0
0 65 0
0 66 0
0 72 0
0 65 0
0 67 0
0 71 0
0 67 0
0 68 0
0 81 0
0 76 0
0 71 0
0 68 0
0 59 0
0 71 0
0 63 0
0 72 0
0 70 0
0 71 0
0 70 0
0 73 0
0 66 0
0 64 0
0 61 0
0 56 0
0 71 0
0 73 0
0 68 0
0 67 0
0 67 0
0 63 0
0 63 0
0 65 0
0 68 0
0 59 0
0 74 0
0 64 0
0 69 0
0 69 0
0 75 0
0 68 0
0 68 0
0 66 0
0 63 0
0 65 0
0 73 0
0 64 0
0 68 0
0 66 0
0 78 0
0 66 0
0 73 0
0 75 0
0 69 0
0 61 0
0 67 0
0 71 0
0 57 0
0 68 0
0 78 0
0 75 0
0 77 0
0 55 0
0 73 0
0 73 0
0 59 0
0 54 0
0 65 0
0 70 0
0 71 0
0 71 0
0 65 0
0 66 0
0 54 0
0 76 0
0 52 0
0 70 0
0 70 0
0 66 0
0 71 0
0 61 0
0 63 0
0 73 0
0 57 0
0 60 0
0 64 0
0 71 0
0 71 0
0 64 0
0 65 0
0 69 0
0 62 0
0 70 0
0 61 0
0 70 0
0 53 0
0 68 0
0 59 0
0 57 0
0 57 0
0 69 0
0 69 0
0 70 0
0 54 0
0 67 0
0 72 0
0 63 0
0 62 0
0 71 0
0 73 0
0 70 0
0 53 0
0 63 0
0 71 0
0 57 0
0 70 0
0 68 0
0 68 0
0 61 0
0 53 0
0 66 0
0 67 0
0 62 0
0 53 0
0 66 0
0 58 0
0 58 0
0 67 0
0 68 0
0 57 0
0 71 0
0 68 0
0 60 0
0 65 0
0 64 0
0 61 0
0 73 0
0 61 0
0 69 0
0 75 0
0 63 0
0 57 0
0 65 0
0 65 0
0 58 0
0 64 0
0 55 0
0 71 0
0 68 0
0 67 0
0 66 0
0 61 0
0 66 0
0 70 0
0 61 0
0 64 0
0 58 0
0 63 0
0 58 0
0 66 0
0 60 0
0 62 0
0 64 0
0 61 0
0 66 0
0 58 0
0 55 0
0 64 0
0 63 0
0 65 0
0 64 0
0 62 0
0 57 0
0 63 0
0 59 0
0 66 0
0 67 0
0 66 0
0 61 0
0 69 0
0 65 0
0 65 0
0 58 0
0 61 0
0 52 0
0 62 0
0 65 0
0 65 0
0 56 0
0 64 0
0 66 0
0 61 0
0 64 0
0 68 0
0 68 0
0 71 0
0 78 0
0 56 0
0 72 0
0 56 0
0 78 0
0 76 0
0 69 0
0 60 0
0 66 0
0 57 0
0 56 0
0 58 0
0 68 0
0 61 0
0 64 0
0 69 0
0 51 0
0 53 0
0 63 0
0 65 0
0 71 0
0 53 0
0 57 0
0 66 0
0 67 0
0 73 0
0 64 0
0 63 0
0 74 0
0 61 0
0 69 0
0 67 0
0 64 0
0 56 0
0 58 0
0 67 0
0 65 0
0 63 0
0 65 0
0 65 0
0 67 0
0 62 0
0 75 0
0 63 0
0 62 0
0 70 0
0 61 0
0 65 0
0 61 0
0 70 0
0 54 0
0 58 0
0 65 0
0 69 0
0 80 0
0 70 0
0 73 0
0 66 0
0 70 0
0 74 0
0 68 0
0 65 0
0 71 0
0 62 0
0 63 0
0 74 0
0 66 0
0 54 0
0 70 0
0 72 0
0 67 0
0 65 0
0 58 0
0 56 0
0 62 0
0 68 0
0 59 0
0 56 0
0 67 0
0 64 0
0 63 0
0 66 0
0 68 0
0 69 0
0 60 0
0 60 0
0 58 0
0 62 0
0 62 0
0 62 0
0 60 0
0 56 0
0 64 0
0 57 0
0 62 0
0 61 0
0 58 0
0 62 0
0 63 0
0 68 0
0 69 0
0 66 0
0 69 0
0 60 0
0 72 0
0 62 0
0 64 0
0 58 0
0 67 0
0 63 0
0 63 0
0 55 0
0 61 0
0 71 0
0 65 0
0 63 0
0 60 0
0 64 0
0 72 0
0 62 0
0 64 0
0 60 0
0 68 0
0 67 0
0 65 0
0 61 0
0 61 0
0 62 0
0 67 0
0 75 0
0 60 0
0 71 0
0 68 0
0 68 0
0 66 0
0 65 0
0 65 0
0 62 0
0 64 0
0 69 0
0 63 0
0 70 0
0 67 0
0 74 0
0 69 0
0 64 0
0 66 0
0 70 0
0 66 0
0 73 0
0 83 0
0 70 0
0 65 0
0 73 0
0 58 0
0 56 0
0 64 0
0 62 0
0 76 0
0 72 0
0 64 0
0 58 0
0 65 0
0 77 0
0 65 0
0 67 0
0 67 0
0 71 0
0 68 0
0 59 0
0 62 0
0 68 0
0 60 0
0 69 0
0 71 0
0 67 0
0 76 0
0 76 0
0 63 0
0 70 0
0 63 0
0 67 0
0 72 0
0 58 0
0 67 0
0 66 0
0 62 0
0 65 0
0 66 0
0 67 0
0 66 0
0 60 0
0 71 0
0 60 0
0 77 0
0 65 0
0 63 0
0 67 0
0 67 0
0 68 0
0 60 0
0 77 0
0 72 0
0 72 0
0 73 0
0 75 0
0 62 0
0 66 0
0 61 0
0 73 0
0 59 0
0 66 0
0 63 0
0 67 0
0 79 0
0 70 0
0 71 0
0 65 0
0 75 0
0 67 0
0 71 0
0 65 0
0 70 0
0 68 0
0 72 0
0 60 0
0 68 0
0 64 0
0 65 0
0 63 0
0 63 0
0 66 0
0 66 0
0 67 0
0 67 0
0 74 0
0 68 0
0 64 0
0 58 0
0 71 0
0 69 0
0 69 0
0 66 0
0 66 0
0 70 0
0 68 0
0 71 0
0 71 0
0 68 0
0 64 0
0 75 0
0 68 0
0 59 0
0 67 0
0 72 0
0 68 0
0 73 0
0 62 0
0 68 0
0 61 0
0 68 0
0 68 0
0 68 0
0 62 0
0 71 0
0 69 0
0 65 0
0 68 0
0 76 0
0 69 0
0 65 0
0 68 0
0 75 0
0 69 0
0 80 0
0 62 0
0 66 0
0 77 0
0 71 0
0 60 0
0 57 0
0 64 0
0 68 0
0 70 0
0 60 0
0 66 0
0 61 0
0 64 0
0 56 0
0 71 0
0 74 0
0 68 0
0 64 0
0 68 0
0 75 0
0 70 0
0 65 0
0 63 0
0 68 0
0 65 0
0 60 0
0 70 0
0 69 0
0 67 0
0 77 0
0 63 0
0 62 0
0 60 0
0 61 0
0 74 0
0 57 0
0 74 0
0 69 0
0 54 0
0 64 0
0 69 0
0 58 0
0 62 0
0 62 0
0 70 0
0 58 0
0 74 0
0 70 0
0 53 0
0 65 0
0 62 0
0 68 0
0 61 0
0 69 0
0 68 0
0 69 0
0 60 0
0 66 0
0 64 0
0 62 0
0 66 0
0 58 0
0 64 0
0 56 0
0 64 0
0 66 0
0 62 0
0 58 0
0 73 0
0 64 0
0 57 0
0 61 0
0 65 0
0 71 0
0 72 0
0 55 0
0 60 0
0 66 0
0 71 0
0 61 0
0 67 0
0 67 0
0 60 0
0 60 0
0 72 0
0 61 0
0 65 0
0 56 0
0 67 0
0 64 0
0 55 0
0 64 0
0 70 0
0 66 0
0 68 0
0 62 0
0 59 0
0 70 0
0 74 0
0 63 0
0 66 0
0 63 0
0 70 0
0 73 0
0 57 0
0 55 0
0 60 0
0 60 0
0 59 0
0 73 0
0 70 0
0 66 0
0 58 0
0 63 0
0 67 0
0 55 0
0 74 0
0 67 0
0 59 0
0 71 0
0 61 0
0 67 0
0 62 0
0 68 0
0 64 0
0 68 0
0 70 0
0 59 0
0 72 0
0 56 0
0 67 0
0 64 0
0 65 0
0 63 0
0 70 0
0 67 0
0 59 0
0 69 0
0 58 0
0 65 0
0 72 0
0 60 0
0 62 0
0 69 0
0 58 0
0 60 0
0 66 0
0 66 0
0 69 0
0 66 0
0 67 0
0 65 0
0 71 0
0 55 0
0 69 0
0 68 0
0 69 0
0 70 0
0 54 0
0 64 0
0 75 0
0 52 0
0 54 0
0 64 0
0 66 0
0 64 0
0 58 0
0 67 0
0 69 0
0 64 0
0 72 0
0 60 0
0 65 0
0 66 0
0 76 0
0 59 0
0 58 0
0 69 0
0 65 0
0 61 0
0 70 0
0 52 0
0 77 0
0 68 0
0 65 0
0 61 0
0 66 0
0 60 0
0 72 0
0 71 0
0 60 0
0 57 0
0 54 0
0 69 0
0 66 0
0 71 0
0 57 0
0 57 0
0 60 0
0 61 0
0 69 0
0 56 0
0 57 0
0 69 0
0 55 0
0 75 0
0 56 0
0 60 0
0 59 0
0 61 0
0 71 0
0 78 0
0 63 0
0 69 0
0 64 0
0 78 0
0 68 0
0 65 0
0 69 0
0 52 0
0 59 0
0 73 0
0 67 0
0 69 0
0 61 0
0 58 0
0 51 0
0 66 0
0 68 0
0 74 0
0 64 0
0 59 0
0 67 0
0 71 0
0 67 0
0 61 0
0 62 0
0 64 0
0 68 0
0 54 0
0 70 0
0 62 0
0 63 0
0 65 0
0 69 0
0 58 0
0 60 0
0 65 0
0 66 0
0 66 0
0 66 0
0 56 0
0 62 0
0 71 0
0 68 0
0 72 0
0 77 0
0 66 0
0 57 0
0 76 0
0 68 0
0 64 0
0 71 0
0 66 0
0 67 0
0 75 0
0 68 0
0 73 0
0 65 0
0 59 0
0 60 0
0 64 0
0 62 0
0 66 0
0 67 0
0 69 0
0 59 0
0 68 0
0 70 0
0 77 0
0 67 0
0 63 0
0 73 0
0 73 0
0 73 0
0 63 0
0 69 0
0 67 0
0 66 0
0 69 0
0 67 0
0 69 0
0 76 0
0 71 0
0 68 0
0 72 0
0 68 0
0 66 0
0 76 0
0 74 0
0 69 0
0 72 0
0 62 0
0 68 0
0 75 0
0 74 0
0 70 0
0 69 0
0 67 0
0 71 0
0 68 0
0 71 0
0 71 0
0 68 0
0 71 0
0 65 0
0 72 0
0 67 0
0 59 0
0 71 0
0 64 0
0 73 0
0 66 0
0 62 0
0 76 0
0 65 0
0 69 0
0 75 0
0 56 0
0 69 0
0 66 0
0 77 0
0 69 0
0 70 0
0 62 0
0 64 0
0 65 0
0 71 0
0 71 0
0 62 0
0 66 0
0 66 0
0 62 0
0 67 0
0 69 0
0 82 0
0 75 0
0 72 0
0 59 0
0 64 0
0 58 0
0 64 0
0 69 0
0 76 0
0 62 0
0 70 0
0 63 0
0 61 0
0 69 0
0 73 0
0 63 0
0 73 0
0 80 0
0 69 0
0 64 0
0 75 0
0 62 0
0 65 0
0 66 0
0 60 0
0 74 0
0 71 0
0 65 0
0 68 0
0 70 0
0 63 0
0 70 0
0 73 0
0 68 0
0 58 0
0 73 0
0 68 0
0 60 0
0 71 0
0 61 0
0 55 0
0 76 0
0 78 0
0 69 0
0 65 0
0 66 0
0 69 0
0 71 0
0 61 0
0 67 0
0 68 0
0 71 0
0 70 0
0 65 0
0 61 0
0 64 0
0 70 0
0 65 0
0 70 0
0 65 0
0 75 0
0 65 0
0 73 0
0 68 0
0 62 0
0 61 0
0 69 0
0 70 0
0 68 0
0 75 0
0 69 0
0 60 0
0 76 0
0 67 0
0 54 0
0 64 0
0 66 0
0 62 0
0 73 0
0 65 0
0 62 0
0 72 0
0 63 0
0 66 0
0 66 0
0 60 0
0 75 0
0 73 0
0 67 0
0 63 0
0 64 0
0 62 0
0 67 0
0 71 0
0 60 0
0 53 0
0 67 0
0 53 0
0 74 0
0 72 0
0 55 0
0 73 0
0 67 0
0 57 0
0 62 0
0 67 0
0 59 0
0 63 0
0 73 0
0 70 0
0 77 0
0 57 0
0 74 0
0 66 0
0 59 0
0 61 0
0 66 0
0 64 0
0 74 0
0 59 0
0 60 0
0 77 0
0 68 0
0 68 0
0 53 0
0 65 0
0 62 0
0 63 0
0 70 0
0 63 0
0 65 0
0 63 0
0 59 0
0 66 0
0 71 0
0 71 0
0 69 0
0 57 0
0 67 0
0 60 0
0 60 0
0 71 0
0 64 0
0 63 0
0 66 0
0 64 0
0 62 0
0 57 0
0 59 0
0 69 0
0 59 0
0 57 0
0 59 0
0 65 0
0 66 0
0 69 0
0 71 0
0 64 0
0 67 0
0 66 0
0 66 0
0 57 0
0 62 0
0 56 0
0 52 0
0 70 0
0 77 0
0 64 0
0 61 0
0 59 0
0 49 0
0 55 0
0 60 0
0 58 0
0 64 0
0 64 0
0 71 0
0 65 0
0 66 0
0 76 0
0 66 0
0 55 0
0 56 0
0 56 0
0 57 0
0 69 0
0 56 0
0 60 0
0 67 0
0 55 0
0 56 0
0 61 0
0 58 0
0 66 0
0 61 0
0 72 0
0 72 0
0 71 0
0 55 0
0 70 0
0 73 0
0 50 0
0 56 0
0 67 0
0 55 0
0 67 0
0 66 0
0 56 0
0 55 0
0 60 0
0 65 0
0 59 0
0 60 0
0 61 0
0 57 0
0 59 0
0 64 0
0 62 0
0 59 0
0 70 0
0 57 0
0 64 0
0 63 0
0 57 0
0 64 0
0 65 0
0 62 0
0 58 0
0 70 0
0 58 0
0 61 0
0 69 0
0 59 0
0 65 0
0 63 0
0 61 0
0 65 0
0 70 0
0 60 0
0 51 0
0 63 0
0 54 0
0 65 0
0 62 0
0 67 0
0 68 0
0 60 0
0 72 0
0 65 0
0 57 0
0 76 0
0 56 0
0 68 0
0 58 0
0 61 0
0 69 0
0 59 0
0 65 0
0 59 0
0 68 0
0 70 0
0 74 0
0 67 0
0 69 0
0 63 0
0 74 0
0 71 0
0 69 0
0 61 0
0 64 0
0 64 0
0 73 0
0 73 0
0 67 0
0 75 0
0 68 0
0 67 0
0 73 0
0 67 0
0 68 0
0 66 0
0 64 0
0 68 0
0 62 0
0 76 0
0 74 0
0 59 0
0 52 0
0 61 0
0 71 0
0 63 0
0 67 0
0 63 0
0 73 0
0 67 0
0 68 0
0 66 0
0 67 0
0 66 0
0 65 0
0 66 0
0 66 0
0 66 0
0 70 0
0 67 0
0 67 0
0 64 0
0 67 0
0 73 0
0 59 0
0 67 0
0 63 0
0 56 0
0 79 0
0 66 0
0 67 0
0 78 0
0 66 0
0 63 0
0 55 0
0 70 0
0 64 0
0 69 0
0 71 0
0 67 0
0 61 0
0 62 0
0 65 0
0 67 0
0 62 0
0 61 0
0 62 0
0 58 0
0 62 0
0 66 0
0 68 0
0 67 0
0 65 0
0 67 0
0 64 0
0 69 0
0 71 0
0 75 0
0 72 0
0 76 0
0 63 0
0 66 0
0 56 0
0 62 0
0 76 0
0 68 0
0 61 0
0 56 0
0 74 0
0 71 0
0 65 0
0 67 0
0 69 0
0 78 0
0 74 0
0 69 0
0 59 0
0 74 0
0 77 0
0 68 0
0 72 0
0 75 0
0 78 0
0 65 0
0 78 0
0 74 0
0 74 0
0 70 0
0 75 0
0 58 0
0 64 0
0 71 0
0 71 0
0 75 0
0 68 0
0 62 0
0 67 0
0 60 0
0 74 0
0 77 0
0 71 0
0 66 0
0 62 0
0 71 0
0 61 0
0 73 0
0 78 0
0 81 0
0 61 0
0 66 0
0 82 0
0 73 0
0 70 0
0 70 0
0 75 0
0 64 0
0 58 0
0 72 0
0 65 0
0 65 0
0 75 0
0 75 0
0 67 0
0 69 0
0 62 0
0 58 0
0 72 0
0 72 0
0 74 0
0 64 0
0 62 0
0 61 0
0 71 0
0 53 0
0 68 0
0 62 0
0 65 0
0 62 0
0 67 0
0 76 0
0 65 0
0 69 0
0 68 0
0 73 0
0 69 0
0 66 0
0 64 0
0 70 0
0 69 0
0 62 0
0 72 0
0 71 0
0 64 0
0 60 0
0 71 0
0 66 0
0 70 0
0 63 0
0 70 0
0 58 0
0 72 0
0 61 0
0 73 0
0 61 0
0 67 0
0 58 0
0 68 0
0 66 0
0 63 0
0 69 0
0 64 0
0 73 0
0 56 0
0 69 0
0 61 0
0 71 0
0 72 0
0 71 0
0 74 0
0 68 0
0 70 0
0 69 0
0 69 0
0 67 0
0 69 0
0 60 0
0 76 0
0 68 0
0 63 0
0 69 0
0 66 0
0 59 0
0 56 0
0 69 0
0 68 0
0 59 0
0 55 0
0 69 0
0 56 0
0 64 0
0 62 0
0 65 0
0 71 0
0 66 0
0 68 0
0 72 0
0 69 0
0 71 0
0 74 0
0 63 0
0 69 0
0 67 0
0 70 0
0 65 0
0 69 0
0 67 0
0 70 0
0 64 0
0 74 0
0 59 0
0 65 0
0 66 0
0 64 0
0 64 0
0 72 0
0 69 0
0 48 0
0 57 0
0 64 0
0 61 0
0 71 0
0 58 0
0 60 0
0 68 0
0 63 0
0 60 0
0 57 0
0 74 0
0 60 0
0 60 0
0 61 0
0 66 0
0 71 0
0 60 0
0 63 0
0 72 0
0 74 0
0 65 0
0 67 0
0 72 0
0 59 0
0 67 0
0 60 0
0 54 0
0 68 0
0 70 0
0 71 0
0 64 0
0 69 0
0 59 0
0 61 0
0 71 0
0 59 0
0 71 0
0 73 0
0 61 0
0 69 0
0 63 0
0 69 0
0 57 0
0 61 0
0 62 0
0 66 0
0 71 0
0 67 0
0 60 0
0 75 0
0 59 0
0 63 0
0 57 0
0 63 0
0 68 0
0 77 0
0 66 0
0 65 0
0 60 0
0 64 0
0 61 0
0 63 0
0 62 0
0 61 0
0 61 0
0 56 0
0 72 0
0 61 0
0 64 0
0 68 0
0 67 0
0 64 0
0 66 0
0 62 0
0 71 0
0 64 0
0 67 0
0 56 0
0 72 0
0 64 0
0 68 0
0 55 0
0 65 0
0 65 0
0 58 0
0 59 0
0 63 0
0 62 0
0 52 0
0 65 0
0 61 0
0 67 0
0 63 0
0 71 0
0 69 0
0 70 0
0 66 0
0 49 0
0 61 0
0 69 0
0 62 0
0 70 0
0 60 0
0 60 0
0 79 0
0 72 0
0 64 0
0 55 0
0 61 0
0 65 0
0 67 0
0 66 0
0 62 0
0 71 0
0 68 0
0 57 0
0 63 0
0 81 0
0 63 0
0 62 0
0 59 0
0 64 0
0 69 0
0 61 0
0 56 0
0 69 0
0 63 0
0 77 0
0 61 0
0 67 0
0 59 0
0 71 0
0 64 0
0 64 0
0 61 0
0 70 0
0 65 0
0 65 0
0 68 0
0 68 0
0 71 0
0 67 0
0 79 0
0 58 0
0 58 0
0 75 0
0 73 0
0 65 0
0 58 0
0 67 0
0 68 0
0 74 0
0 63 0
0 72 0
0 65 0
0 70 0
0 69 0
0 62 0
0 71 0
0 74 0
0 60 0
0 74 0
0 65 0
0 60 0
0 70 0
0 61 0
0 73 0
0 67 0
0 65 0
0 61 0
0 69 0
0 68 0
0 59 0
0 69 0
0 73 0
0 62 0
0 63 0
0 67 0
0 71 0
0 62 0
0 77 0
0 62 0
0 73 0
0 64 0
0 76 0
0 60 0
0 69 0
0 74 0
0 58 0
0 64 0
0 70 0
0 64 0
0 67 0
0 58 0
0 61 0
0 63 0
0 67 0
0 64 0
0 71 0
0 63 0
0 75 0
0 59 0
0 72 0
0 65 0
0 67 0
0 67 0
0 66 0
0 69 0
0 74 0
0 59 0
0 59 0
0 65 0
0 61 0
0 64 0
0 67 0
0 66 0
0 69 0
0 66 0
0 63 0
0 69 0
0 60 0
0 74 0
0 69 0
0 57 0
0 72 0
0 67 0
0 75 0
0 70 0
0 68 0
0 64 0
0 73 0
0 62 0
0 67 0
0 71 0
0 56 0
0 72 0
0 58 0
0 69 0
0 58 0
0 71 0
0 66 0
0 60 0
0 67 0
0 66 0
0 74 0
0 65 0
0 68 0
0 66 0
0 75 0
0 80 0
0 70 0
0 72 0
0 75 0
0 61 0
0 74 0
0 76 0
0 55 0
0 65 0
0 64 0
0 66 0
0 69 0
0 71 0
0 69 0
0 63 0
0 66 0
0 67 0
0 63 0
0 63 0
0 57 0
0 66 0
0 69 0
0 80 0
0 61 0
0 67 0
0 77 0
0 69 0
0 62 0
0 72 0
0 57 0
0 58 0
0 78 0
0 69 0
0 74 0
0 75 0
0 72 0
0 74 0
0 71 0
0 69 0
0 65 0
0 70 0
0 58 0
0 71 0
0 75 0
0 73 0
0 77 0
0 68 0
0 75 0
0 72 0
0 67 0
0 80 0
0 65 0
0 70 0
0 75 0
0 64 0
0 60 0
0 78 0
0 55 0
0 65 0
0 65 0
0 70 0
0 66 0
0 74 0
0 64 0
0 58 0
0 77 0
0 58 0
0 70 0
0 52 0
0 61 0
0 71 0
0 73 0
0 72 0
0 66 0
0 59 0
0 63 0
0 76 0
0 78 0
0 65 0
0 77 0
0 69 0
0 70 0
0 69 0
0 56 0
0 72 0
0 64 0
0 65 0
0 66 0
0 75 0
0 81 0
0 64 0
0 68 0
0 70 0
0 67 0
0 76 0
0 68 0
0 74 0
0 75 0
0 63 0
0 65 0
0 65 0
0 73 0
0 61 0
0 61 0
0 60 0
0 62 0
0 58 0
0 57 0
0 50 0
0 71 0
0 62 0
0 65 0
0 75 0
0 71 0
0 65 0
0 76 0
0 70 0
0 68 0
0 61 0
0 65 0
0 65 0
0 72 0
0 66 0
0 72 0
0 60 0
0 64 0
0 57 0
0 75 0
0 55 0
0 65 0
0 62 0
0 75 0
0 59 0
0 63 0
0 67 0
0 64 0
0 61 0
0 61 0
0 61 0
0 61 0
0 65 0
0 62 0
0 65 0
0 66 0
0 64 0
0 64 0
0 70 0
0 59 0
0 63 0
0 65 0
0 64 0
0 72 0
0 66 0
0 63 0
0 70 0
0 61 0
0 60 0
0 64 0
0 67 0
0 71 0
0 66 0
0 54 0
0 63 0
0 60 0
0 61 0
0 58 0
0 55 0
0 67 0
0 62 0
0 63 0
0 67 0
0 59 0
0 66 0
0 72 0
0 63 0
0 56 0
0 64 0
0 66 0
0 59 0
0 69 0
0 61 0
0 70 0
0 65 0
0 62 0
0 65 0
0 67 0
0 65 0
0 63 0
0 65 0
0 57 0
0 58 0
0 73 0
0 61 0
0 70 0
0 59 0
0 66 0
0 59 0
0 70 0
0 63 0
0 62 0
0 51 0
0 61 0
0 65 0
0 69 0
0 63 0
0 63 0
0 54 0
0 74 0
0 58 0
0 61 0
0 69 0
0 76 0
0 62 0
0 66 0
0 66 0
0 63 0
0 67 0
0 64 0
0 60 0
0 70 0
0 63 0
0 56 0
0 68 0
0 61 0
0 64 0
0 62 0
0 61 0
0 57 0
0 68 0
0 77 0
0 71 0
0 65 0
0 63 0
0 58 0
0 66 0
0 62 0
0 53 0
0 64 0
0 74 0
0 65 0
0 51 0
0 61 0
0 62 0
0 59 0
0 67 0
0 63 0
0 63 0
0 68 0
0 65 0
0 75 0
0 63 0
0 57 0
0 60 0
0 70 0
0 60 0
0 72 0
0 66 0
0 62 0
0 70 0
0 75 0
0 57 0
0 67 0
0 73 0
0 72 0
0 66 0
0 62 0
0 65 0
0 66 0
0 63 0
0 73 0
0 60 0
0 66 0
0 55 0
0 60 0
0 65 0
0 75 0
0 58 0
0 60 0
0 66 0
0 72 0
0 64 0
0 70 0
0 59 0
0 69 0
0 61 0
0 63 0
0 61 0
0 72 0
0 67 0
0 66 0
0 51 0
0 60 0
0 71 0
0 62 0
0 62 0
0 62 0
0 61 0
0 72 0
0 60 0
0 61 0
0 73 0
0 62 0
0 64 0
0 68 0
0 65 0
0 58 0
0 54 0
0 65 0
0 68 0
0 59 0
0 56 0
0 65 0
0 62 0
0 76 0
0 69 0
0 66 0
0 68 0
0 52 0
0 61 0
0 64 0
0 74 0
0 78 0
0 63 0
0 73 0
0 57 0
0 59 0
0 68 0
0 66 0
0 63 0
0 66 0
0 65 0
0 53 0
0 69 0
0 63 0
0 67 0
0 53 0
0 61 0
0 61 0
0 74 0
0 67 0
0 48 0
0 72 0
0 67 0
0 65 0
0 74 0
0 64 0
0 68 0
0 69 0
0 66 0
0 68 0
0 71 0
0 62 0
0 74 0
0 59 0
0 60 0
0 66 0
0 64 0
0 63 0
0 60 0
0 59 0
0 72 0
0 60 0
0 57 0
0 66 0
0 70 0
0 67 0
0 73 0
0 75 0
0 74 0
0 66 0
0 72 0
0 68 0
0 66 0
0 65 0
0 70 0
0 71 0
0 77 0
0 64 0
0 70 0
0 67 0
0 65 0
0 68 0
0 68 0
0 78 0
0 69 0
0 74 0
0 68 0
0 78 0
0 66 0
0 69 0
0 54 0
0 76 0
0 65 0
0 66 0
0 71 0
0 67 0
0 73 0
0 65 0
0 72 0
0 73 0
0 70 0
0 72 0
0 67 0
0 75 0
0 66 0
0 61 0
0 65 0
0 67 0
0 75 0
0 63 0
0 65 0
0 67 0
0 65 0
0 68 0
0 61 0
0 66 0
0 74 0
0 70 0
0 71 0
0 65 0
0 67 0
0 68 0
0 66 0
0 69 0
0 69 0
0 73 0
0 70 0
0 67 0
0 62 0
0 69 0
0 58 0
0 68 0
0 68 0
0 71 0
0 70 0
0 67 0
0 60 0
0 67 0
0 62 0
0 68 0
0 66 0
0 66 0
0 60 0
0 67 0
0 53 0
0 66 0
0 66 0
0 74 0
0 65 0
0 52 0
0 84 0
0 74 0
0 53 0
0 59 0
0 74 0
0 68 0
0 72 0
0 60 0
0 57 0
0 66 0
0 68 0
0 71 0
0 63 0
0 61 0
0 75 0
0 74 0
0 63 0
0 76 0
0 59 0
0 68 0
0 64 0
0 72 0
0 66 0
0 73 0
0 65 0
0 77 0
0 67 0
0 69 0
0 76 0
0 65 0
0 54 0
0 70 0
0 69 0
0 65 0
0 68 0
0 65 0
0 67 0
0 75 0
0 71 0
0 70 0
0 63 0
0 67 0
0 58 0
0 72 0
0 55 0
0 68 0
0 75 0
0 65 0
0 64 0
0 59 0
0 69 0
0 73 0
0 60 0
0 61 0
0 54 0
0 73 0
0 49 0
0 57 0
0 69 0
0 77 0
0 64 0
0 66 0
0 67 0
0 67 0
0 63 0
0 65 0
0 65 0
0 68 0
0 65 0
0 67 0
0 65 0
0 61 0
0 59 0
0 74 0
0 69 0
0 65 0
0 66 0
0 54 0
0 66 0
0 59 0
0 56 0
0 74 0
0 59 0
0 62 0
0 58 0
0 62 0
0 64 0
0 66 0
0 75 0
0 62 0
0 67 0
0 66 0
0 65 0
0 69 0
0 59 0
0 63 0
0 68 0
0 65 0
0 60 0
0 61 0
0 75 0
0 64 0
0 64 0
0 59 0
0 65 0
0 69 0
0 65 0
0 62 0
0 77 0
0 65 0
0 57 0
0 65 0
0 65 0
0 59 0
0 66 0
0 61 0
0 57 0
0 53 0
0 63 0
0 63 0
0 59 0
0 57 0
0 60 0
0 57 0
0 58 0
0 57 0
0 70 0
0 63 0
0 65 0
0 53 0
0 77 0
0 60 0
0 60 0
0 65 0
0 70 0
0 75 0
0 67 0
0 66 0
0 68 0
0 62 0
0 61 0
0 61 0
0 55 0
0 71 0
0 65 0
0 54 0
0 68 0
0 66 0
0 59 0
0 71 0
0 63 0
0 74 0
0 67 0
0 60 0
0 58 0
0 54 0
0 71 0
0 66 0
0 74 0
0 55 0
0 62 0
0 53 0
0 60 0
0 67 0
0 73 0
0 68 0
0 58 0
0 66 0
0 57 0
0 67 0
0 62 0
0 63 0
0 58 0
0 65 0
0 61 0
0 61 0
0 62 0
0 63 0
0 66 0
0 55 0
0 66 0
0 59 0
0 65 0
0 58 0
0 68 0
0 66 0
0 69 0
0 57 0
0 68 0
0 67 0
0 64 0
0 66 0
0 72 0
0 62 0
0 60 0
0 60 0
0 59 0
0 56 0
0 68 0
0 72 0
0 67 0
0 65 0
0 60 0
0 67 0
0 58 0
0 72 0
0 66 0
0 72 0
0 57 0
0 60 0
0 61 0
0 67 0
0 61 0
0 73 0
0 71 0
0 63 0
0 57 0
0 60 0
0 61 0
0 68 0
0 53 0
0 62 0
0 68 0
0 67 0
0 71 0
0 69 0
0 60 0
0 61 0
0 72 0
0 65 0
0 51 0
0 51 0
0 62 0
0 63 0
0 65 0
0 64 0
0 53 0
0 67 0
0 65 0
0 60 0
0 62 0
0 63 0
0 73 0
0 72 0
0 57 0
0 67 0
0 66 0
0 58 0
0 56 0
0 68 0
0 66 0
0 65 0
0 62 0
0 66 0
0 75 0
0 53 0
0 68 0
0 60 0
0 57 0
0 63 0
0 63 0
0 62 0
0 65 0
0 66 0
0 73 0
0 74 0
0 74 0
0 60 0
0 67 0
0 61 0
0 65 0
0 71 0
0 74 0
0 69 0
0 68 0
0 64 0
0 54 0
0 62 0
0 77 0
0 63 0
0 66 0
0 70 0
0 64 0
0 76 0
0 76 0
0 72 0
0 57 0
0 68 0
0 63 0
0 63 0
0 63 0
0 67 0
0 63 0
0 56 0
0 71 0
0 67 0
0 67 0
0 66 0
0 58 0
0 67 0
0 79 0
0 64 0
0 69 0
0 64 0
0 66 0
0 67 0
0 64 0
0 61 0
0 61 0
0 66 0
0 68 0
0 71 0
0 72 0
0 56 0
0 61 0
0 67 0
0 73 0
0 62 0
0 70 0
0 70 0
0 60 0
0 67 0
0 60 0
0 66 0
0 72 0
0 64 0
0 67 0
0 68 0
0 62 0
0 61 0
0 69 0
0 70 0
0 64 0
0 65 0
0 62 0
0 67 0
0 58 0
0 60 0
0 60 0
0 74 0
0 59 0
0 68 0
0 66 0
0 74 0
0 64 0
0 71 0
0 67 0
0 72 0
0 69 0
0 75 0
0 76 0
0 74 0
0 70 0
0 71 0
0 65 0
0 72 0
0 68 0
0 65 0
0 77 0
0 69 0
0 57 0
0 70 0
0 66 0
0 72 0
0 72 0
0 73 0
0 68 0
0 66 0
0 66 0
0 65 0
0 73 0
0 77 0
0 68 0
0 67 0
0 70 0
0 67 0
0 61 0
0 69 0
0 67 0
0 71 0
0 70 0
0 59 0
0 61 0
0 70 0
0 74 0
0 65 0
0 66 0
0 59 0
0 77 0
0 66 0
0 70 0
0 59 0
0 72 0
0 64 0
0 71 0
0 67 0
0 58 0
0 67 0
0 71 0
0 64 0
0 67 0
0 60 0
0 56 0
0 72 0
0 64 0
0 68 0
0 68 0
0 70 0
0 72 0
0 73 0
0 61 0
0 67 0
0 66 0
0 74 0
0 67 0
0 62 0
0 62 0
0 65 0
0 68 0
0 64 0
0 69 0
0 63 0
0 59 0
0 67 0
0 55 0
0 75 0
0 66 0
0 65 0
0 68 0
0 75 0
0 54 0
0 77 0
0 71 0
0 72 0
0 65 0
0 65 0
0 69 0
0 78 0
0 71 0
0 71 0
0 67 0
0 72 0
0 58 0
0 66 0
0 68 0
0 66 0
0 59 0
0 71 0
0 63 0
0 61 0
0 51 0
0 66 0
0 67 0
0 79 0
0 67 0
0 66 0
0 59 0
0 74 0
0 57 0
0 61 0
0 68 0
0 62 0
0 74 0
0 68 0
0 67 0
0 72 0
0 60 0
0 71 0
0 49 0
0 66 0
0 62 0
0 66 0
0 60 0
0 63 0
0 71 0
0 64 0
0 74 0
0 74 0
0 65 0
0 70 0
0 69 0
0 60 0
0 65 0
0 65 0
0 62 0
0 60 0
0 65 0
0 68 0
0 70 0
0 65 0
0 66 0
0 63 0
0 71 0
0 65 0
0 68 0
0 62 0
0 64 0
0 56 0
0 59 0
0 62 0
0 58 0
0 66 0
0 66 0
0 76 0
0 63 0
0 58 0
0 69 0
0 66 0
0 69 0
0 72 0
0 68 0
0 75 0
0 74 0
0 60 0
0 72 0
0 54 0
0 61 0
0 60 0
0 61 0
0 66 0
0 65 0
0 68 0
0 66 0
0 67 0
0 75 0
0 55 0
0 63 0
0 63 0
0 69 0
0 65 0
0 59 0
0 66 0
0 63 0
0 67 0
0 67 0
0 70 0
0 63 0
0 70 0
0 67 0
0 56 0
0 71 0
0 73 0
0 68 0
0 65 0
0 72 0
0 63 0
0 56 0
0 67 0
0 53 0
0 58 0
0 69 0
0 67 0
0 72 0
0 72 0
0 59 0
0 74 0
0 60 0
0 67 0
0 63 0
0 65 0
0 69 0
0 59 0
0 58 0
0 67 0
0 71 0
0 57 0
0 66 0
0 76 0
0 60 0
0 65 0
0 53 0
0 70 0
0 62 0
0 69 0
0 65 0
0 61 0
0 61 0
0 57 0
0 73 0
0 69 0
0 70 0
0 65 0
0 66 0
0 61 0
0 83 0
0 64 0
0 63 0
0 66 0
0 65 0
0 66 0
0 56 0
0 74 0
0 54 0
0 68 0
0 81 0
0 63 0
0 72 0
0 60 0
0 71 0
0 67 0
0 64 0
0 62 0
0 61 0
0 77 0
0 68 0
0 61 0
0 63 0
0 59 0
0 62 0
0 61 0
0 63 0
0 62 0
0 70 0
0 73 0
0 66 0
0 62 0
0 64 0
0 65 0
0 70 0
0 62 0
0 67 0
0 64 0
0 66 0
0 66 0
0 68 0
0 52 0
0 57 0
0 65 0
0 66 0
0 65 0
0 57 0
0 67 0
0 67 0
0 80 0
0 64 0
0 82 0
0 67 0
0 58 0
0 71 0
0 60 0
0 56 0
0 63 0
0 72 0
0 70 0
0 68 0
0 67 0
0 56 0
0 72 0
0 64 0
0 68 0
0 70 0
0 63 0
0 55 0
0 68 0
0 65 0
0 69 0
0 81 0
0 70 0
0 57 0
0 63 0
0 64 0
0 72 0
0 59 0
0 66 0
0 63 0
0 59 0
0 60 0
0 68 0
0 68 0
0 69 0
0 64 0
0 78 0
0 76 0
0 61 0
0 64 0
0 60 0
0 64 0
0 57 0
0 58 0
0 66 0
0 58 0
0 73 0
0 70 0
0 55 0
0 62 0
0 63 0
0 69 0
0 69 0
0 72 0
0 78 0
0 63 0
0 60 0
0 60 0
0 67 0
0 57 0
0 68 0
0 66 0
0 64 0
0 62 0
0 63 0
0 65 0
0 58 0
0 62 0
0 70 0
0 66 0
0 63 0
0 62 0
0 72 0
0 65 0
0 62 0
0 76 0
0 62 0
0 57 0
0 70 0
0 74 0
0 62 0
0 68 0
0 72 0
0 56 0
0 71 0
0 68 0
0 69 0
0 59 0
0 73 0
0 73 0
0 70 0
0 58 0
0 70 0
0 69 0
0 68 0
0 74 0
0 56 0
0 74 0
0 61 0
0 65 0
0 63 0
0 74 0
0 60 0
0 77 0
0 64 0
0 68 0
0 64 0
0 66 0
0 65 0
0 66 0
